;FLAVOR:Marlin
;TIME:7511
;Filament used: 3.05604m
;Layer height: 0.1
;Generated with Cura_SteamEngine master
M140 S70
M105
M190 S70
M104 S210
M105
M109 S210
M82 ;absolute extrusion mode
G21 ;metric values
G90 ;absolute positioning
M82 ;set extruder to absolute mode
M107 ;start with the fan off
G28 X0 Y0 ;move X/Y to min endstops
G28 Z0 ;move Z to min endstops
G1 Z15.0 F100 ;move the platform down 15mm
G92 E0 ;zero the extruded length
G1 F200 E3 ;extrude 3mm of feed stock
G92 E0 ;zero the extruded length again
G1 F100
M117 Printing...
G5
G92 E0
G1 F2400 E-6
;LAYER_COUNT:145
;LAYER:0
M106 S255
M204 S3000
M205 X10 Y10
G0 F1200 X85.892 Y87.826 Z0.2
M204 S1800
M205 X8 Y8
;TYPE:SKIRT
G1 F2400 E0
G1 X86.502 Y87.256 E0.03887
G1 X87.097 Y86.755 E0.07509
G1 X87.518 Y86.469 E0.09879
G1 X87.872 Y86.158 E0.12073
G1 X88.741 Y85.564 E0.16975
G1 X90.378 Y84.604 E0.25811
G1 X91.068 Y84.245 E0.29433
G1 X91.791 Y83.96 E0.33052
G1 X92.539 Y83.75 E0.3667
G1 X93.305 Y83.618 E0.40289
G1 X94.202 Y83.565 E0.44473
G1 X99.336 Y83.565 E0.68379
G1 X99.664 Y83.582 E0.69909
G1 X99.671 Y83.581 E0.69941
G1 X100.164 Y83.565 E0.72238
G1 X109.836 Y83.565 E1.17275
G1 X110.164 Y83.582 E1.18805
G1 X110.171 Y83.581 E1.18837
G1 X110.687 Y83.565 E1.21241
G1 X115.885 Y83.581 E1.45446
G1 X116.662 Y83.623 E1.49069
G1 X117.429 Y83.745 E1.52685
G1 X118.181 Y83.945 E1.56309
G1 X118.907 Y84.221 E1.59925
G1 X119.752 Y84.659 E1.64357
G1 X121.325 Y85.603 E1.72899
G1 X121.97 Y86.037 E1.76519
G1 X122.516 Y86.491 E1.79826
G1 X122.722 Y86.622 E1.80963
G1 X123.504 Y87.262 E1.85668
G1 X124.12 Y87.839 E1.89598
G1 X124.679 Y88.422 E1.93359
G1 X125.906 Y89.846 E2.02112
G1 X126.383 Y90.46 E2.05732
G1 X126.614 Y90.813 E2.07696
G1 X127.616 Y92.438 E2.16586
G1 X127.989 Y93.12 E2.20206
G1 X128.161 Y93.503 E2.22161
G1 X128.888 Y95.251 E2.30976
G1 X129.15 Y95.983 E2.34596
G1 X129.257 Y96.382 E2.3652
G1 X129.698 Y98.211 E2.4528
G1 X129.866 Y99.18 E2.4986
G1 X130 Y100.435 E2.55737
G1 X130.043 Y101.228 E2.59435
G1 X130.06 Y113.784 E3.17901
G1 X130.05 Y114.173 E3.19713
G1 X129.981 Y115.546 E3.26114
G1 X129.856 Y116.588 E3.31001
G1 X129.491 Y118.495 E3.40042
G1 X129.231 Y119.487 E3.44817
G1 X128.809 Y120.74 E3.50974
G1 X128.501 Y121.51 E3.54835
G1 X127.958 Y122.68 E3.60841
G1 X127.579 Y123.395 E3.64609
G1 X126.905 Y124.515 E3.70696
G1 X126.444 Y125.194 E3.74518
G1 X125.665 Y126.218 E3.80509
G1 X124.996 Y126.985 E3.85248
G1 X123.615 Y128.367 E3.94345
G1 X123.038 Y128.888 E3.97965
G1 X122.674 Y129.166 E4.00098
G1 X121.096 Y130.298 E4.09141
G1 X120.23 Y130.834 E4.13883
G1 X119.068 Y131.45 E4.20007
G1 X118.322 Y131.796 E4.23837
G1 X117.123 Y132.273 E4.29845
G1 X116.147 Y132.586 E4.34618
G1 X114.247 Y133.057 E4.43733
G1 X113.239 Y133.235 E4.48499
G1 X111.96 Y133.373 E4.54489
G1 X111.161 Y133.417 E4.58215
G1 X99.586 Y133.435 E5.12113
G1 X99.19 Y133.425 E5.13958
G1 X97.814 Y133.355 E5.20373
G1 X96.772 Y133.229 E5.25261
G1 X94.867 Y132.863 E5.34294
G1 X93.887 Y132.606 E5.39011
G1 X92.654 Y132.192 E5.45067
G1 X91.883 Y131.885 E5.48932
G1 X90.702 Y131.338 E5.54992
G1 X89.977 Y130.953 E5.58815
G1 X88.86 Y130.28 E5.64887
G1 X88.025 Y129.697 E5.69629
G1 X86.514 Y128.482 E5.78657
G1 X85.934 Y127.964 E5.82278
G1 X85.622 Y127.636 E5.84386
G1 X84.315 Y126.178 E5.93504
G1 X83.684 Y125.37 E5.98278
G1 X82.961 Y124.302 E6.04283
G1 X82.542 Y123.606 E6.08066
G1 X81.923 Y122.439 E6.14217
G1 X81.577 Y121.691 E6.18054
G1 X81.099 Y120.489 E6.24078
G1 X80.785 Y119.511 E6.28861
G1 X80.317 Y117.62 E6.37932
G1 X80.139 Y116.612 E6.42698
G1 X80.001 Y115.329 E6.48707
G1 X79.958 Y114.532 E6.52423
G1 X79.94 Y101.889 E7.11294
G1 X79.951 Y101.477 E7.13214
G1 X80.018 Y100.217 E7.19089
G1 X80.135 Y99.233 E7.23703
G1 X80.485 Y97.355 E7.32598
G1 X80.667 Y96.599 E7.36219
G1 X80.798 Y96.197 E7.38188
G1 X81.435 Y94.414 E7.47004
G1 X81.734 Y93.696 E7.50626
G1 X81.921 Y93.329 E7.52544
G1 X82.824 Y91.678 E7.61306
G1 X83.232 Y91.016 E7.64927
G1 X83.601 Y90.525 E7.67787
G1 X85.198 Y88.569 E7.79545
G1 X85.892 Y87.826 E7.8428
M204 S3000
M205 X10 Y10
G0 F1200 X86.275 Y88.235
M204 S1800
M205 X8 Y8
G1 F2400 X86.885 Y87.665 E7.88167
G1 X87.458 Y87.185 E7.91648
G1 X87.841 Y86.928 E7.93795
G1 X88.309 Y86.528 E7.96662
G1 X89.024 Y86.047 E8.00675
G1 X90.661 Y85.087 E8.09511
G1 X91.326 Y84.743 E8.12998
G1 X92.023 Y84.473 E8.16478
G1 X92.745 Y84.278 E8.19961
G1 X93.484 Y84.162 E8.23444
G1 X94.202 Y84.125 E8.26792
G1 X99.336 Y84.125 E8.50698
G1 X99.81 Y84.15 E8.52908
G1 X100.164 Y84.125 E8.5456
G1 X109.836 Y84.125 E8.99597
G1 X110.318 Y84.151 E9.01845
G1 X110.686 Y84.125 E9.03563
G1 X115.884 Y84.141 E9.27767
G1 X116.63 Y84.183 E9.31246
G1 X117.369 Y84.305 E9.34734
G1 X118.089 Y84.505 E9.38213
G1 X118.785 Y84.78 E9.41698
G1 X119.464 Y85.139 E9.45274
G1 X121.037 Y86.083 E9.53817
G1 X121.657 Y86.502 E9.57301
G1 X122.158 Y86.924 E9.60351
G1 X122.624 Y87.247 E9.62991
G1 X123.121 Y87.671 E9.66033
G1 X123.737 Y88.248 E9.69964
G1 X124.255 Y88.788 E9.73448
G1 X125.482 Y90.212 E9.82201
G1 X126.137 Y91.107 E9.87365
G1 X127.139 Y92.732 E9.96254
G1 X127.644 Y93.718 E10.01413
G1 X128.371 Y95.466 E10.10228
G1 X128.713 Y96.513 E10.15357
G1 X129.154 Y98.342 E10.24118
G1 X129.309 Y99.24 E10.28361
G1 X129.443 Y100.495 E10.34238
G1 X129.483 Y101.229 E10.37661
G1 X129.5 Y113.785 E10.96127
G1 X129.491 Y114.145 E10.97804
G1 X129.422 Y115.518 E11.04205
G1 X129.306 Y116.483 E11.08731
G1 X128.941 Y118.39 E11.17772
G1 X128.7 Y119.308 E11.22191
G1 X128.278 Y120.561 E11.28348
G1 X127.994 Y121.274 E11.31921
G1 X127.451 Y122.444 E11.37928
G1 X127.099 Y123.106 E11.41419
G1 X126.425 Y124.226 E11.47505
G1 X125.998 Y124.855 E11.51045
G1 X125.219 Y125.879 E11.57037
G1 X124.6 Y126.589 E11.61423
G1 X123.219 Y127.971 E11.7052
G1 X122.662 Y128.471 E11.74005
G1 X122.347 Y128.711 E11.75849
G1 X120.769 Y129.843 E11.84892
G1 X119.968 Y130.34 E11.89282
G1 X118.806 Y130.956 E11.95406
G1 X118.115 Y131.275 E11.9895
G1 X116.916 Y131.752 E12.04958
G1 X116.012 Y132.042 E12.09379
G1 X114.112 Y132.513 E12.18494
G1 X113.179 Y132.679 E12.22907
G1 X111.9 Y132.817 E12.28897
G1 X111.16 Y132.857 E12.32348
G1 X99.585 Y132.875 E12.86246
G1 X99.218 Y132.866 E12.87955
G1 X97.842 Y132.796 E12.94371
G1 X96.877 Y132.679 E12.98897
G1 X94.972 Y132.313 E13.0793
G1 X94.065 Y132.075 E13.12296
G1 X92.832 Y131.661 E13.18352
G1 X92.118 Y131.377 E13.2193
G1 X90.937 Y130.83 E13.27991
G1 X90.266 Y130.474 E13.31528
G1 X89.149 Y129.801 E13.376
G1 X88.375 Y129.26 E13.41997
G1 X86.864 Y128.045 E13.51026
G1 X86.307 Y127.546 E13.54508
G1 X86.039 Y127.262 E13.56326
G1 X84.732 Y125.804 E13.65444
G1 X84.147 Y125.056 E13.69865
G1 X83.424 Y123.988 E13.75871
G1 X83.037 Y123.344 E13.79369
G1 X82.418 Y122.177 E13.85521
G1 X82.097 Y121.484 E13.89077
G1 X81.619 Y120.282 E13.951
G1 X81.329 Y119.377 E13.99525
G1 X80.861 Y117.486 E14.08596
G1 X80.696 Y116.553 E14.13008
G1 X80.558 Y115.27 E14.19017
G1 X80.518 Y114.531 E14.22463
G1 X80.5 Y101.888 E14.81334
G1 X80.51 Y101.506 E14.83113
G1 X80.577 Y100.246 E14.88989
G1 X80.685 Y99.336 E14.93256
G1 X81.035 Y97.458 E15.02151
G1 X81.325 Y96.385 E15.07327
G1 X81.962 Y94.602 E15.16143
G1 X82.413 Y93.598 E15.21268
G1 X83.316 Y91.947 E15.30031
G1 X83.709 Y91.311 E15.33512
G1 X84.035 Y90.879 E15.36032
G1 X85.632 Y88.923 E15.4779
G1 X86.275 Y88.235 E15.52175
M204 S3000
M205 X10 Y10
G0 F1200 X86.657 Y88.645
M204 S1800
M205 X8 Y8
G1 F2400 X87.267 Y88.075 E15.56063
G1 X87.818 Y87.615 E15.59405
G1 X88.164 Y87.386 E15.61337
G1 X88.19 Y87.359 E15.61511
G1 X88.743 Y86.902 E15.64852
G1 X89.307 Y86.53 E15.67998
G1 X90.944 Y85.57 E15.76835
G1 X91.582 Y85.242 E15.80175
G1 X92.253 Y84.987 E15.83517
G1 X92.948 Y84.808 E15.86859
G1 X93.658 Y84.708 E15.90198
G1 X94.202 Y84.685 E15.92733
G1 X99.336 Y84.685 E16.16639
G1 X99.76 Y84.709 E16.18617
G1 X100.164 Y84.685 E16.20501
G1 X109.836 Y84.685 E16.65538
G1 X110.265 Y84.709 E16.67539
G1 X110.684 Y84.685 E16.69493
G1 X115.882 Y84.701 E16.93697
G1 X116.598 Y84.743 E16.97037
G1 X117.305 Y84.865 E17.00378
G1 X117.994 Y85.064 E17.03717
G1 X118.657 Y85.339 E17.07059
G1 X119.176 Y85.619 E17.09805
G1 X120.749 Y86.563 E17.18348
G1 X121.343 Y86.966 E17.2169
G1 X121.81 Y87.365 E17.2455
G1 X121.937 Y87.441 E17.25239
G1 X122.739 Y88.08 E17.30014
G1 X123.355 Y88.657 E17.33944
G1 X123.831 Y89.153 E17.37146
G1 X125.058 Y90.577 E17.45898
G1 X125.661 Y91.401 E17.50653
G1 X126.663 Y93.026 E17.59542
G1 X127.127 Y93.933 E17.64286
G1 X127.854 Y95.681 E17.73102
G1 X128.169 Y96.644 E17.77819
G1 X128.61 Y98.473 E17.8658
G1 X128.753 Y99.299 E17.90484
G1 X128.887 Y100.554 E17.96361
G1 X128.923 Y101.229 E17.99508
G1 X128.94 Y113.785 E18.57974
G1 X128.932 Y114.117 E18.59521
G1 X128.863 Y115.49 E18.65922
G1 X128.756 Y116.378 E18.70087
G1 X128.391 Y118.285 E18.79128
G1 X128.169 Y119.129 E18.83191
G1 X127.747 Y120.382 E18.89348
G1 X127.486 Y121.038 E18.92635
G1 X126.943 Y122.208 E18.98642
G1 X126.619 Y122.818 E19.01858
G1 X125.945 Y123.938 E19.07944
G1 X125.552 Y124.516 E19.11199
G1 X124.773 Y125.54 E19.1719
G1 X124.203 Y126.193 E19.21226
G1 X122.822 Y127.575 E19.30324
G1 X122.021 Y128.256 E19.35219
G1 X120.443 Y129.388 E19.44262
G1 X119.705 Y129.845 E19.48304
G1 X118.543 Y130.461 E19.54428
G1 X117.908 Y130.755 E19.57687
G1 X116.709 Y131.232 E19.63695
G1 X115.878 Y131.499 E19.67759
G1 X113.978 Y131.97 E19.76874
G1 X113.119 Y132.122 E19.80936
G1 X111.84 Y132.26 E19.86927
G1 X111.159 Y132.297 E19.90102
G1 X99.584 Y132.315 E20.44
G1 X99.247 Y132.307 E20.4557
G1 X97.871 Y132.237 E20.51986
G1 X96.983 Y132.129 E20.56151
G1 X95.078 Y131.763 E20.65184
G1 X94.243 Y131.544 E20.69203
G1 X93.01 Y131.13 E20.7526
G1 X92.353 Y130.869 E20.78551
G1 X91.172 Y130.322 E20.84612
G1 X90.555 Y129.994 E20.87866
G1 X89.438 Y129.321 E20.93938
G1 X88.726 Y128.824 E20.97981
G1 X87.215 Y127.609 E21.0701
G1 X86.456 Y126.889 E21.11881
G1 X85.149 Y125.431 E21.20999
G1 X84.611 Y124.742 E21.25069
G1 X83.888 Y123.674 E21.31074
G1 X83.532 Y123.082 E21.34291
G1 X82.913 Y121.915 E21.40442
G1 X82.618 Y121.277 E21.43715
G1 X82.14 Y120.075 E21.49739
G1 X81.873 Y119.242 E21.53812
G1 X81.405 Y117.351 E21.62883
G1 X81.253 Y116.493 E21.6694
G1 X81.115 Y115.21 E21.72949
G1 X81.078 Y114.53 E21.7612
G1 X81.06 Y101.887 E22.34991
G1 X81.069 Y101.536 E22.36626
G1 X81.136 Y100.276 E22.42501
G1 X81.236 Y99.438 E22.46431
G1 X81.586 Y97.56 E22.55326
G1 X81.852 Y96.573 E22.60086
G1 X82.489 Y94.79 E22.68903
G1 X82.904 Y93.867 E22.73615
G1 X83.807 Y92.216 E22.82377
G1 X84.186 Y91.606 E22.85721
G1 X84.469 Y91.233 E22.87902
G1 X86.066 Y89.277 E22.9966
G1 X86.657 Y88.645 E23.03689
M204 S3000
M205 X10 Y10
G0 F1200 X87.039 Y89.054
M204 S1800
M205 X8 Y8
G1 F2400 X87.649 Y88.484 E23.07576
G1 X88.177 Y88.046 E23.10771
G1 X88.531 Y87.815 E23.12739
G1 X88.638 Y87.708 E23.13444
G1 X89.174 Y87.281 E23.16635
G1 X89.59 Y87.013 E23.18939
G1 X91.227 Y86.053 E23.27775
G1 X91.838 Y85.741 E23.3097
G1 X92.481 Y85.503 E23.34163
G1 X93.147 Y85.34 E23.37355
G1 X93.827 Y85.257 E23.40545
G1 X94.202 Y85.245 E23.42292
G1 X99.336 Y85.245 E23.66198
G1 X99.681 Y85.265 E23.67807
G1 X100.164 Y85.245 E23.70058
G1 X109.836 Y85.245 E24.15095
G1 X110.182 Y85.265 E24.16709
G1 X110.682 Y85.245 E24.19039
G1 X115.88 Y85.261 E24.43243
G1 X116.564 Y85.303 E24.46434
G1 X117.239 Y85.425 E24.49628
G1 X117.895 Y85.624 E24.5282
G1 X118.523 Y85.898 E24.56011
G1 X118.888 Y86.099 E24.57951
G1 X120.461 Y87.043 E24.66493
G1 X121.027 Y87.43 E24.69686
G1 X121.473 Y87.817 E24.72436
G1 X121.848 Y88.064 E24.74527
G1 X122.356 Y88.489 E24.77611
G1 X122.972 Y89.066 E24.81541
G1 X123.406 Y89.519 E24.84462
G1 X124.633 Y90.943 E24.93215
G1 X125.184 Y91.695 E24.97556
G1 X126.186 Y93.32 E25.06445
G1 X126.61 Y94.148 E25.10777
G1 X127.337 Y95.896 E25.19592
G1 X127.624 Y96.776 E25.23902
G1 X128.065 Y98.605 E25.32663
G1 X128.196 Y99.359 E25.36226
G1 X128.33 Y100.614 E25.42103
G1 X128.363 Y101.23 E25.44976
G1 X128.38 Y113.786 E26.03442
G1 X128.373 Y114.089 E26.04853
G1 X128.304 Y115.462 E26.11255
G1 X128.206 Y116.272 E26.15054
G1 X127.841 Y118.179 E26.24095
G1 X127.638 Y118.951 E26.27812
G1 X127.216 Y120.204 E26.33968
G1 X126.978 Y120.802 E26.36965
G1 X126.435 Y121.972 E26.42971
G1 X126.139 Y122.529 E26.45908
G1 X125.465 Y123.649 E26.51995
G1 X125.107 Y124.177 E26.54966
G1 X124.328 Y125.201 E26.60957
G1 X123.807 Y125.797 E26.64643
G1 X122.426 Y127.179 E26.7374
G1 X121.694 Y127.801 E26.78213
G1 X120.116 Y128.933 E26.87256
G1 X119.443 Y129.35 E26.90943
G1 X118.281 Y129.966 E26.97067
G1 X117.701 Y130.235 E27.00044
G1 X116.502 Y130.712 E27.06052
G1 X115.743 Y130.955 E27.09763
G1 X113.843 Y131.426 E27.18878
G1 X113.059 Y131.565 E27.22586
G1 X111.78 Y131.703 E27.28576
G1 X111.158 Y131.737 E27.31477
G1 X99.583 Y131.755 E27.85375
G1 X99.275 Y131.747 E27.86809
G1 X97.899 Y131.677 E27.93225
G1 X97.089 Y131.579 E27.97024
G1 X95.184 Y131.213 E28.06057
G1 X94.421 Y131.013 E28.0973
G1 X93.188 Y130.599 E28.15786
G1 X92.589 Y130.36 E28.18789
G1 X91.408 Y129.813 E28.24849
G1 X90.844 Y129.514 E28.27822
G1 X89.727 Y128.841 E28.33894
G1 X89.077 Y128.387 E28.37586
G1 X87.566 Y127.172 E28.46614
G1 X86.873 Y126.515 E28.51061
G1 X85.566 Y125.057 E28.60179
G1 X85.075 Y124.428 E28.63894
G1 X84.352 Y123.36 E28.699
G1 X84.026 Y122.819 E28.72841
G1 X83.407 Y121.652 E28.78992
G1 X83.138 Y121.07 E28.81977
G1 X82.66 Y119.868 E28.88001
G1 X82.416 Y119.108 E28.91717
G1 X81.948 Y117.217 E29.00788
G1 X81.81 Y116.433 E29.04495
G1 X81.672 Y115.15 E29.10504
G1 X81.638 Y114.529 E29.134
G1 X81.62 Y101.886 E29.72271
G1 X81.628 Y101.566 E29.73761
G1 X81.695 Y100.306 E29.79637
G1 X81.787 Y99.541 E29.83225
G1 X82.137 Y97.663 E29.9212
G1 X82.38 Y96.762 E29.96465
G1 X83.017 Y94.979 E30.05282
G1 X83.395 Y94.135 E30.09588
G1 X84.298 Y92.484 E30.1835
G1 X84.662 Y91.903 E30.21543
G1 X84.902 Y91.587 E30.23391
G1 X86.499 Y89.631 E30.35149
G1 X87.039 Y89.054 E30.38828
M204 S3000
M205 X10 Y10
G0 F1200 X87.422 Y89.463
M204 S1800
M205 X8 Y8
G1 F2400 X88.032 Y88.893 E30.42716
G1 X88.535 Y88.478 E30.45752
G1 X88.892 Y88.25 E30.47725
G1 X89.084 Y88.062 E30.48976
G1 X89.874 Y87.496 E30.53501
G1 X91.511 Y86.536 E30.62338
G1 X92.092 Y86.241 E30.65372
G1 X92.706 Y86.02 E30.68411
G1 X93.342 Y85.875 E30.71448
G1 X94.202 Y85.805 E30.75466
G1 X99.336 Y85.805 E30.99372
G1 X99.821 Y85.835 E31.01635
G1 X100.164 Y85.805 E31.03238
G1 X109.836 Y85.805 E31.48275
G1 X110.326 Y85.835 E31.50561
G1 X110.68 Y85.805 E31.52215
G1 X115.878 Y85.821 E31.76419
G1 X116.529 Y85.863 E31.79457
G1 X117.17 Y85.984 E31.82494
G1 X117.791 Y86.183 E31.85531
G1 X118.6 Y86.579 E31.89725
G1 X120.173 Y87.523 E31.98267
G1 X120.71 Y87.893 E32.01304
G1 X121.111 Y88.248 E32.03798
G1 X121.213 Y88.305 E32.04342
G1 X121.973 Y88.897 E32.08827
G1 X122.589 Y89.474 E32.12758
G1 X122.982 Y89.884 E32.15402
G1 X124.209 Y91.308 E32.24155
G1 X124.707 Y91.989 E32.28083
G1 X125.709 Y93.614 E32.36973
G1 X126.093 Y94.363 E32.40892
G1 X126.82 Y96.111 E32.49707
G1 X127.08 Y96.907 E32.53607
G1 X127.521 Y98.736 E32.62367
G1 X127.639 Y99.418 E32.6559
G1 X127.773 Y100.673 E32.71467
G1 X127.803 Y101.231 E32.74069
G1 X127.82 Y113.787 E33.32535
G1 X127.813 Y114.061 E33.33812
G1 X127.744 Y115.434 E33.40213
G1 X127.656 Y116.167 E33.43651
G1 X127.291 Y118.074 E33.52692
G1 X127.108 Y118.772 E33.56052
G1 X126.686 Y120.025 E33.62208
G1 X126.47 Y120.567 E33.64925
G1 X125.927 Y121.737 E33.70931
G1 X125.659 Y122.24 E33.73585
G1 X124.985 Y123.36 E33.79672
G1 X124.661 Y123.838 E33.82361
G1 X123.882 Y124.862 E33.88352
G1 X123.411 Y125.401 E33.91685
G1 X122.03 Y126.783 E34.00782
G1 X121.368 Y127.346 E34.04829
G1 X119.79 Y128.478 E34.13872
G1 X119.181 Y128.855 E34.17207
G1 X118.019 Y129.471 E34.23331
G1 X117.494 Y129.714 E34.26025
G1 X116.295 Y130.191 E34.32033
G1 X115.608 Y130.412 E34.35394
G1 X113.708 Y130.883 E34.44509
G1 X112.999 Y131.008 E34.47861
G1 X111.72 Y131.146 E34.53851
G1 X111.157 Y131.177 E34.56477
G1 X99.582 Y131.195 E35.10375
G1 X99.304 Y131.188 E35.1167
G1 X97.928 Y131.118 E35.18085
G1 X97.194 Y131.029 E35.21528
G1 X95.289 Y130.663 E35.30561
G1 X94.6 Y130.482 E35.33878
G1 X93.367 Y130.068 E35.39934
G1 X92.824 Y129.852 E35.42655
G1 X91.643 Y129.305 E35.48716
G1 X91.133 Y129.035 E35.51403
G1 X90.016 Y128.362 E35.57475
