;FLAVOR:Marlin
;TIME:3290
;Filament used: 1.46247m
;Layer height: 0.1
;Generated with Cura_SteamEngine master
M140 S65
M105
M190 S65
M104 S205
M105
M109 S205
M82 ;absolute extrusion mode
G21 ;metric values
G90 ;absolute positioning
M82 ;set extruder to absolute mode
M107 ;start with the fan off
G28 X0 Y0 ;move X/Y to min endstops
G28 Z0 ;move Z to min endstops
G1 Z15.0 F100 ;move the platform down 15mm
G92 E0 ;zero the extruded length
G1 F200 E3 ;extrude 3mm of feed stock
G92 E0 ;zero the extruded length again
G1 F100
M117 Printing...
G5
G92 E0
G1 F2400 E-6
;LAYER_COUNT:105
;LAYER:0
M106 S255
M204 S3000
M205 X10 Y10
G0 F3000 X81.961 Y80.874 Z0.2
M204 S1800
M205 X8 Y8
;TYPE:SKIRT
G1 F2400 E0
G1 X82.57 Y80.314 E0.03852
G1 X83.406 Y79.663 E0.08786
G1 X84.096 Y79.212 E0.12625
G1 X85.038 Y78.703 E0.1761
G1 X85.797 Y78.371 E0.21468
G1 X86.794 Y78.029 E0.26376
G1 X87.594 Y77.826 E0.30219
G1 X88.647 Y77.65 E0.3519
G1 X89.469 Y77.582 E0.39031
G1 X90.004 Y77.56 E0.41524
G1 X117.526 Y77.577 E1.69678
G1 X118.573 Y77.663 E1.7457
G1 X120.121 Y77.919 E1.81876
G1 X121.142 Y78.175 E1.86777
G1 X122.134 Y78.512 E1.91656
G1 X122.91 Y78.834 E1.95568
G1 X123.847 Y79.296 E2.00432
G1 X124.571 Y79.714 E2.04325
G1 X125.441 Y80.294 E2.09194
G1 X126.118 Y80.813 E2.13166
G1 X126.905 Y81.504 E2.18043
G1 X127.495 Y82.094 E2.21928
G1 X128.186 Y82.881 E2.26805
G1 X128.704 Y83.555 E2.30763
G1 X129.284 Y84.424 E2.35628
G1 X129.703 Y85.151 E2.39535
G1 X130.166 Y86.09 E2.4441
G1 X130.55 Y87.061 E2.49272
G1 X131.007 Y88.561 E2.56574
G1 X131.178 Y89.258 E2.59916
G1 X131.265 Y89.904 E2.62951
G1 X131.418 Y91.742 E2.71539
G1 X131.44 Y92.28 E2.74046
G1 X131.424 Y118.51 E3.96184
G1 X131.34 Y119.545 E4.01019
G1 X131.087 Y121.093 E4.08323
G1 X130.835 Y122.107 E4.13188
G1 X130.501 Y123.1 E4.18067
G1 X130.178 Y123.885 E4.22019
G1 X129.717 Y124.824 E4.2689
G1 X129.3 Y125.55 E4.30789
G1 X128.722 Y126.42 E4.35652
G1 X128.203 Y127.099 E4.39632
G1 X127.513 Y127.887 E4.44509
G1 X126.766 Y128.612 E4.49356
G1 X125.556 Y129.61 E4.5666
G1 X124.687 Y130.214 E4.61588
G1 X123.781 Y130.739 E4.66463
G1 X123.026 Y131.113 E4.70387
G1 X122.06 Y131.515 E4.75259
G1 X121.065 Y131.837 E4.80128
G1 X119.539 Y132.197 E4.87429
G1 X118.491 Y132.355 E4.92364
G1 X117.447 Y132.425 E4.97237
G1 X117.012 Y132.439 E4.99263
G1 X89.583 Y132.423 E6.26984
G1 X88.519 Y132.334 E6.31956
G1 X87.704 Y132.197 E6.35804
G1 X86.682 Y131.937 E6.40714
G1 X85.901 Y131.669 E6.44559
G1 X84.934 Y131.246 E6.49474
G1 X84.209 Y130.855 E6.5331
G1 X83.312 Y130.27 E6.58296
G1 X82.659 Y129.762 E6.62148
G1 X81.873 Y129.038 E6.67124
G1 X81.313 Y128.429 E6.70977
G1 X80.661 Y127.592 E6.75917
G1 X80.211 Y126.903 E6.79749
G1 X79.703 Y125.962 E6.84729
G1 X79.371 Y125.203 E6.88586
G1 X79.029 Y124.206 E6.93494
G1 X78.826 Y123.406 E6.97337
G1 X78.65 Y122.353 E7.02309
G1 X78.582 Y121.531 E7.06149
G1 X78.56 Y120.943 E7.08889
G1 X78.577 Y119.03 E7.17797
G1 X78.666 Y118.019 E7.22523
G1 X78.803 Y117.204 E7.26371
G1 X79.062 Y116.184 E7.31272
G1 X79.329 Y115.405 E7.35106
G1 X79.754 Y114.433 E7.40046
G1 X80.146 Y113.707 E7.43888
G1 X80.725 Y112.819 E7.48824
G1 X81.231 Y112.167 E7.52667
G1 X81.956 Y111.378 E7.57656
G1 X82.564 Y110.818 E7.61505
G1 X83.408 Y110.161 E7.66486
G1 X84.064 Y109.733 E7.70133
G1 X84.686 Y109.375 E7.73475
G1 X85.113 Y109.179 E7.75662
G1 X85.797 Y108.895 E7.79111
G1 X86.474 Y108.658 E7.82451
G1 X86.937 Y108.542 E7.84674
G1 X87.662 Y108.389 E7.88124
G1 X88.371 Y108.28 E7.91464
G1 X88.844 Y108.252 E7.9367
G1 X89.582 Y108.235 E7.97108
G1 X90.299 Y108.258 E8.00448
G1 X90.772 Y108.318 E8.02668
G1 X91.504 Y108.438 E8.06122
G1 X92.204 Y108.593 E8.09461
G1 X92.921 Y108.841 E8.12993
G1 X95.049 Y109.72 E8.23714
G1 X97.454 Y110.512 E8.35505
G1 X98.95 Y110.833 E8.42629
G1 X101.074 Y111.046 E8.52569
G1 X103.089 Y110.986 E8.61956
G1 X105.869 Y110.496 E8.751
G1 X107.468 Y110.005 E8.82889
G1 X109.232 Y109.284 E8.91763
G1 X110.559 Y108.613 E8.98687
G1 X110.547 Y101.38 E9.32367
G1 X109.745 Y100.959 E9.36584
G1 X107.366 Y99.964 E9.48592
G1 X105.097 Y99.315 E9.59581
G1 X103.64 Y99.067 E9.66463
G1 X101.52 Y98.945 E9.76351
G1 X99.403 Y99.097 E9.86234
G1 X97.882 Y99.38 E9.93438
G1 X96.264 Y99.841 E10.01272
G1 X93.231 Y101.068 E10.16506
G1 X92.432 Y101.332 E10.20425
G1 X91.715 Y101.518 E10.23874
G1 X91.012 Y101.659 E10.27213
G1 X90.551 Y101.708 E10.29371
G1 X89.814 Y101.76 E10.32812
G1 X89.097 Y101.771 E10.36151
G1 X88.615 Y101.733 E10.38402
G1 X87.878 Y101.647 E10.41857
G1 X87.171 Y101.524 E10.45199
G1 X86.711 Y101.399 E10.47418
G1 X86.004 Y101.179 E10.50866
G1 X85.331 Y100.928 E10.54211
G1 X84.912 Y100.726 E10.56377
G1 X84.26 Y100.382 E10.59809
G1 X83.645 Y100.012 E10.63151
G1 X83.31 Y99.768 E10.65081
G1 X82.656 Y99.259 E10.6894
G1 X81.87 Y98.536 E10.73913
G1 X81.311 Y97.928 E10.77759
G1 X80.66 Y97.091 E10.82696
G1 X80.21 Y96.402 E10.86528
G1 X79.7 Y95.457 E10.91528
G1 X79.369 Y94.699 E10.9538
G1 X79.029 Y93.706 E11.00267
G1 X78.826 Y92.906 E11.0411
G1 X78.65 Y91.853 E11.09082
G1 X78.582 Y91.031 E11.12922
G1 X78.56 Y90.443 E11.15662
G1 X78.577 Y88.53 E11.2457
G1 X78.666 Y87.519 E11.29296
G1 X78.803 Y86.704 E11.33144
G1 X79.062 Y85.684 E11.38044
G1 X79.329 Y84.905 E11.41879
G1 X79.753 Y83.937 E11.468
G1 X80.145 Y83.21 E11.50646
G1 X80.729 Y82.313 E11.5563
G1 X81.236 Y81.661 E11.59476
G1 X81.961 Y80.874 E11.64458
M204 S3000
M205 X10 Y10
G0 F3000 X82.34 Y81.286
M204 S1800
M205 X8 Y8
G1 F2400 X82.949 Y80.726 E11.68311
G1 X83.712 Y80.132 E11.72813
G1 X84.402 Y79.681 E11.76652
G1 X85.263 Y79.216 E11.81208
G1 X86.022 Y78.884 E11.85066
G1 X86.932 Y78.572 E11.89545
G1 X87.732 Y78.369 E11.93388
G1 X88.693 Y78.208 E11.97925
G1 X89.515 Y78.14 E12.01766
G1 X90.004 Y78.12 E12.04045
G1 X117.526 Y78.137 E13.32199
G1 X118.481 Y78.216 E13.36661
G1 X120.029 Y78.472 E13.43967
G1 X120.961 Y78.705 E13.4844
G1 X121.953 Y79.042 E13.53319
G1 X122.662 Y79.336 E13.56893
G1 X123.599 Y79.798 E13.61757
G1 X124.261 Y80.18 E13.65316
G1 X125.131 Y80.76 E13.70185
G1 X125.749 Y81.233 E13.73809
G1 X126.536 Y81.924 E13.78686
G1 X127.075 Y82.463 E13.82235
G1 X127.766 Y83.25 E13.87112
G1 X128.238 Y83.866 E13.90725
G1 X128.818 Y84.735 E13.9559
G1 X129.201 Y85.399 E13.9916
G1 X129.664 Y86.338 E14.04035
G1 X130.015 Y87.224 E14.08472
G1 X130.472 Y88.724 E14.15774
G1 X130.633 Y89.391 E14.18969
G1 X130.707 Y89.95 E14.21594
G1 X130.86 Y91.788 E14.30183
G1 X130.88 Y92.28 E14.32475
G1 X130.864 Y118.51 E15.54613
G1 X130.787 Y119.454 E15.59024
G1 X130.534 Y121.002 E15.66327
G1 X130.304 Y121.929 E15.70775
G1 X129.97 Y122.922 E15.75653
G1 X129.675 Y123.638 E15.79259
G1 X129.214 Y124.577 E15.8413
G1 X128.834 Y125.24 E15.87688
G1 X128.256 Y126.11 E15.92552
G1 X127.782 Y126.73 E15.96186
G1 X127.092 Y127.518 E16.01063
G1 X126.409 Y128.18 E16.05492
G1 X125.199 Y129.178 E16.12796
G1 X124.406 Y129.73 E16.17295
G1 X123.5 Y130.255 E16.2217
G1 X122.811 Y130.596 E16.2575
G1 X121.845 Y130.998 E16.30622
G1 X120.936 Y131.292 E16.35071
G1 X119.41 Y131.652 E16.42371
G1 X118.453 Y131.796 E16.46878
G1 X117.409 Y131.866 E16.5175
G1 X117.013 Y131.879 E16.53595
G1 X89.584 Y131.863 E17.81316
G1 X88.612 Y131.782 E17.85858
G1 X87.797 Y131.645 E17.89706
G1 X86.864 Y131.408 E17.94188
G1 X86.083 Y131.14 E17.98033
G1 X85.2 Y130.753 E18.02522
G1 X84.475 Y130.362 E18.06358
G1 X83.656 Y129.828 E18.1091
G1 X83.003 Y129.32 E18.14763
G1 X82.285 Y128.659 E18.19307
G1 X81.725 Y128.05 E18.2316
G1 X81.13 Y127.285 E18.27672
G1 X80.68 Y126.596 E18.31504
G1 X80.216 Y125.737 E18.3605
G1 X79.884 Y124.978 E18.39908
G1 X79.572 Y124.068 E18.44387
G1 X79.369 Y123.268 E18.48231
G1 X79.208 Y122.307 E18.52768
G1 X79.14 Y121.485 E18.56608
G1 X79.12 Y120.948 E18.59111
G1 X79.137 Y119.035 E18.68019
G1 X79.218 Y118.112 E18.72333
G1 X79.355 Y117.297 E18.76181
G1 X79.592 Y116.366 E18.80655
G1 X79.859 Y115.587 E18.84489
G1 X80.247 Y114.699 E18.89002
G1 X80.639 Y113.973 E18.92844
G1 X81.168 Y113.162 E18.97352
G1 X81.674 Y112.51 E19.01195
G1 X82.335 Y111.79 E19.05746
G1 X82.943 Y111.23 E19.09595
G1 X83.714 Y110.63 E19.14145
G1 X84.37 Y110.202 E19.17792
G1 X84.965 Y109.862 E19.20983
G1 X85.328 Y109.696 E19.22841
G1 X86.012 Y109.412 E19.2629
G1 X86.66 Y109.187 E19.29484
G1 X87.053 Y109.09 E19.31369
G1 X87.778 Y108.937 E19.34819
G1 X88.456 Y108.835 E19.38012
G1 X88.857 Y108.812 E19.39882
G1 X89.595 Y108.795 E19.43319
G1 X90.28 Y108.819 E19.46511
G1 X90.681 Y108.87 E19.48393
G1 X91.413 Y108.99 E19.51847
G1 X92.082 Y109.141 E19.55041
G1 X92.707 Y109.359 E19.58123
G1 X94.849 Y110.244 E19.68915
G1 X97.31 Y111.054 E19.80979
G1 X98.858 Y111.386 E19.88351
G1 X101.058 Y111.607 E19.98647
G1 X103.14 Y111.545 E20.08346
G1 X106.001 Y111.041 E20.21873
G1 X107.658 Y110.532 E20.29944
G1 X109.466 Y109.792 E20.39041
G1 X111.119 Y108.958 E20.47662
G1 X111.106 Y101.041 E20.84527
G1 X109.99 Y100.455 E20.90397
G1 X107.542 Y99.431 E21.02753
G1 X105.227 Y98.769 E21.13964
G1 X103.703 Y98.51 E21.21163
G1 X101.52 Y98.384 E21.31344
G1 X99.322 Y98.542 E21.41606
G1 X97.754 Y98.834 E21.49032
G1 X96.088 Y99.308 E21.57098
G1 X93.021 Y100.549 E21.72504
G1 X92.291 Y100.79 E21.76084
G1 X91.574 Y100.976 E21.79533
G1 X90.902 Y101.109 E21.82723
G1 X90.512 Y101.149 E21.84548
G1 X89.775 Y101.201 E21.87988
G1 X89.089 Y101.21 E21.91183
G1 X88.679 Y101.176 E21.93099
G1 X87.942 Y101.09 E21.96554
G1 X87.267 Y100.971 E21.99745
G1 X86.877 Y100.864 E22.01628
G1 X86.17 Y100.644 E22.05076
G1 X85.528 Y100.403 E22.08269
G1 X85.173 Y100.231 E22.10106
G1 X84.521 Y99.887 E22.13539
G1 X83.934 Y99.532 E22.16733
G1 X83.654 Y99.326 E22.18352
G1 X83 Y98.817 E22.22211
G1 X82.282 Y98.157 E22.26752
G1 X81.723 Y97.549 E22.30598
G1 X81.129 Y96.784 E22.35108
G1 X80.679 Y96.095 E22.38939
G1 X80.213 Y95.233 E22.43502
G1 X79.882 Y94.475 E22.47354
G1 X79.572 Y93.568 E22.51817
G1 X79.369 Y92.768 E22.5566
G1 X79.208 Y91.807 E22.60197
G1 X79.14 Y90.985 E22.64038
G1 X79.12 Y90.448 E22.6654
G1 X79.137 Y88.535 E22.75448
G1 X79.218 Y87.612 E22.79763
G1 X79.355 Y86.797 E22.83611
G1 X79.592 Y85.866 E22.88084
G1 X79.859 Y85.087 E22.91919
G1 X80.245 Y84.202 E22.96415
G1 X80.637 Y83.475 E23.00261
G1 X81.171 Y82.657 E23.04809
G1 X81.678 Y82.005 E23.08655
G1 X82.34 Y81.286 E23.13206
M204 S3000
M205 X10 Y10
G0 F3000 X82.719 Y81.698
M204 S1800
M205 X8 Y8
G1 F2400 X83.328 Y81.138 E23.17059
G1 X84.018 Y80.601 E23.2113
G1 X84.708 Y80.15 E23.24968
G1 X85.487 Y79.729 E23.29091
G1 X86.246 Y79.397 E23.32949
G1 X87.07 Y79.114 E23.37006
G1 X87.87 Y78.911 E23.40849
G1 X88.739 Y78.766 E23.44951
G1 X89.561 Y78.698 E23.48792
G1 X90.003 Y78.68 E23.50852
G1 X117.525 Y78.697 E24.79006
G1 X118.39 Y78.768 E24.83047
G1 X119.938 Y79.024 E24.90353
G1 X120.781 Y79.236 E24.94401
G1 X121.773 Y79.573 E24.99279
G1 X122.415 Y79.838 E25.02513
G1 X123.352 Y80.3 E25.07378
G1 X123.95 Y80.645 E25.10593
G1 X124.82 Y81.225 E25.15461
G1 X125.379 Y81.654 E25.18743
G1 X126.166 Y82.345 E25.23619
G1 X126.654 Y82.833 E25.26833
G1 X127.345 Y83.62 E25.31709
G1 X127.772 Y84.177 E25.34978
G1 X128.352 Y85.046 E25.39842
G1 X128.698 Y85.646 E25.43068
G1 X129.161 Y86.585 E25.47943
G1 X129.479 Y87.388 E25.51964
G1 X129.936 Y88.888 E25.59266
G1 X130.088 Y89.522 E25.62302
G1 X130.149 Y89.997 E25.64532
G1 X130.302 Y91.835 E25.7312
G1 X130.32 Y92.279 E25.75189
G1 X130.304 Y118.509 E26.97327
G1 X130.234 Y119.364 E27.01321
G1 X129.981 Y120.912 E27.08625
G1 X129.773 Y121.75 E27.12646
G1 X129.439 Y122.743 E27.17524
G1 X129.173 Y123.392 E27.2079
G1 X128.712 Y124.331 E27.25661
G1 X128.367 Y124.93 E27.2888
G1 X127.789 Y125.8 E27.33743
G1 X127.36 Y126.361 E27.37032
G1 X126.67 Y127.149 E27.41909
G1 X126.053 Y127.748 E27.45913
G1 X124.843 Y128.746 E27.53217
G1 X124.125 Y129.245 E27.57288
G1 X123.219 Y129.77 E27.62164
G1 X122.596 Y130.079 E27.65402
G1 X121.63 Y130.481 E27.70274
G1 X120.808 Y130.747 E27.74297
G1 X119.282 Y131.107 E27.81598
G1 X118.416 Y131.237 E27.85675
G1 X117.372 Y131.307 E27.90548
G1 X117.013 Y131.319 E27.9222
G1 X89.584 Y131.303 E29.19941
G1 X88.705 Y131.229 E29.24049
G1 X87.89 Y131.092 E29.27897
G1 X87.045 Y130.878 E29.31956
G1 X86.264 Y130.61 E29.35801
G1 X85.466 Y130.26 E29.39858
G1 X84.741 Y129.869 E29.43694
G1 X83.999 Y129.386 E29.47816
G1 X83.346 Y128.878 E29.51669
G1 X82.697 Y128.28 E29.55778
G1 X82.137 Y127.671 E29.5963
G1 X81.599 Y126.979 E29.63712
G1 X81.149 Y126.29 E29.67544
G1 X80.729 Y125.513 E29.71656
G1 X80.397 Y124.754 E29.75514
G1 X80.114 Y123.93 E29.79571
G1 X79.911 Y123.13 E29.83414
G1 X79.766 Y122.261 E29.87516
G1 X79.698 Y121.439 E29.91357
G1 X79.68 Y120.953 E29.93622
G1 X79.697 Y119.04 E30.0253
G1 X79.771 Y118.205 E30.06433
G1 X79.908 Y117.39 E30.10281
G1 X80.121 Y116.547 E30.1433
G1 X80.388 Y115.768 E30.18165
G1 X80.74 Y114.965 E30.22247
G1 X81.132 Y114.239 E30.26089
G1 X81.61 Y113.505 E30.30168
G1 X82.116 Y112.853 E30.34011
G1 X82.715 Y112.202 E30.3813
G1 X83.323 Y111.642 E30.41979
G1 X84.02 Y111.099 E30.46093
G1 X84.676 Y110.671 E30.4974
G1 X85.243 Y110.349 E30.52777
G1 X85.543 Y110.214 E30.54308
G1 X86.227 Y109.93 E30.57757
G1 X86.843 Y109.717 E30.60792
G1 X87.168 Y109.638 E30.62349
G1 X87.893 Y109.485 E30.658
G1 X88.539 Y109.389 E30.68841
G1 X88.869 Y109.371 E30.7038
G1 X89.607 Y109.354 E30.73817
G1 X90.259 Y109.379 E30.76855
G1 X90.591 Y109.423 E30.78415
G1 X91.323 Y109.543 E30.81869
G1 X91.958 Y109.688 E30.84902
G1 X92.494 Y109.876 E30.87547
G1 X94.665 Y110.773 E30.98485
G1 X97.159 Y111.594 E31.10711
G1 X98.774 Y111.94 E31.18401
G1 X101.034 Y112.167 E31.28978
G1 X103.206 Y112.102 E31.39096
G1 X106.125 Y111.588 E31.52897
G1 X107.848 Y111.059 E31.6129
G1 X109.707 Y110.299 E31.70642
G1 X111.61 Y109.337 E31.80571
G1 X111.667 Y109.299 E31.8089
G1 X111.68 Y109.18 E31.81447
G1 X111.666 Y100.702 E32.20924
G1 X110.226 Y99.946 E32.28498
G1 X107.733 Y98.904 E32.41079
G1 X105.35 Y98.222 E32.52621
G1 X103.765 Y97.953 E32.60107
G1 X101.512 Y97.823 E32.70615
G1 X99.26 Y97.984 E32.81128
G1 X97.626 Y98.289 E32.88868
G1 X95.901 Y98.78 E32.9722
G1 X92.811 Y100.03 E33.12741
G1 X92.151 Y100.248 E33.15977
G1 X91.434 Y100.434 E33.19426
G1 X90.472 Y100.591 E33.23965
G1 X89.735 Y100.643 E33.27405
G1 X89.083 Y100.649 E33.30442
G1 X88.744 Y100.62 E33.32026
G1 X88.007 Y100.534 E33.35481
G1 X87.366 Y100.419 E33.38513
G1 X87.043 Y100.33 E33.40073
G1 X86.336 Y100.11 E33.43521
G1 X85.434 Y99.735 E33.4807
G1 X84.782 Y99.391 E33.51502
G1 X83.998 Y98.884 E33.5585
G1 X83.344 Y98.375 E33.59709
G1 X82.695 Y97.778 E33.63815
G1 X82.136 Y97.17 E33.67661
G1 X81.598 Y96.478 E33.71742
G1 X81.148 Y95.789 E33.75574
G1 X80.727 Y95.009 E33.79701
G1 X80.396 Y94.251 E33.83553
G1 X80.114 Y93.43 E33.87595
G1 X79.911 Y92.63 E33.91438
G1 X79.766 Y91.761 E33.95541
G1 X79.698 Y90.939 E33.99381
G1 X79.68 Y90.453 E34.01646
G1 X79.697 Y88.54 E34.10554
G1 X79.771 Y87.705 E34.14457
G1 X79.908 Y86.89 E34.18305
G1 X80.121 Y86.047 E34.22354
G1 X80.388 Y85.268 E34.26189
G1 X80.738 Y84.468 E34.30255
G1 X81.13 Y83.741 E34.34101
G1 X81.613 Y83 E34.38219
G1 X82.12 Y82.348 E34.42065
G1 X82.719 Y81.698 E34.46181
M204 S3000
M205 X10 Y10
G0 F3000 X83.098 Y82.11
M204 S1800
M205 X8 Y8
G1 F2400 X83.707 Y81.55 E34.50034
G1 X84.325 Y81.07 E34.53677
G1 X85.015 Y80.619 E34.57516
G1 X85.711 Y80.242 E34.61201
G1 X86.47 Y79.91 E34.65059
G1 X87.207 Y79.657 E34.68687
G1 X88.007 Y79.454 E34.7253
G1 X88.786 Y79.324 E34.76208
G1 X89.608 Y79.256 E34.80049
G1 X90.003 Y79.24 E34.81889
G1 X117.525 Y79.257 E36.10043
G1 X118.299 Y79.321 E36.1366
G1 X119.847 Y79.577 E36.20966
G1 X120.601 Y79.766 E36.24585
G1 X121.593 Y80.103 E36.29464
G1 X122.167 Y80.341 E36.32357
G1 X123.104 Y80.803 E36.37222
G1 X123.639 Y81.111 E36.40096
G1 X124.509 Y81.691 E36.44965
G1 X125.01 Y82.075 E36.47904
G1 X125.797 Y82.766 E36.52781
G1 X126.233 Y83.202 E36.55652
G1 X126.924 Y83.989 E36.60529
G1 X127.306 Y84.488 E36.63455
G1 X127.886 Y85.357 E36.6832
G1 X128.196 Y85.894 E36.71207
G1 X128.659 Y86.833 E36.76082
G1 X128.943 Y87.551 E36.79678
G1 X129.4 Y89.051 E36.86979
G1 X129.542 Y89.651 E36.8985
G1 X129.591 Y90.043 E36.9169
G1 X129.744 Y91.881 E37.00278
G1 X129.76 Y92.279 E37.02133
G1 X129.744 Y118.509 E38.24271
G1 X129.682 Y119.274 E38.27844
G1 X129.429 Y120.822 E38.35148
G1 X129.243 Y121.572 E38.38746
G1 X128.909 Y122.565 E38.43625
