;FLAVOR:Marlin
;TIME:3303
;Filament used: 1.48623m
;Layer height: 0.1
;Generated with Cura_SteamEngine master
M140 S70
M105
M190 S70
M104 S200
M105
M109 S200
M82 ;absolute extrusion mode
G21 ;metric values
G90 ;absolute positioning
M82 ;set extruder to absolute mode
M107 ;start with the fan off
G28 X0 Y0 ;move X/Y to min endstops
G28 Z0 ;move Z to min endstops
G1 Z15.0 F100 ;move the platform down 15mm
G92 E0 ;zero the extruded length
G1 F200 E3 ;extrude 3mm of feed stock
G92 E0 ;zero the extruded length again
G1 F100
M117 Printing...
G5
G92 E0
G1 F2400 E-6
;LAYER_COUNT:105
;LAYER:0
M106 S255
M204 S3000
M205 X10 Y10
G0 F3000 X80.86 Y80.385 Z0.2
M204 S1800
M205 X8 Y8
;TYPE:SKIRT
G1 F2400 E0
G1 X81.203 Y80.049 E0.02236
G1 X81.812 Y79.489 E0.06088
G1 X82.41 Y78.993 E0.09706
G1 X82.793 Y78.726 E0.1188
G1 X83.483 Y78.275 E0.15718
G1 X84.155 Y77.884 E0.19339
G1 X84.589 Y77.677 E0.21577
G1 X85.348 Y77.345 E0.25435
G1 X86.076 Y77.07 E0.29059
G1 X86.519 Y76.943 E0.31205
G1 X87.319 Y76.74 E0.35048
G1 X88.081 Y76.588 E0.38666
G1 X88.555 Y76.534 E0.40887
G1 X89.377 Y76.466 E0.44728
G1 X90.005 Y76.44 E0.47655
G1 X117.527 Y76.457 E1.75809
G1 X118.303 Y76.497 E1.79427
G1 X118.755 Y76.558 E1.81551
G1 X120.303 Y76.814 E1.88857
G1 X121.063 Y76.98 E1.92479
G1 X121.502 Y77.115 E1.94618
G1 X122.494 Y77.452 E1.99496
G1 X123.405 Y77.829 E2.04087
G1 X124.342 Y78.291 E2.08952
G1 X125.193 Y78.782 E2.13526
G1 X126.063 Y79.362 E2.18395
G1 X126.857 Y79.971 E2.23055
G1 X127.644 Y80.662 E2.27931
G1 X128.337 Y81.355 E2.32495
G1 X129.028 Y82.142 E2.37372
G1 X129.635 Y82.933 E2.42014
G1 X130.215 Y83.802 E2.46879
G1 X130.708 Y84.656 E2.51471
G1 X131.171 Y85.595 E2.56346
G1 X131.478 Y86.309 E2.59965
G1 X131.622 Y86.735 E2.62059
G1 X132.079 Y88.235 E2.6936
G1 X132.267 Y88.989 E2.72979
G1 X132.381 Y89.811 E2.76843
G1 X132.534 Y91.649 E2.85431
G1 X132.56 Y92.281 E2.88376
G1 X132.544 Y118.511 E4.10514
G1 X132.504 Y119.287 E4.14133
G1 X132.445 Y119.725 E4.1619
G1 X132.192 Y121.273 E4.23494
G1 X132.027 Y122.033 E4.27116
G1 X131.897 Y122.464 E4.29212
G1 X131.563 Y123.457 E4.3409
G1 X131.183 Y124.379 E4.38734
G1 X130.722 Y125.318 E4.43605
G1 X130.233 Y126.17 E4.48179
G1 X129.655 Y127.04 E4.53043
G1 X129.046 Y127.836 E4.57709
G1 X128.356 Y128.624 E4.62587
G1 X127.814 Y129.182 E4.66209
G1 X127.478 Y129.476 E4.68288
G1 X126.268 Y130.474 E4.75591
G1 X125.644 Y130.937 E4.79209
G1 X125.248 Y131.183 E4.8138
G1 X124.342 Y131.708 E4.86256
G1 X123.457 Y132.147 E4.90856
G1 X122.491 Y132.549 E4.95728
G1 X121.758 Y132.81 E4.99351
G1 X121.322 Y132.927 E5.01453
G1 X119.796 Y133.287 E5.08754
G1 X119.031 Y133.426 E5.12374
G1 X118.566 Y133.472 E5.1455
G1 X117.522 Y133.542 E5.19422
G1 X117.012 Y133.559 E5.21798
G1 X89.583 Y133.543 E6.49519
G1 X88.806 Y133.503 E6.53142
G1 X88.334 Y133.438 E6.55361
G1 X87.519 Y133.301 E6.59209
G1 X86.76 Y133.133 E6.62829
G1 X86.318 Y132.997 E6.64982
G1 X85.537 Y132.729 E6.68827
G1 X84.816 Y132.439 E6.72446
G1 X84.402 Y132.232 E6.74601
G1 X83.677 Y131.841 E6.78436
G1 X83.013 Y131.437 E6.82056
G1 X82.624 Y131.154 E6.84296
G1 X81.971 Y130.646 E6.88148
G1 X81.383 Y130.138 E6.91766
G1 X81.048 Y129.796 E6.93995
G1 X80.488 Y129.187 E6.97848
G1 X79.992 Y128.589 E7.01466
G1 X79.723 Y128.204 E7.03653
G1 X79.273 Y127.515 E7.07484
G1 X78.882 Y126.843 E7.11105
G1 X78.677 Y126.411 E7.13331
G1 X78.345 Y125.652 E7.17189
G1 X78.07 Y124.924 E7.20812
G1 X77.943 Y124.481 E7.22958
G1 X77.74 Y123.681 E7.26802
G1 X77.588 Y122.919 E7.3042
G1 X77.534 Y122.445 E7.32641
G1 X77.466 Y121.623 E7.36482
G1 X77.44 Y120.933 E7.39697
G1 X77.457 Y119.02 E7.48605
G1 X77.504 Y118.244 E7.52225
G1 X77.562 Y117.834 E7.54153
G1 X77.699 Y117.019 E7.58001
G1 X77.867 Y116.26 E7.61621
G1 X78.002 Y115.821 E7.6376
G1 X78.269 Y115.042 E7.67594
G1 X78.559 Y114.32 E7.71217
G1 X78.769 Y113.901 E7.734
G1 X79.161 Y113.175 E7.77242
G1 X79.565 Y112.511 E7.80861
G1 X79.841 Y112.132 E7.83044
G1 X80.347 Y111.48 E7.86887
G1 X80.854 Y110.891 E7.90506
G1 X81.197 Y110.554 E7.92745
G1 X81.805 Y109.994 E7.96594
G1 X82.403 Y109.498 E8.00211
G1 X82.796 Y109.223 E8.02445
G1 X83.452 Y108.795 E8.06092
G1 X84.124 Y108.405 E8.0971
G1 X84.684 Y108.145 E8.12585
G1 X85.368 Y107.861 E8.16034
G1 X86.1 Y107.6 E8.19652
G1 X86.706 Y107.446 E8.22564
G1 X87.431 Y107.293 E8.26014
G1 X88.199 Y107.172 E8.29634
G1 X88.818 Y107.132 E8.32523
G1 X89.556 Y107.115 E8.3596
G1 X90.333 Y107.137 E8.39579
G1 X90.953 Y107.213 E8.42488
G1 X91.685 Y107.333 E8.45942
G1 X92.445 Y107.498 E8.49563
G1 X93.349 Y107.806 E8.5401
G1 X95.437 Y108.669 E8.64531
G1 X97.749 Y109.43 E8.75864
G1 X99.127 Y109.725 E8.82426
G1 X101.107 Y109.924 E8.91693
G1 X102.97 Y109.868 E9.00371
G1 X105.612 Y109.403 E9.12863
G1 X107.092 Y108.949 E9.20071
G1 X108.777 Y108.259 E9.2855
G1 X109.437 Y107.926 E9.31992
G1 X109.428 Y102.058 E9.59316
G1 X109.269 Y101.975 E9.60151
G1 X106.983 Y101.019 E9.71689
G1 X104.855 Y100.41 E9.81995
G1 X103.513 Y100.182 E9.88334
G1 X101.535 Y100.068 E9.9756
G1 X99.538 Y100.211 E10.06882
G1 X98.136 Y100.472 E10.13523
G1 X96.629 Y100.901 E10.20819
G1 X93.651 Y102.106 E10.35778
G1 X92.713 Y102.416 E10.40378
G1 X91.996 Y102.602 E10.43827
G1 X91.235 Y102.758 E10.47444
G1 X90.63 Y102.825 E10.50279
G1 X89.893 Y102.877 E10.53719
G1 X89.116 Y102.892 E10.57338
G1 X88.485 Y102.845 E10.60284
G1 X87.748 Y102.759 E10.63739
G1 X86.981 Y102.629 E10.67361
G1 X86.378 Y102.469 E10.70266
G1 X85.671 Y102.249 E10.73714
G1 X84.941 Y101.98 E10.77337
G1 X84.389 Y101.716 E10.80186
G1 X83.737 Y101.372 E10.83619
G1 X83.069 Y100.975 E10.87237
G1 X82.622 Y100.652 E10.89805
G1 X81.968 Y100.143 E10.93664
G1 X81.38 Y99.635 E10.97282
G1 X81.046 Y99.294 E10.99505
G1 X80.487 Y98.686 E11.03351
G1 X79.991 Y98.087 E11.06972
G1 X79.722 Y97.703 E11.09155
G1 X79.272 Y97.014 E11.12987
G1 X78.881 Y96.342 E11.16607
G1 X78.674 Y95.905 E11.18859
G1 X78.343 Y95.147 E11.2271
G1 X78.069 Y94.42 E11.26328
G1 X77.943 Y93.981 E11.28455
G1 X77.74 Y93.181 E11.32298
G1 X77.588 Y92.419 E11.35916
G1 X77.534 Y91.945 E11.38137
G1 X77.466 Y91.123 E11.41978
G1 X77.44 Y90.433 E11.45193
G1 X77.457 Y88.52 E11.54101
G1 X77.504 Y87.744 E11.57721
G1 X77.562 Y87.334 E11.59649
G1 X77.699 Y86.519 E11.63498
G1 X77.867 Y85.76 E11.67117
G1 X78.002 Y85.321 E11.69256
G1 X78.269 Y84.542 E11.73091
G1 X78.559 Y83.82 E11.76713
G1 X78.767 Y83.405 E11.78875
G1 X79.159 Y82.678 E11.82721
G1 X79.562 Y82.014 E11.86338
G1 X79.845 Y81.625 E11.88578
G1 X80.352 Y80.973 E11.92424
G1 X80.86 Y80.385 E11.96042
M204 S3000
M205 X10 Y10
G0 F3000 X81.284 Y80.752
M204 S1800
M205 X8 Y8
G1 F2400 X81.582 Y80.461 E11.97981
G1 X82.191 Y79.901 E12.01834
G1 X82.768 Y79.425 E12.05317
G1 X83.099 Y79.195 E12.07194
G1 X83.789 Y78.744 E12.11032
G1 X84.436 Y78.368 E12.14516
G1 X84.814 Y78.19 E12.16462
G1 X85.573 Y77.858 E12.2032
G1 X86.273 Y77.595 E12.23801
G1 X86.656 Y77.486 E12.25656
G1 X87.456 Y77.283 E12.29499
G1 X88.19 Y77.138 E12.32983
G1 X88.601 Y77.092 E12.34909
G1 X89.423 Y77.024 E12.38749
G1 X90.004 Y77 E12.41457
G1 X117.526 Y77.017 E13.69611
G1 X118.273 Y77.057 E13.73094
G1 X118.664 Y77.111 E13.74932
G1 X120.212 Y77.367 E13.82238
G1 X120.943 Y77.528 E13.85724
G1 X121.322 Y77.645 E13.87571
G1 X122.314 Y77.982 E13.92449
G1 X123.158 Y78.332 E13.96704
G1 X124.095 Y78.794 E14.01568
G1 X124.882 Y79.248 E14.05799
G1 X125.752 Y79.828 E14.10668
G1 X126.488 Y80.392 E14.14985
G1 X127.275 Y81.083 E14.19862
G1 X127.916 Y81.724 E14.24083
G1 X128.607 Y82.511 E14.2896
G1 X129.169 Y83.244 E14.33261
G1 X129.749 Y84.113 E14.38126
G1 X130.205 Y84.903 E14.42373
G1 X130.668 Y85.842 E14.47248
G1 X130.963 Y86.53 E14.50734
G1 X131.086 Y86.898 E14.5254
G1 X131.543 Y88.398 E14.59842
G1 X131.723 Y89.124 E14.63325
G1 X131.823 Y89.857 E14.6677
G1 X131.976 Y91.695 E14.75358
G1 X132 Y92.28 E14.78084
G1 X131.984 Y118.51 E16.00222
G1 X131.944 Y119.257 E16.03705
G1 X131.892 Y119.635 E16.05482
G1 X131.639 Y121.183 E16.12786
G1 X131.479 Y121.914 E16.1627
G1 X131.366 Y122.286 E16.18081
G1 X131.032 Y123.279 E16.22959
G1 X130.681 Y124.132 E16.27254
G1 X130.22 Y125.071 E16.32125
G1 X129.767 Y125.86 E16.36361
G1 X129.189 Y126.73 E16.41225
G1 X128.624 Y127.467 E16.45549
G1 X127.934 Y128.255 E16.50426
G1 X127.412 Y128.791 E16.5391
G1 X127.122 Y129.044 E16.55702
G1 X125.912 Y130.042 E16.63006
G1 X125.31 Y130.487 E16.66491
G1 X124.968 Y130.699 E16.68365
G1 X124.062 Y131.224 E16.73241
G1 X123.241 Y131.63 E16.77506
G1 X122.275 Y132.032 E16.82378
G1 X121.57 Y132.282 E16.85861
G1 X121.193 Y132.382 E16.87677
G1 X119.667 Y132.742 E16.94978
G1 X118.931 Y132.875 E16.9846
G1 X118.528 Y132.913 E17.00345
G1 X117.484 Y132.983 E17.05217
G1 X117.012 Y132.999 E17.07417
G1 X89.583 Y132.983 E18.35137
G1 X88.836 Y132.943 E18.38621
G1 X88.427 Y132.886 E18.40544
G1 X87.612 Y132.749 E18.44392
G1 X86.882 Y132.586 E18.47875
G1 X86.5 Y132.467 E18.49738
G1 X85.719 Y132.199 E18.53583
G1 X85.025 Y131.919 E18.57067
G1 X84.668 Y131.739 E18.58929
G1 X83.943 Y131.348 E18.62765
G1 X83.305 Y130.958 E18.66246
G1 X82.968 Y130.712 E18.68189
G1 X82.315 Y130.204 E18.72042
G1 X81.75 Y129.714 E18.75524
G1 X81.46 Y129.417 E18.77457
G1 X80.9 Y128.808 E18.81309
G1 X80.424 Y128.231 E18.84792
G1 X80.192 Y127.898 E18.86682
G1 X79.742 Y127.209 E18.90514
G1 X79.367 Y126.561 E18.94
G1 X79.19 Y126.186 E18.95931
G1 X78.858 Y125.427 E18.99789
G1 X78.595 Y124.727 E19.03271
G1 X78.486 Y124.344 E19.05125
G1 X78.283 Y123.544 E19.08968
G1 X78.138 Y122.81 E19.12452
G1 X78.092 Y122.399 E19.14378
G1 X78.024 Y121.577 E19.18218
G1 X78 Y120.938 E19.21196
G1 X78.017 Y119.025 E19.30104
G1 X78.114 Y117.927 E19.35237
G1 X78.251 Y117.112 E19.39085
G1 X78.414 Y116.382 E19.42568
G1 X78.532 Y116.002 E19.44421
G1 X78.799 Y115.223 E19.48255
G1 X79.079 Y114.53 E19.51735
G1 X79.262 Y114.167 E19.53628
G1 X79.654 Y113.441 E19.5747
G1 X80.044 Y112.803 E19.60952
G1 X80.283 Y112.475 E19.62842
G1 X80.789 Y111.823 E19.66685
G1 X81.279 Y111.258 E19.70167
G1 X81.577 Y110.966 E19.7211
G1 X82.185 Y110.406 E19.75959
G1 X82.761 Y109.93 E19.79438
G1 X83.102 Y109.692 E19.81375
G1 X83.758 Y109.264 E19.85022
G1 X84.405 Y108.89 E19.88502
G1 X84.899 Y108.662 E19.91035
G1 X85.583 Y108.378 E19.94484
G1 X86.288 Y108.129 E19.97965
G1 X86.822 Y107.994 E20.0053
G1 X87.547 Y107.841 E20.0398
G1 X88.286 Y107.726 E20.07463
G1 X88.831 Y107.692 E20.10006
G1 X89.569 Y107.675 E20.13443
G1 X90.317 Y107.698 E20.16928
G1 X90.862 Y107.765 E20.19484
G1 X91.594 Y107.885 E20.22938
G1 X92.325 Y108.045 E20.26423
G1 X93.135 Y108.323 E20.30411
G1 X95.249 Y109.196 E20.41061
G1 X97.607 Y109.973 E20.52621
G1 X99.033 Y110.278 E20.59411
G1 X101.09 Y110.485 E20.69038
G1 X103.03 Y110.427 E20.78075
G1 X105.734 Y109.951 E20.9086
G1 X107.281 Y109.476 E20.98395
G1 X109.017 Y108.765 E21.07131
G1 X109.998 Y108.27 E21.12247
G1 X109.988 Y101.719 E21.42751
G1 X109.505 Y101.466 E21.4529
G1 X107.174 Y100.491 E21.57056
G1 X104.976 Y99.862 E21.67701
G1 X103.576 Y99.624 E21.74314
G1 X101.528 Y99.506 E21.83866
G1 X99.474 Y99.654 E21.93455
G1 X98.01 Y99.926 E22.00389
G1 X96.443 Y100.372 E22.07975
G1 X93.441 Y101.587 E22.23055
G1 X92.573 Y101.874 E22.27312
G1 X91.856 Y102.06 E22.30761
G1 X91.123 Y102.209 E22.34244
G1 X90.591 Y102.267 E22.36736
G1 X89.854 Y102.319 E22.40177
G1 X89.106 Y102.331 E22.4366
G1 X88.55 Y102.289 E22.46256
G1 X87.813 Y102.203 E22.49711
G1 X87.075 Y102.077 E22.53198
G1 X86.544 Y101.934 E22.55758
G1 X85.837 Y101.714 E22.59206
G1 X85.136 Y101.454 E22.62687
G1 X84.651 Y101.221 E22.65193
G1 X83.999 Y100.877 E22.68626
G1 X83.356 Y100.493 E22.72113
G1 X82.966 Y100.21 E22.74357
G1 X82.312 Y99.701 E22.78216
G1 X81.747 Y99.211 E22.81698
G1 X81.458 Y98.915 E22.83624
G1 X80.899 Y98.307 E22.8747
G1 X80.423 Y97.73 E22.90953
G1 X80.191 Y97.397 E22.92843
G1 X79.741 Y96.708 E22.96675
G1 X79.366 Y96.06 E23.00161
G1 X79.187 Y95.681 E23.02113
G1 X78.856 Y94.923 E23.05964
G1 X78.594 Y94.223 E23.09444
G1 X78.486 Y93.844 E23.1128
G1 X78.283 Y93.044 E23.15123
G1 X78.138 Y92.31 E23.18607
G1 X78.092 Y91.899 E23.20532
G1 X78.024 Y91.077 E23.24373
G1 X78 Y90.438 E23.27351
G1 X78.017 Y88.525 E23.36259
G1 X78.114 Y87.427 E23.41391
G1 X78.251 Y86.612 E23.45239
G1 X78.414 Y85.882 E23.48722
G1 X78.532 Y85.502 E23.50575
G1 X78.799 Y84.723 E23.5441
G1 X79.079 Y84.03 E23.5789
G1 X79.26 Y83.671 E23.59762
G1 X79.652 Y82.944 E23.63608
G1 X80.041 Y82.305 E23.67092
G1 X80.287 Y81.969 E23.69031
G1 X80.794 Y81.317 E23.72876
G1 X81.284 Y80.752 E23.76359
M204 S3000
M205 X10 Y10
G0 F3000 X81.961 Y80.874
M204 S1800
M205 X8 Y8
G1 F2400 X82.57 Y80.314 E23.80211
G1 X83.406 Y79.663 E23.85145
G1 X84.096 Y79.212 E23.88983
G1 X85.038 Y78.703 E23.93969
G1 X85.797 Y78.371 E23.97827
G1 X86.794 Y78.029 E24.02735
G1 X87.594 Y77.826 E24.06578
G1 X88.647 Y77.65 E24.11549
G1 X89.469 Y77.582 E24.1539
G1 X90.004 Y77.56 E24.17883
G1 X117.526 Y77.577 E25.46037
G1 X118.573 Y77.663 E25.50929
G1 X120.121 Y77.919 E25.58235
G1 X121.142 Y78.175 E25.63136
G1 X122.134 Y78.512 E25.68015
G1 X122.91 Y78.834 E25.71927
G1 X123.847 Y79.296 E25.76791
G1 X124.571 Y79.714 E25.80684
G1 X125.441 Y80.294 E25.85553
G1 X126.118 Y80.813 E25.89525
G1 X126.905 Y81.504 E25.94402
G1 X127.495 Y82.094 E25.98287
G1 X128.186 Y82.881 E26.03164
G1 X128.704 Y83.555 E26.07122
G1 X129.284 Y84.424 E26.11987
G1 X129.703 Y85.151 E26.15894
G1 X130.166 Y86.09 E26.20769
G1 X130.55 Y87.061 E26.25631
G1 X131.007 Y88.561 E26.32933
G1 X131.178 Y89.258 E26.36275
G1 X131.265 Y89.904 E26.3931
G1 X131.418 Y91.742 E26.47898
G1 X131.44 Y92.28 E26.50405
G1 X131.424 Y118.51 E27.72543
G1 X131.34 Y119.545 E27.77378
G1 X131.087 Y121.093 E27.84682
G1 X130.835 Y122.107 E27.89547
G1 X130.501 Y123.1 E27.94426
G1 X130.178 Y123.885 E27.98378
G1 X129.717 Y124.824 E28.03249
G1 X129.3 Y125.55 E28.07148
G1 X128.722 Y126.42 E28.12011
G1 X128.203 Y127.099 E28.15991
G1 X127.513 Y127.887 E28.20868
G1 X126.766 Y128.612 E28.25715
G1 X125.556 Y129.61 E28.33019
G1 X124.687 Y130.214 E28.37946
G1 X123.781 Y130.739 E28.42822
G1 X123.026 Y131.113 E28.46746
G1 X122.06 Y131.515 E28.51618
G1 X121.065 Y131.837 E28.56487
G1 X119.539 Y132.197 E28.63788
G1 X118.491 Y132.355 E28.68723
G1 X117.447 Y132.425 E28.73595
G1 X117.012 Y132.439 E28.75622
G1 X89.583 Y132.423 E30.03343
G1 X88.519 Y132.334 E30.08315
G1 X87.704 Y132.197 E30.12163
G1 X86.682 Y131.937 E30.17073
G1 X85.901 Y131.669 E30.20918
G1 X84.934 Y131.246 E30.25833
G1 X84.209 Y130.855 E30.29668
G1 X83.312 Y130.27 E30.34655
G1 X82.659 Y129.762 E30.38507
G1 X81.873 Y129.038 E30.43483
G1 X81.313 Y128.429 E30.47336
G1 X80.661 Y127.592 E30.52276
G1 X80.211 Y126.903 E30.56108
G1 X79.703 Y125.962 E30.61087
G1 X79.371 Y125.203 E30.64945
G1 X79.029 Y124.206 E30.69853
G1 X78.826 Y123.406 E30.73696
G1 X78.65 Y122.353 E30.78667
G1 X78.582 Y121.531 E30.82508
G1 X78.56 Y120.943 E30.85248
G1 X78.577 Y119.03 E30.94156
G1 X78.666 Y118.019 E30.98882
G1 X78.803 Y117.204 E31.0273
G1 X79.062 Y116.184 E31.0763
G1 X79.329 Y115.405 E31.11465
G1 X79.754 Y114.433 E31.16405
G1 X80.146 Y113.707 E31.20247
G1 X80.725 Y112.819 E31.25183
G1 X81.231 Y112.167 E31.29026
G1 X81.956 Y111.378 E31.34015
G1 X82.564 Y110.818 E31.37864
G1 X83.408 Y110.161 E31.42845
G1 X84.064 Y109.733 E31.46492
G1 X84.686 Y109.375 E31.49834
G1 X85.113 Y109.179 E31.52021
G1 X85.797 Y108.895 E31.5547
G1 X86.474 Y108.658 E31.5881
G1 X86.937 Y108.542 E31.61032
G1 X87.662 Y108.389 E31.64483
G1 X88.371 Y108.28 E31.67823
G1 X88.844 Y108.252 E31.70029
G1 X89.582 Y108.235 E31.73467
G1 X90.299 Y108.258 E31.76807
G1 X90.772 Y108.318 E31.79027
G1 X91.504 Y108.438 E31.82481
G1 X92.204 Y108.593 E31.8582
G1 X92.921 Y108.841 E31.89352
G1 X95.049 Y109.72 E32.00073
G1 X97.454 Y110.512 E32.11863
G1 X98.95 Y110.833 E32.18988
G1 X101.074 Y111.046 E32.28928
G1 X103.089 Y110.986 E32.38315
G1 X105.869 Y110.496 E32.51459
G1 X107.468 Y110.005 E32.59248
G1 X109.232 Y109.284 E32.68121
G1 X110.559 Y108.613 E32.75045
G1 X110.547 Y101.38 E33.08725
G1 X109.745 Y100.959 E33.12943
G1 X107.366 Y99.964 E33.24951
G1 X105.097 Y99.315 E33.3594
G1 X103.64 Y99.067 E33.42822
G1 X101.52 Y98.945 E33.5271
G1 X99.403 Y99.097 E33.62593
G1 X97.882 Y99.38 E33.69797
G1 X96.264 Y99.841 E33.77631
G1 X93.231 Y101.068 E33.92865
G1 X92.432 Y101.332 E33.96784
G1 X91.715 Y101.518 E34.00233
