;FLAVOR:Marlin
;TIME:4033
;Filament used: 1.55566m
;Layer height: 0.1
;Generated with Cura_SteamEngine master
M140 S70
M105
M190 S70
M104 S210
M105
M109 S210
M82 ;absolute extrusion mode
G21 ;metric values
G90 ;absolute positioning
M82 ;set extruder to absolute mode
M107 ;start with the fan off
G28 X0 Y0 ;move X/Y to min endstops
G28 Z0 ;move Z to min endstops
G1 Z15.0 F100 ;move the platform down 15mm
G92 E0 ;zero the extruded length
G1 F200 E3 ;extrude 3mm of feed stock
G92 E0 ;zero the extruded length again
G1 F100
M117 Printing...
G5
G92 E0
G1 F2400 E-6
;LAYER_COUNT:98
;LAYER:0
M106 S255
M204 S3000
M205 X10 Y10
G0 F1200 X91.988 Y91.998 Z0.2
M204 S1800
M205 X8 Y8
;TYPE:SKIRT
G1 F2400 E0
G1 X93.341 Y90.773 E0.08499
G1 X94.167 Y90.123 E0.13393
G1 X95.152 Y89.454 E0.18937
G1 X95.864 Y89.026 E0.22806
G1 X96.93 Y88.462 E0.28421
G1 X97.69 Y88.112 E0.32318
G1 X98.812 Y87.669 E0.37935
G1 X99.818 Y87.351 E0.42847
G1 X101.574 Y86.928 E0.51258
G1 X102.599 Y86.755 E0.56098
G1 X103.8 Y86.636 E0.61718
G1 X104.652 Y86.6 E0.65689
G1 X105.856 Y86.617 E0.71296
G1 X106.901 Y86.704 E0.76178
G1 X108.697 Y86.981 E0.8464
G1 X109.719 Y87.212 E0.89519
G1 X110.858 Y87.554 E0.95057
G1 X111.645 Y87.839 E0.98954
G1 X112.754 Y88.311 E1.04566
G1 X113.506 Y88.682 E1.08471
G1 X114.57 Y89.282 E1.14159
G1 X115.278 Y89.734 E1.1807
G1 X116.256 Y90.439 E1.23684
G1 X117.077 Y91.125 E1.28666
G1 X118.381 Y92.38 E1.37093
G1 X119.076 Y93.147 E1.41913
G1 X119.821 Y94.092 E1.47516
G1 X120.3 Y94.774 E1.51397
G1 X120.938 Y95.798 E1.57015
G1 X121.347 Y96.545 E1.6098
G1 X121.859 Y97.62 E1.66525
G1 X122.24 Y98.585 E1.71356
G1 X122.787 Y100.309 E1.79778
G1 X122.984 Y101.061 E1.83397
G1 X123.068 Y101.545 E1.85685
G1 X123.319 Y103.335 E1.94101
G1 X123.392 Y104.379 E1.98975
G1 X123.393 Y105.595 E2.04637
G1 X123.321 Y106.644 E2.09533
G1 X123.071 Y108.438 E2.17967
G1 X122.853 Y109.468 E2.2287
G1 X122.526 Y110.615 E2.28423
G1 X122.253 Y111.405 E2.32315
G1 X121.791 Y112.534 E2.37996
G1 X121.426 Y113.301 E2.41951
G1 X120.848 Y114.357 E2.47556
G1 X120.401 Y115.074 E2.51491
G1 X119.706 Y116.063 E2.57119
G1 X119.049 Y116.873 E2.61976
G1 X117.815 Y118.196 E2.704
G1 X117.051 Y118.909 E2.75266
G1 X116.128 Y119.658 E2.80801
G1 X115.442 Y120.154 E2.84743
G1 X114.421 Y120.808 E2.90389
G1 X113.694 Y121.219 E2.94277
G1 X112.618 Y121.751 E2.99867
G1 X111.651 Y122.148 E3.04734
G1 X109.936 Y122.718 E3.13149
G1 X108.922 Y122.979 E3.18025
G1 X107.728 Y123.199 E3.23678
G1 X106.889 Y123.305 E3.27616
G1 X105.681 Y123.39 E3.33255
G1 X104.839 Y123.403 E3.37176
G1 X103.648 Y123.354 E3.42727
G1 X102.604 Y123.238 E3.47618
G1 X100.82 Y122.913 E3.56061
G1 X99.809 Y122.655 E3.6092
G1 X98.668 Y122.279 E3.66514
G1 X97.88 Y121.97 E3.70455
G1 X96.782 Y121.466 E3.76081
G1 X96.042 Y121.075 E3.79978
G1 X95.002 Y120.45 E3.85628
G1 X94.138 Y119.845 E3.90539
G1 X92.739 Y118.712 E3.98922
G1 X91.976 Y118.002 E4.03775
G1 X91.148 Y117.117 E4.09419
G1 X90.604 Y116.465 E4.13373
G1 X89.886 Y115.5 E4.18973
G1 X89.417 Y114.79 E4.22936
G1 X88.804 Y113.737 E4.28609
G1 X88.347 Y112.811 E4.33417
G1 X87.664 Y111.151 E4.41776
G1 X87.33 Y110.144 E4.46716
G1 X87.029 Y108.965 E4.52382
G1 X86.867 Y108.142 E4.56288
G1 X86.702 Y106.962 E4.61836
G1 X86.632 Y106.133 E4.6571
G1 X86.597 Y104.92 E4.7136
G1 X86.64 Y103.87 E4.76254
G1 X86.839 Y102.073 E4.84672
G1 X86.964 Y101.306 E4.88291
G1 X87.083 Y100.831 E4.90571
G1 X87.579 Y99.092 E4.98992
G1 X87.83 Y98.357 E5.02608
G1 X88.03 Y97.902 E5.04922
G1 X88.816 Y96.26 E5.13399
G1 X89.327 Y95.356 E5.18234
G1 X89.993 Y94.348 E5.2386
G1 X90.491 Y93.679 E5.27744
G1 X91.252 Y92.765 E5.33282
G1 X91.988 Y91.998 E5.38231
M204 S3000
M205 X10 Y10
G0 F1200 X92.364 Y92.413
M204 S1800
M205 X8 Y8
G1 F2400 X93.717 Y91.188 E5.4673
G1 X94.482 Y90.586 E5.51263
G1 X95.467 Y89.917 E5.56807
G1 X96.126 Y89.521 E5.60387
G1 X97.192 Y88.957 E5.66003
G1 X97.895 Y88.633 E5.69607
G1 X99.017 Y88.19 E5.75224
G1 X99.949 Y87.896 E5.79775
G1 X101.705 Y87.473 E5.88186
G1 X102.654 Y87.312 E5.92668
G1 X103.855 Y87.193 E5.98287
G1 X104.644 Y87.16 E6.01965
G1 X105.848 Y87.177 E6.07571
G1 X106.816 Y87.258 E6.12095
G1 X108.612 Y87.535 E6.20556
G1 X109.558 Y87.749 E6.25073
G1 X110.697 Y88.091 E6.3061
G1 X111.425 Y88.354 E6.34215
G1 X112.534 Y88.826 E6.39827
G1 X113.231 Y89.17 E6.43446
G1 X114.295 Y89.77 E6.49134
G1 X114.95 Y90.189 E6.52755
G1 X115.928 Y90.894 E6.58368
G1 X116.689 Y91.528 E6.62981
G1 X117.993 Y92.783 E6.71408
G1 X118.636 Y93.493 E6.75868
G1 X119.381 Y94.438 E6.81471
G1 X119.825 Y95.07 E6.85068
G1 X120.463 Y96.094 E6.90686
G1 X120.842 Y96.786 E6.9436
G1 X121.354 Y97.861 E6.99904
G1 X121.706 Y98.754 E7.04374
G1 X122.253 Y100.478 E7.12796
G1 X122.441 Y101.202 E7.16279
G1 X122.513 Y101.623 E7.18268
G1 X122.764 Y103.413 E7.26684
G1 X122.832 Y104.379 E7.31193
G1 X122.833 Y105.595 E7.36856
G1 X122.766 Y106.567 E7.41392
G1 X122.516 Y108.361 E7.49827
G1 X122.315 Y109.314 E7.54362
G1 X121.988 Y110.461 E7.59916
G1 X121.735 Y111.193 E7.63522
G1 X121.273 Y112.322 E7.69202
G1 X120.934 Y113.032 E7.72866
G1 X120.356 Y114.088 E7.78471
G1 X119.943 Y114.752 E7.82112
G1 X119.248 Y115.741 E7.87741
G1 X118.64 Y116.491 E7.92237
G1 X117.406 Y117.814 E8.00661
G1 X116.698 Y118.474 E8.05168
G1 X115.775 Y119.223 E8.10703
G1 X115.14 Y119.682 E8.14351
G1 X114.119 Y120.336 E8.19997
G1 X113.445 Y120.717 E8.23602
G1 X112.369 Y121.249 E8.29192
G1 X111.475 Y121.617 E8.33693
G1 X109.76 Y122.187 E8.42109
G1 X108.82 Y122.428 E8.46627
G1 X107.626 Y122.648 E8.52281
G1 X106.849 Y122.747 E8.55928
G1 X105.641 Y122.832 E8.61567
G1 X104.862 Y122.843 E8.65195
G1 X103.671 Y122.794 E8.70745
G1 X102.704 Y122.687 E8.75275
G1 X100.92 Y122.362 E8.83719
G1 X99.984 Y122.123 E8.88217
G1 X98.843 Y121.747 E8.93811
G1 X98.114 Y121.461 E8.97458
G1 X97.016 Y120.957 E9.03083
G1 X96.33 Y120.595 E9.06695
G1 X95.29 Y119.97 E9.12345
G1 X94.49 Y119.41 E9.16892
G1 X93.091 Y118.277 E9.25275
G1 X92.385 Y117.619 E9.29769
G1 X91.557 Y116.734 E9.35412
G1 X91.053 Y116.131 E9.39071
G1 X90.335 Y115.166 E9.44672
G1 X89.901 Y114.509 E9.48339
G1 X89.288 Y113.456 E9.54012
G1 X88.865 Y112.597 E9.58471
G1 X88.182 Y110.937 E9.66829
G1 X87.873 Y110.006 E9.71397
G1 X87.572 Y108.827 E9.77063
G1 X87.421 Y108.064 E9.80685
G1 X87.256 Y106.884 E9.86233
G1 X87.192 Y106.117 E9.89816
G1 X87.157 Y104.904 E9.95467
G1 X87.197 Y103.932 E9.99997
G1 X87.396 Y102.135 E10.08416
G1 X87.517 Y101.396 E10.11903
G1 X87.621 Y100.985 E10.13877
G1 X88.117 Y99.246 E10.22297
G1 X88.361 Y98.539 E10.2578
G1 X88.535 Y98.144 E10.2779
G1 X89.321 Y96.502 E10.36266
G1 X89.795 Y95.665 E10.40745
G1 X90.461 Y94.657 E10.46371
G1 X90.922 Y94.037 E10.49968
G1 X91.683 Y93.123 E10.55507
G1 X92.364 Y92.413 E10.60087
M204 S3000
M205 X10 Y10
G0 F1200 X92.74 Y92.828
M204 S1800
M205 X8 Y8
G1 F2400 X94.093 Y91.603 E10.68586
G1 X94.797 Y91.05 E10.72755
G1 X95.782 Y90.381 E10.78299
G1 X96.388 Y90.016 E10.81593
G1 X97.454 Y89.452 E10.87209
G1 X98.101 Y89.154 E10.90526
G1 X99.223 Y88.711 E10.96143
G1 X100.08 Y88.44 E11.00328
G1 X101.836 Y88.017 E11.08739
G1 X102.709 Y87.869 E11.12862
G1 X103.91 Y87.75 E11.18482
G1 X104.636 Y87.72 E11.21865
G1 X105.84 Y87.737 E11.27472
G1 X106.731 Y87.811 E11.31635
G1 X108.527 Y88.088 E11.40097
G1 X109.397 Y88.285 E11.4425
G1 X110.536 Y88.627 E11.49788
G1 X111.206 Y88.869 E11.53105
G1 X112.315 Y89.341 E11.58717
G1 X112.956 Y89.657 E11.62045
G1 X114.02 Y90.257 E11.67733
G1 X114.623 Y90.643 E11.71067
G1 X115.601 Y91.348 E11.76681
G1 X116.301 Y91.932 E11.80926
G1 X117.605 Y93.187 E11.89353
G1 X118.196 Y93.84 E11.93454
G1 X118.941 Y94.785 E11.99057
G1 X119.35 Y95.366 E12.02366
G1 X119.988 Y96.39 E12.07984
G1 X120.336 Y97.027 E12.11364
G1 X120.848 Y98.102 E12.16908
G1 X121.172 Y98.923 E12.21018
G1 X121.719 Y100.647 E12.2944
G1 X121.898 Y101.342 E12.32782
G1 X121.959 Y101.701 E12.34477
G1 X122.21 Y103.491 E12.42894
G1 X122.272 Y104.38 E12.47043
G1 X122.273 Y105.596 E12.52706
G1 X122.211 Y106.49 E12.56878
G1 X121.961 Y108.284 E12.65313
G1 X121.776 Y109.161 E12.69486
G1 X121.449 Y110.308 E12.7504
G1 X121.216 Y110.981 E12.78356
G1 X120.754 Y112.11 E12.84037
G1 X120.443 Y112.763 E12.87404
G1 X119.865 Y113.819 E12.9301
G1 X119.485 Y114.43 E12.9636
G1 X118.79 Y115.419 E13.01989
G1 X118.23 Y116.109 E13.06127
G1 X116.996 Y117.432 E13.14551
G1 X116.345 Y118.04 E13.18699
G1 X115.422 Y118.789 E13.24234
G1 X114.838 Y119.211 E13.27589
G1 X113.817 Y119.865 E13.33235
G1 X113.197 Y120.215 E13.3655
G1 X112.121 Y120.747 E13.42139
G1 X111.298 Y121.085 E13.46282
G1 X109.583 Y121.655 E13.54697
G1 X108.719 Y121.877 E13.58851
G1 X107.525 Y122.097 E13.64505
G1 X106.81 Y122.188 E13.67861
G1 X105.602 Y122.273 E13.735
G1 X104.885 Y122.284 E13.76839
G1 X103.694 Y122.235 E13.82389
G1 X102.805 Y122.136 E13.86554
G1 X101.021 Y121.811 E13.94998
G1 X100.159 Y121.591 E13.99141
G1 X99.018 Y121.215 E14.04735
G1 X98.347 Y120.952 E14.0809
G1 X97.249 Y120.448 E14.13716
G1 X96.619 Y120.115 E14.17034
G1 X95.579 Y119.49 E14.22684
G1 X94.843 Y118.975 E14.26867
G1 X93.444 Y117.842 E14.3525
G1 X92.794 Y117.237 E14.39385
G1 X91.966 Y116.352 E14.45028
G1 X91.502 Y115.796 E14.484
G1 X90.784 Y114.831 E14.54001
G1 X90.385 Y114.227 E14.57371
G1 X89.772 Y113.174 E14.63045
G1 X89.382 Y112.384 E14.67147
G1 X88.699 Y110.724 E14.75506
G1 X88.415 Y109.867 E14.7971
G1 X88.114 Y108.688 E14.85376
G1 X87.976 Y107.987 E14.88702
G1 X87.811 Y106.807 E14.94251
G1 X87.752 Y106.101 E14.97549
G1 X87.717 Y104.888 E15.032
G1 X87.753 Y103.993 E15.07371
G1 X87.952 Y102.196 E15.1579
G1 X88.071 Y101.489 E15.19128
G1 X88.16 Y101.139 E15.2081
G1 X88.656 Y99.4 E15.2923
G1 X88.891 Y98.722 E15.32571
G1 X89.04 Y98.385 E15.34287
G1 X89.826 Y96.743 E15.42764
G1 X90.262 Y95.974 E15.4688
G1 X90.928 Y94.966 E15.52506
G1 X91.352 Y94.395 E15.55817
G1 X92.113 Y93.481 E15.61355
G1 X92.74 Y92.828 E15.65571
M204 S3000
M205 X10 Y10
G0 F1200 X93.116 Y93.243
M204 S1800
M205 X8 Y8
G1 F2400 X94.469 Y92.018 E15.7407
G1 X95.111 Y91.513 E15.77873
G1 X96.096 Y90.844 E15.83417
G1 X96.65 Y90.511 E15.86427
G1 X97.716 Y89.947 E15.92043
G1 X98.307 Y89.675 E15.95072
G1 X99.429 Y89.232 E16.00689
G1 X100.211 Y88.985 E16.04508
G1 X101.967 Y88.562 E16.12918
G1 X102.764 Y88.427 E16.16683
G1 X103.965 Y88.308 E16.22302
G1 X104.628 Y88.28 E16.25392
G1 X105.832 Y88.297 E16.30999
G1 X106.645 Y88.365 E16.34798
G1 X108.441 Y88.642 E16.4326
G1 X109.236 Y88.821 E16.47054
G1 X110.375 Y89.163 E16.52592
G1 X110.987 Y89.385 E16.55623
G1 X112.096 Y89.857 E16.61236
G1 X112.681 Y90.145 E16.64272
G1 X113.745 Y90.745 E16.6996
G1 X114.295 Y91.097 E16.73
G1 X115.273 Y91.802 E16.78614
G1 X115.912 Y92.335 E16.82489
G1 X117.216 Y93.59 E16.90916
G1 X117.757 Y94.187 E16.94668
G1 X118.502 Y95.132 E17.00271
G1 X118.875 Y95.663 E17.03292
G1 X119.513 Y96.687 E17.0891
G1 X119.831 Y97.268 E17.11995
G1 X120.343 Y98.343 E17.17539
G1 X120.639 Y99.093 E17.21293
G1 X121.186 Y100.817 E17.29715
G1 X121.404 Y101.778 E17.34304
G1 X121.655 Y103.568 E17.4272
G1 X121.712 Y104.38 E17.46511
G1 X121.713 Y105.596 E17.52173
G1 X121.657 Y106.413 E17.55986
G1 X121.407 Y108.207 E17.64421
G1 X121.238 Y109.007 E17.68228
G1 X120.911 Y110.154 E17.73782
G1 X120.698 Y110.769 E17.76812
G1 X120.236 Y111.898 E17.82492
G1 X119.952 Y112.494 E17.85567
G1 X119.374 Y113.55 E17.91172
G1 X119.027 Y114.108 E17.94232
G1 X118.332 Y115.097 E17.9986
G1 X117.821 Y115.727 E18.03638
G1 X116.587 Y117.05 E18.12062
G1 X115.992 Y117.605 E18.15851
G1 X115.069 Y118.354 E18.21386
G1 X114.536 Y118.739 E18.24447
G1 X113.515 Y119.393 E18.30093
G1 X112.949 Y119.713 E18.33121
G1 X111.873 Y120.245 E18.3871
G1 X111.122 Y120.554 E18.42491
G1 X109.407 Y121.124 E18.50907
G1 X108.617 Y121.327 E18.54705
G1 X107.423 Y121.547 E18.60358
G1 X106.771 Y121.629 E18.63418
G1 X105.563 Y121.714 E18.69057
G1 X104.908 Y121.724 E18.72107
G1 X103.717 Y121.675 E18.77658
G1 X102.905 Y121.585 E18.81462
G1 X101.121 Y121.26 E18.89906
G1 X100.335 Y121.06 E18.93682
G1 X99.194 Y120.684 E18.99276
G1 X98.581 Y120.443 E19.02343
G1 X97.483 Y119.939 E19.07969
G1 X96.907 Y119.635 E19.11002
G1 X95.867 Y119.01 E19.16652
G1 X95.195 Y118.539 E19.20473
G1 X93.796 Y117.406 E19.28855
G1 X93.203 Y116.854 E19.32628
G1 X92.375 Y115.969 E19.38271
G1 X91.952 Y115.462 E19.41346
G1 X91.234 Y114.497 E19.46946
G1 X90.869 Y113.945 E19.50028
G1 X90.256 Y112.892 E19.55701
G1 X89.9 Y112.171 E19.59446
G1 X89.217 Y110.511 E19.67804
G1 X88.958 Y109.729 E19.7164
G1 X88.657 Y108.55 E19.77306
G1 X88.531 Y107.909 E19.80348
G1 X88.366 Y106.729 E19.85896
G1 X88.311 Y106.085 E19.88905
G1 X88.276 Y104.872 E19.94556
G1 X88.31 Y104.055 E19.98364
G1 X88.509 Y102.258 E20.06782
G1 X88.699 Y101.292 E20.11367
G1 X89.195 Y99.553 E20.19787
G1 X89.545 Y98.627 E20.24397
G1 X90.331 Y96.985 E20.32873
G1 X90.729 Y96.283 E20.36631
G1 X91.395 Y95.275 E20.42257
G1 X91.782 Y94.754 E20.45279
G1 X92.543 Y93.84 E20.50817
G1 X93.116 Y93.243 E20.5467
M204 S3000
M205 X10 Y10
G0 F1200 X93.491 Y93.658
M204 S1800
M205 X8 Y8
G1 F2400 X94.844 Y92.433 E20.63169
G1 X95.426 Y91.976 E20.66614
G1 X96.411 Y91.307 E20.72159
G1 X96.912 Y91.006 E20.7488
G1 X97.978 Y90.442 E20.80496
G1 X98.512 Y90.196 E20.83234
G1 X99.634 Y89.753 E20.88851
G1 X100.342 Y89.529 E20.92308
G1 X102.098 Y89.106 E21.00719
G1 X102.819 Y88.984 E21.04124
G1 X104.02 Y88.865 E21.09744
G1 X104.62 Y88.84 E21.1254
G1 X105.824 Y88.857 E21.18147
G1 X106.56 Y88.918 E21.21586
G1 X108.356 Y89.195 E21.30047
G1 X109.075 Y89.358 E21.3348
G1 X110.214 Y89.7 E21.39018
G1 X110.767 Y89.9 E21.41756
G1 X111.876 Y90.372 E21.47368
G1 X112.406 Y90.633 E21.50119
G1 X113.47 Y91.233 E21.55807
G1 X113.968 Y91.551 E21.58559
G1 X114.946 Y92.256 E21.64172
G1 X115.524 Y92.739 E21.6768
G1 X116.828 Y93.994 E21.76107
G1 X117.317 Y94.533 E21.79496
G1 X118.062 Y95.478 E21.85099
G1 X118.399 Y95.959 E21.87834
G1 X119.037 Y96.983 E21.93452
G1 X119.325 Y97.508 E21.9624
G1 X119.837 Y98.583 E22.01785
G1 X120.105 Y99.262 E22.05184
G1 X120.652 Y100.986 E22.13606
G1 X120.849 Y101.856 E22.17759
G1 X121.1 Y103.646 E22.26176
G1 X121.152 Y104.381 E22.29607
G1 X121.153 Y105.597 E22.35269
G1 X121.102 Y106.335 E22.38714
G1 X120.852 Y108.129 E22.47148
G1 X120.699 Y108.854 E22.50598
G1 X120.372 Y110.001 E22.56152
G1 X120.18 Y110.557 E22.58891
G1 X119.718 Y111.686 E22.64571
G1 X119.461 Y112.225 E22.67352
G1 X118.883 Y113.281 E22.72957
G1 X118.569 Y113.786 E22.75726
G1 X117.874 Y114.775 E22.81355
G1 X117.411 Y115.345 E22.84774
G1 X116.177 Y116.668 E22.93199
G1 X115.639 Y117.17 E22.96625
G1 X114.716 Y117.919 E23.0216
G1 X114.234 Y118.268 E23.04931
G1 X113.213 Y118.922 E23.10577
G1 X112.701 Y119.211 E23.13314
G1 X111.625 Y119.743 E23.18904
G1 X110.945 Y120.022 E23.22326
G1 X109.23 Y120.592 E23.30741
G1 X108.516 Y120.776 E23.34175
G1 X107.322 Y120.996 E23.39828
G1 X106.731 Y121.071 E23.42602
G1 X105.523 Y121.156 E23.48241
G1 X104.931 Y121.165 E23.50998
G1 X103.74 Y121.116 E23.56548
G1 X103.006 Y121.034 E23.59987
G1 X101.222 Y120.709 E23.68431
G1 X100.51 Y120.528 E23.71852
G1 X99.369 Y120.152 E23.77446
G1 X98.815 Y119.934 E23.80218
G1 X97.717 Y119.43 E23.85844
G1 X97.196 Y119.155 E23.88587
G1 X96.156 Y118.53 E23.94237
G1 X95.548 Y118.104 E23.97694
G1 X94.149 Y116.971 E24.06077
G1 X93.612 Y116.472 E24.0949
G1 X92.784 Y115.587 E24.15133
G1 X92.401 Y115.128 E24.17917
G1 X91.683 Y114.163 E24.23518
G1 X91.353 Y113.664 E24.26303
G1 X90.74 Y112.611 E24.31977
G1 X90.418 Y111.958 E24.35367
G1 X89.735 Y110.298 E24.43726
G1 X89.5 Y109.59 E24.47199
G1 X89.199 Y108.411 E24.52865
G1 X89.085 Y107.832 E24.55613
G1 X88.92 Y106.652 E24.61161
G1 X88.871 Y106.068 E24.6389
G1 X88.836 Y104.855 E24.6954
G1 X88.866 Y104.116 E24.72984
G1 X89.065 Y102.319 E24.81403
G1 X89.237 Y101.446 E24.85546
G1 X89.733 Y99.707 E24.93967
G1 X90.05 Y98.869 E24.98139
G1 X90.836 Y97.227 E25.06615
G1 X91.196 Y96.591 E25.10018
G1 X91.862 Y95.583 E25.15644
G1 X92.213 Y95.112 E25.18379
G1 X92.974 Y94.198 E25.23917
G1 X93.491 Y93.658 E25.27398
M204 S3000
M205 X10 Y10
G0 F1200 X93.867 Y94.073
M204 S1800
M205 X8 Y8
G1 F2400 X95.22 Y92.848 E25.35897
G1 X95.741 Y92.439 E25.38981
G1 X96.726 Y91.77 E25.44526
G1 X97.174 Y91.501 E25.46959
G1 X98.24 Y90.937 E25.52575
G1 X98.718 Y90.717 E25.55025
G1 X99.84 Y90.274 E25.60642
