;FLAVOR:Marlin
;TIME:4379
;Filament used: 2.42014m
;Layer height: 0.1
;Generated with Cura_SteamEngine master
M140 S70
M105
M190 S70
M104 S200
M105
M109 S200
M82 ;absolute extrusion mode
G21 ;metric values
G90 ;absolute positioning
M82 ;set extruder to absolute mode
M107 ;start with the fan off
G28 X0 Y0 ;move X/Y to min endstops
G28 Z0 ;move Z to min endstops
G1 Z15.0 F100 ;move the platform down 15mm
G92 E0 ;zero the extruded length
G1 F200 E3 ;extrude 3mm of feed stock
G92 E0 ;zero the extruded length again
G1 F100
M117 Printing...
G5
G92 E0
G1 F2400 E-6
;LAYER_COUNT:215
;LAYER:0
M106 S255
M204 S3000
M205 X10 Y10
G0 F3000 X91.317 Y77.528 Z0.2
M204 S1800
M205 X8 Y8
;TYPE:SKIRT
G1 F2400 E0
G1 X91.654 Y77.168 E0.02296
G1 X91.818 Y77.004 E0.03376
G1 X92.396 Y76.484 E0.06996
G1 X93.023 Y76.025 E0.10615
G1 X93.695 Y75.633 E0.14237
G1 X94.403 Y75.312 E0.17857
G1 X95.14 Y75.066 E0.21475
G1 X95.899 Y74.897 E0.25096
G1 X96.671 Y74.806 E0.28715
G1 X97.163 Y74.79 E0.31008
G1 X103.687 Y74.789 E0.61386
G1 X104.463 Y74.829 E0.65004
G1 X105.231 Y74.948 E0.68623
G1 X105.983 Y75.146 E0.72244
G1 X106.711 Y75.42 E0.75866
G1 X107.407 Y75.767 E0.79487
G1 X108 Y76.139 E0.82747
G1 X108.144 Y76.239 E0.83563
G1 X108.759 Y76.715 E0.87185
G1 X109.322 Y77.251 E0.90804
G1 X109.827 Y77.843 E0.94427
G1 X110.268 Y78.483 E0.98047
G1 X110.641 Y79.165 E1.01666
G1 X110.931 Y79.85 E1.0513
G1 X120.099 Y104.891 E2.293
G1 X120.329 Y105.634 E2.32922
G1 X120.48 Y106.396 E2.36539
G1 X120.56 Y107.497 E2.4168
G1 X120.539 Y129.904 E3.46016
G1 X120.498 Y130.68 E3.49634
G1 X120.351 Y131.572 E3.53844
G1 X120.204 Y132.219 E3.56933
G1 X119.993 Y132.967 E3.60552
G1 X119.625 Y133.862 E3.65058
G1 X119.327 Y134.472 E3.6822
G1 X118.95 Y135.152 E3.7184
G1 X118.431 Y135.885 E3.76022
G1 X118.013 Y136.406 E3.79132
G1 X117.496 Y136.987 E3.82754
G1 X116.922 Y137.511 E3.86373
G1 X116.475 Y137.852 E3.88991
G1 X115.653 Y138.432 E3.93675
G1 X114.995 Y138.847 E3.97298
G1 X114.299 Y139.192 E4.00915
G1 X113.793 Y139.39 E4.03445
G1 X113.162 Y139.611 E4.06558
G1 X112.416 Y139.83 E4.10178
G1 X111.497 Y139.99 E4.14522
G1 X110.83 Y140.064 E4.17647
G1 X109.808 Y140.108 E4.2241
G1 X108.965 Y140.087 E4.26337
G1 X108.19 Y140.027 E4.29956
G1 X107.48 Y139.902 E4.33313
G1 X106.832 Y139.755 E4.36407
G1 X106.084 Y139.544 E4.40026
G1 X105.182 Y139.173 E4.44568
G1 X104.573 Y138.875 E4.47725
G1 X103.893 Y138.497 E4.51347
G1 X103.162 Y137.979 E4.55519
G1 X102.639 Y137.559 E4.58643
G1 X102.059 Y137.041 E4.62264
G1 X101.535 Y136.467 E4.65883
G1 X101.194 Y136.02 E4.68501
G1 X100.616 Y135.2 E4.73172
G1 X100.201 Y134.542 E4.76794
G1 X99.856 Y133.845 E4.80416
G1 X99.528 Y132.927 E4.84955
G1 X99.252 Y131.964 E4.8962
G1 X99.076 Y131.207 E4.93239
G1 X98.979 Y130.435 E4.96862
G1 X98.959 Y129.905 E4.99331
G1 X98.945 Y125.572 E5.19508
G1 X94.16 Y123.558 E5.43682
G1 X93.46 Y123.22 E5.47301
G1 X92.798 Y122.811 E5.50925
G1 X92.182 Y122.338 E5.54541
G1 X91.618 Y121.803 E5.58161
G1 X91.111 Y121.213 E5.61783
G1 X90.769 Y120.732 E5.64531
G1 X90.676 Y120.59 E5.65322
G1 X90.284 Y119.919 E5.6894
G1 X89.963 Y119.21 E5.72564
G1 X89.716 Y118.473 E5.76184
G1 X89.547 Y117.714 E5.79805
G1 X89.456 Y116.942 E5.83424
G1 X89.44 Y116.448 E5.85726
G1 X89.44 Y82.514 E7.43737
G1 X89.48 Y81.738 E7.47355
G1 X89.599 Y80.969 E7.50978
G1 X89.797 Y80.218 E7.54595
G1 X90.071 Y79.49 E7.58217
G1 X90.418 Y78.794 E7.61838
G1 X90.835 Y78.138 E7.65458
G1 X91.317 Y77.528 E7.69078
M204 S3000
M205 X10 Y10
G0 F3000 X92.05 Y77.564
M204 S1800
M205 X8 Y8
G1 F2400 X92.214 Y77.4 E7.70158
G1 X92.771 Y76.9 E7.73643
G1 X93.377 Y76.463 E7.77122
G1 X94.027 Y76.092 E7.80607
G1 X94.713 Y75.793 E7.84091
G1 X95.427 Y75.569 E7.87576
G1 X96.16 Y75.422 E7.91057
G1 X97.163 Y75.35 E7.95739
G1 X103.687 Y75.349 E8.26118
G1 X104.434 Y75.389 E8.29601
G1 X105.172 Y75.508 E8.33082
G1 X105.894 Y75.706 E8.36568
G1 X106.59 Y75.979 E8.40049
G1 X107.253 Y76.325 E8.43532
G1 X107.681 Y76.599 E8.45898
G1 X107.825 Y76.699 E8.46714
G1 X108.416 Y77.158 E8.50199
G1 X108.954 Y77.678 E8.53683
G1 X109.434 Y78.251 E8.57163
G1 X109.85 Y78.873 E8.60648
G1 X110.197 Y79.536 E8.64132
G1 X110.405 Y80.042 E8.6668
G1 X119.573 Y105.083 E9.9085
G1 X119.793 Y105.799 E9.94338
G1 X119.934 Y106.533 E9.97818
G1 X120 Y107.497 E10.02318
G1 X119.979 Y129.904 E11.06654
G1 X119.938 Y130.651 E11.10138
G1 X119.805 Y131.448 E11.139
G1 X119.658 Y132.095 E11.1699
G1 X119.454 Y132.814 E11.2047
G1 X119.122 Y133.617 E11.24516
G1 X118.824 Y134.227 E11.27677
G1 X118.46 Y134.88 E11.31158
G1 X117.994 Y135.535 E11.34901
G1 X117.576 Y136.056 E11.38012
G1 X117.077 Y136.613 E11.41494
G1 X116.522 Y137.114 E11.44975
G1 X116.152 Y137.395 E11.47139
G1 X115.33 Y137.975 E11.51823
G1 X114.696 Y138.373 E11.55309
G1 X114.024 Y138.701 E11.58791
G1 X113.608 Y138.862 E11.60868
G1 X112.977 Y139.083 E11.63981
G1 X112.259 Y139.292 E11.67463
G1 X111.435 Y139.433 E11.71356
G1 X110.768 Y139.507 E11.74481
G1 X109.822 Y139.548 E11.7889
G1 X108.979 Y139.527 E11.82816
G1 X108.233 Y139.468 E11.86301
G1 X107.604 Y139.356 E11.89276
G1 X106.956 Y139.209 E11.9237
G1 X106.237 Y139.004 E11.95851
G1 X105.428 Y138.67 E11.99927
G1 X104.819 Y138.372 E12.03084
G1 X104.166 Y138.007 E12.06567
G1 X103.513 Y137.542 E12.103
G1 X102.99 Y137.122 E12.13423
G1 X102.433 Y136.623 E12.16906
G1 X101.932 Y136.068 E12.20387
G1 X101.652 Y135.697 E12.22551
G1 X101.074 Y134.877 E12.27223
G1 X100.676 Y134.243 E12.30709
G1 X100.348 Y133.571 E12.34191
G1 X100.066 Y132.773 E12.38132
G1 X99.79 Y131.81 E12.42796
G1 X99.623 Y131.08 E12.46283
G1 X99.534 Y130.338 E12.49763
G1 X99.519 Y129.903 E12.5179
G1 X99.504 Y125.2 E12.73689
G1 X94.377 Y123.042 E12.99591
G1 X93.704 Y122.715 E13.03075
G1 X93.07 Y122.318 E13.06558
G1 X92.481 Y121.856 E13.10044
G1 X91.946 Y121.334 E13.13525
G1 X91.469 Y120.758 E13.17007
G1 X91.237 Y120.425 E13.18897
G1 X91.144 Y120.283 E13.19687
G1 X90.768 Y119.636 E13.23172
G1 X90.464 Y118.953 E13.26653
G1 X90.234 Y118.241 E13.30137
G1 X90.081 Y117.509 E13.33619
G1 X90 Y116.448 E13.38574
G1 X90 Y82.514 E14.96585
G1 X90.04 Y81.767 E15.00068
G1 X90.159 Y81.029 E15.03549
G1 X90.357 Y80.307 E15.07035
G1 X90.63 Y79.611 E15.10516
G1 X90.977 Y78.948 E15.14001
G1 X91.392 Y78.325 E15.17486
G1 X92.05 Y77.564 E15.22171
M204 S3000
M205 X10 Y10
G0 F3000 X91.947 Y78.521
M204 S1800
M205 X8 Y8
G1 F2400 X92.446 Y77.96 E15.25667
G1 X92.61 Y77.796 E15.26747
G1 X93.145 Y77.318 E15.30088
G1 X93.73 Y76.902 E15.3343
G1 X94.357 Y76.554 E15.36769
G1 X95.019 Y76.278 E15.40109
G1 X95.708 Y76.077 E15.43451
G1 X96.415 Y75.954 E15.46793
G1 X97.163 Y75.91 E15.50282
G1 X103.687 Y75.909 E15.8066
G1 X104.403 Y75.949 E15.83999
G1 X105.111 Y76.068 E15.87342
G1 X105.801 Y76.265 E15.90684
G1 X106.464 Y76.538 E15.94022
G1 X107.361 Y77.059 E15.98852
G1 X107.505 Y77.159 E15.99669
G1 X108.071 Y77.601 E16.03013
G1 X108.584 Y78.102 E16.06352
G1 X109.038 Y78.658 E16.09694
G1 X109.427 Y79.261 E16.13035
G1 X109.879 Y80.235 E16.18035
G1 X119.047 Y105.276 E17.42206
G1 X119.256 Y105.962 E17.45545
G1 X119.387 Y106.668 E17.48889
G1 X119.44 Y107.496 E17.52752
G1 X119.419 Y129.903 E18.57089
G1 X119.378 Y130.619 E18.60428
G1 X119.259 Y131.324 E18.63757
G1 X119.112 Y131.971 E18.66847
G1 X118.914 Y132.661 E18.70189
G1 X118.618 Y133.371 E18.73771
G1 X118.32 Y133.981 E18.76932
G1 X117.97 Y134.607 E18.80272
G1 X117.557 Y135.184 E18.83576
G1 X117.139 Y135.705 E18.86686
G1 X116.66 Y136.239 E18.90027
G1 X116.124 Y136.716 E18.93368
G1 X115.829 Y136.937 E18.95084
G1 X115.007 Y137.517 E18.99769
G1 X114.398 Y137.897 E19.03111
G1 X113.423 Y138.333 E19.08084
G1 X112.792 Y138.554 E19.11197
G1 X112.102 Y138.753 E19.14541
G1 X111.373 Y138.877 E19.17985
G1 X110.706 Y138.951 E19.2111
G1 X109.836 Y138.988 E19.25164
G1 X108.993 Y138.967 E19.29091
G1 X108.277 Y138.909 E19.32436
G1 X107.728 Y138.809 E19.35034
G1 X107.08 Y138.662 E19.38128
G1 X106.39 Y138.465 E19.4147
G1 X105.674 Y138.167 E19.45081
G1 X105.065 Y137.869 E19.48238
G1 X104.44 Y137.518 E19.51576
G1 X103.864 Y137.105 E19.54876
G1 X103.341 Y136.685 E19.57999
G1 X102.807 Y136.206 E19.6134
G1 X102.33 Y135.669 E19.64684
G1 X102.109 Y135.374 E19.66401
G1 X101.531 Y134.554 E19.71072
G1 X101.151 Y133.946 E19.74411
G1 X100.841 Y133.299 E19.77751
G1 X100.604 Y132.618 E19.81109
G1 X100.328 Y131.655 E19.85773
G1 X100.169 Y130.956 E19.89111
G1 X100.079 Y129.901 E19.94042
G1 X100.063 Y124.828 E20.17664
G1 X94.594 Y122.526 E20.45294
G1 X93.95 Y122.211 E20.48632
G1 X93.344 Y121.826 E20.51975
G1 X92.785 Y121.377 E20.55314
G1 X92.279 Y120.868 E20.58656
G1 X91.706 Y120.118 E20.63051
G1 X91.613 Y119.976 E20.63841
G1 X91.254 Y119.355 E20.67181
G1 X90.966 Y118.698 E20.70521
G1 X90.753 Y118.013 E20.73862
G1 X90.618 Y117.308 E20.77204
G1 X90.56 Y116.448 E20.81218
G1 X90.56 Y82.514 E22.39229
G1 X90.6 Y81.798 E22.42568
G1 X90.719 Y81.09 E22.45911
G1 X90.917 Y80.4 E22.49254
G1 X91.19 Y79.737 E22.52592
G1 X91.535 Y79.108 E22.55933
G1 X91.947 Y78.521 E22.59272
M204 S3000
M205 X10 Y10
G0 F3000 X92.503 Y78.726
M204 S1800
M205 X8 Y8
G1 F2400 X92.842 Y78.356 E22.61609
G1 X93.006 Y78.192 E22.62689
G1 X93.518 Y77.737 E22.65878
G1 X94.08 Y77.344 E22.69071
G1 X94.684 Y77.019 E22.72265
G1 X95.321 Y76.766 E22.75457
G1 X95.984 Y76.59 E22.78651
G1 X96.662 Y76.491 E22.81841
G1 X97.163 Y76.47 E22.84176
G1 X103.687 Y76.469 E23.14555
G1 X104.372 Y76.509 E23.1775
G1 X105.047 Y76.628 E23.20941
G1 X105.703 Y76.825 E23.24131
G1 X106.333 Y77.097 E23.27326
G1 X107.042 Y77.519 E23.31168
G1 X107.186 Y77.619 E23.31984
G1 X107.725 Y78.043 E23.35178
G1 X108.212 Y78.526 E23.38372
G1 X108.639 Y79.062 E23.41563
G1 X109 Y79.645 E23.44756
G1 X109.354 Y80.427 E23.48753
G1 X118.522 Y105.468 E24.72923
G1 X118.719 Y106.125 E24.76117
G1 X118.839 Y106.8 E24.79309
G1 X118.88 Y107.496 E24.82556
G1 X118.859 Y129.903 E25.86892
G1 X118.818 Y130.587 E25.90083
G1 X118.713 Y131.2 E25.92979
G1 X118.566 Y131.847 E25.96068
G1 X118.375 Y132.505 E25.99259
G1 X118.115 Y133.125 E26.02389
G1 X117.817 Y133.735 E26.05551
G1 X117.481 Y134.332 E26.0874
G1 X117.12 Y134.834 E26.1162
G1 X116.702 Y135.355 E26.1473
G1 X116.243 Y135.863 E26.17918
G1 X115.506 Y136.479 E26.22391
G1 X114.684 Y137.059 E26.27075
G1 X114.102 Y137.421 E26.30267
G1 X113.238 Y137.804 E26.34667
G1 X112.607 Y138.025 E26.3778
G1 X111.947 Y138.214 E26.40977
G1 X111.311 Y138.32 E26.4398
G1 X110.644 Y138.394 E26.47104
G1 X109.85 Y138.428 E26.50805
G1 X109.007 Y138.407 E26.54732
G1 X108.323 Y138.35 E26.57928
G1 X107.852 Y138.263 E26.60158
G1 X107.204 Y138.116 E26.63252
G1 X106.546 Y137.926 E26.66441
G1 X105.921 Y137.664 E26.69597
G1 X105.312 Y137.366 E26.72754
G1 X104.714 Y137.029 E26.7595
G1 X104.214 Y136.669 E26.78819
G1 X103.691 Y136.249 E26.81942
G1 X103.183 Y135.789 E26.85133
G1 X102.567 Y135.052 E26.89606
G1 X101.989 Y134.232 E26.94278
G1 X101.627 Y133.649 E26.97473
G1 X101.336 Y133.029 E27.00662
G1 X101.143 Y132.464 E27.03442
G1 X100.867 Y131.501 E27.08107
G1 X100.716 Y130.832 E27.113
G1 X100.639 Y129.9 E27.15655
G1 X100.622 Y124.455 E27.41009
G1 X94.812 Y122.009 E27.70363
G1 X94.196 Y121.707 E27.73557
G1 X93.62 Y121.335 E27.7675
G1 X93.092 Y120.899 E27.79939
G1 X92.617 Y120.404 E27.83133
G1 X92.174 Y119.812 E27.86576
G1 X92.081 Y119.67 E27.87367
G1 X91.74 Y119.075 E27.9056
G1 X91.469 Y118.445 E27.93753
G1 X91.275 Y117.788 E27.96943
G1 X91.158 Y117.112 E28.00138
G1 X91.12 Y116.448 E28.03235
G1 X91.12 Y82.514 E29.61246
G1 X91.16 Y81.83 E29.64436
G1 X91.279 Y81.155 E29.67628
G1 X91.476 Y80.498 E29.70821
G1 X91.749 Y79.869 E29.74014
G1 X92.092 Y79.275 E29.77208
G1 X92.503 Y78.726 E29.80402
M204 S3000
M205 X10 Y10
G0 F3000 X93.238 Y78.752
M204 S1800
M205 X8 Y8
G1 F2400 X93.402 Y78.588 E29.81481
G1 X93.891 Y78.156 E29.8452
G1 X94.428 Y77.787 E29.87554
G1 X95.007 Y77.487 E29.9059
G1 X95.618 Y77.26 E29.93625
G1 X96.253 Y77.109 E29.96665
G1 X97.163 Y77.03 E30.00918
G1 X103.687 Y77.029 E30.31296
G1 X104.338 Y77.069 E30.34333
G1 X104.979 Y77.188 E30.37369
G1 X105.601 Y77.385 E30.40407
G1 X106.194 Y77.656 E30.43443
G1 X106.723 Y77.979 E30.46329
G1 X106.867 Y78.079 E30.47146
G1 X107.378 Y78.483 E30.50179
G1 X107.837 Y78.947 E30.53218
G1 X108.235 Y79.463 E30.56252
G1 X108.567 Y80.024 E30.59288
G1 X108.828 Y80.62 E30.62317
G1 X117.996 Y105.661 E31.86488
G1 X118.182 Y106.286 E31.89524
G1 X118.29 Y106.929 E31.9256
G1 X118.32 Y107.495 E31.952
G1 X118.299 Y129.902 E32.99536
G1 X118.258 Y130.553 E33.02573
G1 X118.167 Y131.076 E33.05045
G1 X118.02 Y131.723 E33.08135
G1 X117.837 Y132.348 E33.11167
G1 X117.612 Y132.879 E33.13853
G1 X117.314 Y133.489 E33.17014
G1 X116.992 Y134.056 E33.2005
G1 X116.684 Y134.483 E33.22502
G1 X116.266 Y135.004 E33.25612
G1 X115.827 Y135.487 E33.28651
G1 X115.183 Y136.022 E33.3255
G1 X114.361 Y136.602 E33.37234
G1 X113.806 Y136.944 E33.4027
G1 X113.053 Y137.276 E33.44102
G1 X112.422 Y137.497 E33.47215
G1 X111.794 Y137.674 E33.50253
G1 X111.25 Y137.764 E33.5282
G1 X110.583 Y137.838 E33.55945
G1 X109.864 Y137.868 E33.59296
G1 X109.021 Y137.847 E33.63223
G1 X108.371 Y137.791 E33.66261
G1 X107.976 Y137.717 E33.68132
G1 X107.328 Y137.57 E33.71226
G1 X106.702 Y137.387 E33.74263
G1 X106.167 Y137.161 E33.76967
G1 X105.558 Y136.863 E33.80124
G1 X104.991 Y136.541 E33.83161
G1 X104.565 Y136.232 E33.85611
G1 X104.042 Y135.812 E33.88734
G1 X103.559 Y135.373 E33.91774
G1 X103.025 Y134.729 E33.95669
G1 X102.447 Y133.909 E34.00341
G1 X102.104 Y133.354 E34.03379
G1 X101.833 Y132.761 E34.06415
G1 X101.681 Y132.31 E34.08631
G1 X101.405 Y131.347 E34.13295
G1 X101.264 Y130.71 E34.16333
G1 X101.199 Y129.898 E34.20126
G1 X101.181 Y124.104 E34.47106
G1 X101.179 Y124.083 E34.47204
G1 X101.171 Y124.078 E34.47248
G1 X95.029 Y121.493 E34.78278
G1 X94.445 Y121.204 E34.81312
G1 X93.9 Y120.845 E34.84351
G1 X93.403 Y120.423 E34.87386
G1 X92.962 Y119.942 E34.90425
G1 X92.643 Y119.505 E34.92944
G1 X92.55 Y119.363 E34.93735
G1 X92.226 Y118.796 E34.96776
G1 X91.975 Y118.195 E34.99808
G1 X91.799 Y117.567 E35.02845
G1 X91.701 Y116.922 E35.05883
G1 X91.68 Y116.448 E35.08092
G1 X91.68 Y82.514 E36.66103
G1 X91.72 Y81.863 E36.6914
G1 X91.839 Y81.222 E36.72176
G1 X92.036 Y80.6 E36.75214
G1 X92.307 Y80.008 E36.78246
G1 X92.649 Y79.452 E36.81286
G1 X93.238 Y78.752 E36.85545
M204 S3000
M205 X10 Y10
G0 F3000 X93.634 Y79.148
M204 S1800
M205 X8 Y8
G1 F2400 X93.798 Y78.984 E36.86625
G1 X94.262 Y78.577 E36.89499
G1 X94.774 Y78.234 E36.92369
G1 X95.326 Y77.959 E36.95241
G1 X95.909 Y77.758 E36.98112
G1 X96.514 Y77.635 E37.00987
G1 X97.163 Y77.59 E37.04016
G1 X103.687 Y77.589 E37.34395
G1 X104.303 Y77.629 E37.37269
G1 X104.908 Y77.748 E37.4014
G1 X105.493 Y77.944 E37.43013
G1 X106.047 Y78.215 E37.45885
G1 X106.403 Y78.439 E37.47843
G1 X106.547 Y78.539 E37.4866
G1 X107.03 Y78.923 E37.51533
G1 X107.459 Y79.366 E37.54404
G1 X107.827 Y79.861 E37.57276
G1 X108.128 Y80.399 E37.60147
G1 X108.302 Y80.813 E37.62238
G1 X117.47 Y105.854 E38.86409
G1 X117.644 Y106.445 E38.89277
G1 X117.74 Y107.054 E38.92148
G1 X117.76 Y107.494 E38.94199
G1 X117.739 Y129.901 E39.98536
G1 X117.698 Y130.517 E40.0141
G1 X117.621 Y130.952 E40.03467
G1 X117.474 Y131.599 E40.06557
G1 X117.298 Y132.19 E40.09428
G1 X117.109 Y132.633 E40.11671
G1 X116.811 Y133.243 E40.14832
G1 X116.505 Y133.779 E40.17706
G1 X116.247 Y134.133 E40.19746
G1 X115.829 Y134.654 E40.22856
G1 X115.412 Y135.109 E40.2573
G1 X114.86 Y135.564 E40.29061
G1 X114.038 Y136.144 E40.33745
G1 X113.512 Y136.466 E40.36617
G1 X112.867 Y136.747 E40.39893
G1 X112.236 Y136.968 E40.43006
G1 X111.642 Y137.134 E40.45878
G1 X111.188 Y137.207 E40.48019
G1 X110.521 Y137.281 E40.51144
G1 X109.877 Y137.309 E40.54146
G1 X109.034 Y137.288 E40.58072
G1 X108.42 Y137.232 E40.60943
G1 X108.1 Y137.171 E40.6246
G1 X107.452 Y137.024 E40.65554
G1 X106.861 Y136.849 E40.68424
G1 X106.413 Y136.658 E40.70692
G1 X105.804 Y136.36 E40.73849
G1 X105.269 Y136.053 E40.76721
G1 X104.916 Y135.795 E40.78757
G1 X104.393 Y135.375 E40.81881
G1 X103.938 Y134.959 E40.84751
G1 X103.482 Y134.406 E40.88089
G1 X102.904 Y133.586 E40.9276
G1 X102.582 Y133.06 E40.95632
G1 X102.331 Y132.497 E40.98502
G1 X102.219 Y132.155 E41.00178
G1 X101.943 Y131.192 E41.04843
G1 X101.812 Y130.59 E41.07711
G1 X101.759 Y129.896 E41.10952
