;FLAVOR:Marlin
;TIME:605
;Filament used: 0.325488m
;Layer height: 0.1
;Generated with Cura_SteamEngine master
M140 S70
M105
M190 S70
M104 S200
M105
M109 S200
M82 ;absolute extrusion mode
G21 ;metric values
G90 ;absolute positioning
M82 ;set extruder to absolute mode
M107 ;start with the fan off
G28 X0 Y0 ;move X/Y to min endstops
G28 Z0 ;move Z to min endstops
G1 Z15.0 F100 ;move the platform down 15mm
G92 E0 ;zero the extruded length
G1 F200 E3 ;extrude 3mm of feed stock
G92 E0 ;zero the extruded length again
G1 F100
M117 Printing...
G5
G92 E0
G1 F2400 E-6
;LAYER_COUNT:55
;LAYER:0
M106 S255
M204 S3000
M205 X10 Y10
G0 F3000 X93.458 Y91.25 Z0.2
M204 S1800
M205 X8 Y8
;TYPE:SKIRT
G1 F2400 E0
G1 X94.024 Y90.717 E0.0362
G1 X94.348 Y90.456 E0.05557
G1 X95.095 Y89.889 E0.09924
G1 X95.738 Y89.452 E0.13544
G1 X96.493 Y89.049 E0.1753
G1 X97.609 Y88.533 E0.23255
G1 X98.331 Y88.243 E0.26878
G1 X98.836 Y88.09 E0.29335
G1 X102.436 Y87.131 E0.46682
G1 X102.978 Y86.843 E0.4954
G1 X104.105 Y86.131 E0.55748
G1 X104.783 Y85.75 E0.59369
G1 X105.496 Y85.441 E0.62987
G1 X105.911 Y85.299 E0.6503
G1 X106.629 Y85.077 E0.68529
G1 X107.382 Y84.886 E0.72147
G1 X108.152 Y84.773 E0.75771
G1 X108.696 Y84.742 E0.78308
G1 X109.698 Y84.72 E0.82975
G1 X110.475 Y84.743 E0.86594
G1 X111.246 Y84.845 E0.90216
G1 X111.978 Y85.02 E0.9372
G1 X112.936 Y85.299 E0.98366
G1 X113.67 Y85.554 E1.01984
G1 X114.374 Y85.884 E1.05605
G1 X114.798 Y86.127 E1.0788
G1 X115.432 Y86.519 E1.11351
G1 X116.071 Y86.961 E1.14969
G1 X116.797 Y87.598 E1.19467
G1 X117.332 Y88.132 E1.22986
G1 X117.853 Y88.709 E1.26606
G1 X118.42 Y89.505 E1.31157
G1 X118.816 Y90.145 E1.34661
G1 X119.19 Y90.826 E1.38279
G1 X119.493 Y91.543 E1.41904
G1 X119.643 Y92.002 E1.44152
G1 X119.921 Y92.953 E1.48766
G1 X120.101 Y93.709 E1.52385
G1 X120.202 Y94.48 E1.56005
G1 X120.224 Y94.965 E1.58266
G1 X120.235 Y95.725 E1.61805
G1 X120.206 Y96.501 E1.65421
G1 X120.098 Y97.271 E1.69042
G1 X119.987 Y97.757 E1.71363
G1 X119.734 Y98.719 E1.75995
G1 X119.498 Y99.46 E1.79616
G1 X119.187 Y100.172 E1.83234
G1 X118.804 Y100.851 E1.86864
G1 X118.26 Y101.707 E1.91587
G1 X117.809 Y102.341 E1.95209
G1 X117.296 Y102.925 E1.98829
G1 X116.936 Y103.272 E2.01157
G1 X116.387 Y103.766 E2.04596
G1 X115.783 Y104.255 E2.08215
G1 X114.967 Y104.774 E2.12718
G1 X114.3 Y105.14 E2.16261
G1 X113.6 Y105.478 E2.1988
G1 X112.869 Y105.743 E2.23501
G1 X112.403 Y105.869 E2.25749
G1 X111.439 Y106.097 E2.30361
G1 X110.674 Y106.237 E2.33982
G1 X110.051 Y106.285 E2.36892
G1 X110.19 Y107.559 E2.4286
G1 X110.418 Y107.825 E2.44491
G1 X110.893 Y108.44 E2.48109
G1 X111.302 Y109.101 E2.51729
G1 X111.696 Y109.934 E2.5602
G1 X112.155 Y111.08 E2.61768
G1 X112.407 Y111.816 E2.6539
G1 X112.581 Y112.573 E2.69007
G1 X112.693 Y113.633 E2.7397
G1 X112.727 Y114.629 E2.78611
G1 X112.713 Y115.406 E2.8223
G1 X112.62 Y116.178 E2.8585
G1 X112.448 Y116.936 E2.8947
G1 X112.18 Y117.888 E2.94075
G1 X111.931 Y118.624 E2.97693
G1 X111.608 Y119.331 E3.01312
G1 X111.248 Y119.949 E3.04642
G1 X110.715 Y120.772 E3.09208
G1 X110.26 Y121.401 E3.12823
G1 X109.742 Y121.981 E3.16444
G1 X109.393 Y122.312 E3.18684
G1 X108.834 Y122.809 E3.22167
G1 X108.227 Y123.295 E3.25787
G1 X107.574 Y123.716 E3.29405
G1 X106.899 Y124.06 E3.32933
G1 X105.766 Y124.567 E3.38713
G1 X105.041 Y124.847 E3.42332
G1 X104.291 Y125.052 E3.45952
G1 X103.535 Y125.177 E3.4952
G1 X102.799 Y125.261 E3.5297
G1 X102.023 Y125.31 E3.5659
G1 X101.247 Y125.278 E3.60207
G1 X100.777 Y125.22 E3.62412
G1 X99.802 Y125.068 E3.67007
G1 X99.042 Y124.909 E3.70622
G1 X98.301 Y124.672 E3.74245
G1 X97.635 Y124.384 E3.77623
G1 X96.745 Y123.947 E3.8224
G1 X96.066 Y123.569 E3.85859
G1 X95.429 Y123.123 E3.8948
G1 X95.049 Y122.806 E3.91784
G1 X94.491 Y122.309 E3.95264
G1 X93.938 Y121.763 E3.98882
G1 X93.443 Y121.163 E4.02504
G1 X93.18 Y120.783 E4.04656
G1 X92.642 Y119.955 E4.09254
G1 X92.252 Y119.282 E4.12876
G1 X91.934 Y118.573 E4.16494
G1 X91.776 Y118.127 E4.18697
G1 X91.548 Y117.41 E4.22201
G1 X91.351 Y116.658 E4.2582
G1 X91.232 Y115.89 E4.29439
G1 X91.199 Y115.408 E4.31689
G1 X91.171 Y114.665 E4.35151
G1 X89.789 Y101.129 E4.98508
G1 X89.75 Y100.352 E5.02131
G1 X89.777 Y99.721 E5.05072
G1 X89.883 Y98.474 E5.10899
G1 X89.989 Y97.703 E5.14523
G1 X90.272 Y96.641 E5.19641
G1 X90.675 Y95.477 E5.25376
G1 X90.967 Y94.756 E5.28998
G1 X91.499 Y93.802 E5.34085
G1 X92.173 Y92.775 E5.39805
G1 X92.632 Y92.148 E5.43423
G1 X93.032 Y91.695 E5.46237
G1 X93.458 Y91.25 E5.49106
M204 S3000
M205 X10 Y10
G0 F3000 X93.862 Y91.637
M204 S1800
M205 X8 Y8
G1 F2400 X94.687 Y90.902 E5.54251
G1 X95.434 Y90.335 E5.58617
G1 X96.053 Y89.915 E5.62101
G1 X96.728 Y89.557 E5.65658
G1 X97.844 Y89.041 E5.71383
G1 X98.539 Y88.764 E5.74867
G1 X98.98 Y88.631 E5.77012
G1 X102.611 Y87.664 E5.94509
G1 X102.682 Y87.635 E5.94866
G1 X103.258 Y87.329 E5.97903
G1 X104.404 Y86.605 E6.04215
G1 X105.057 Y86.24 E6.07698
G1 X106.076 Y85.834 E6.12806
G1 X106.794 Y85.612 E6.16306
G1 X107.52 Y85.43 E6.19791
G1 X108.261 Y85.326 E6.23275
G1 X108.708 Y85.302 E6.25359
G1 X109.71 Y85.28 E6.30026
G1 X110.458 Y85.303 E6.33511
G1 X111.199 Y85.406 E6.36994
G1 X111.821 Y85.557 E6.39975
G1 X112.779 Y85.836 E6.44621
G1 X113.485 Y86.083 E6.48104
G1 X114.161 Y86.405 E6.5159
G1 X114.503 Y86.603 E6.53431
G1 X115.137 Y86.995 E6.56901
G1 X115.752 Y87.422 E6.60388
G1 X116.401 Y87.995 E6.64419
G1 X116.936 Y88.529 E6.67939
G1 X117.437 Y89.085 E6.71424
G1 X117.944 Y89.8 E6.75505
G1 X118.34 Y90.44 E6.7901
G1 X118.699 Y91.096 E6.82492
G1 X118.986 Y91.787 E6.85976
G1 X119.106 Y92.159 E6.87796
G1 X119.384 Y93.11 E6.9241
G1 X119.555 Y93.838 E6.95892
G1 X119.648 Y94.58 E6.99374
G1 X119.664 Y94.973 E7.01205
G1 X119.675 Y95.733 E7.04744
G1 X119.646 Y96.48 E7.08225
G1 X119.537 Y97.22 E7.11708
G1 X119.446 Y97.614 E7.13591
G1 X119.193 Y98.576 E7.18223
G1 X118.964 Y99.289 E7.2171
G1 X118.661 Y99.972 E7.25189
G1 X118.331 Y100.551 E7.28293
G1 X117.787 Y101.407 E7.33015
G1 X117.353 Y102.016 E7.36498
G1 X116.856 Y102.575 E7.3998
G1 X116.561 Y102.856 E7.41878
G1 X116.012 Y103.35 E7.45316
G1 X115.43 Y103.819 E7.48797
G1 X114.697 Y104.283 E7.52836
G1 X114.03 Y104.649 E7.56379
G1 X113.356 Y104.973 E7.59861
G1 X112.651 Y105.224 E7.63346
G1 X112.274 Y105.324 E7.65162
G1 X111.31 Y105.552 E7.69775
G1 X110.574 Y105.685 E7.73257
G1 X109.828 Y105.739 E7.7674
G1 X109.427 Y105.728 E7.78608
G1 X109.652 Y107.792 E7.88276
G1 X109.992 Y108.189 E7.9071
G1 X110.448 Y108.782 E7.94193
G1 X110.838 Y109.421 E7.97679
G1 X111.176 Y110.142 E8.01387
G1 X111.635 Y111.288 E8.07135
G1 X111.876 Y111.997 E8.10622
G1 X112.039 Y112.727 E8.14105
G1 X112.133 Y113.652 E8.18434
G1 X112.167 Y114.648 E8.23075
G1 X112.152 Y115.396 E8.26559
G1 X112.058 Y116.138 E8.30041
G1 X111.909 Y116.784 E8.33128
G1 X111.641 Y117.736 E8.37733
G1 X111.4 Y118.444 E8.41216
G1 X111.085 Y119.123 E8.44701
G1 X110.778 Y119.644 E8.47517
G1 X110.245 Y120.467 E8.52083
G1 X109.806 Y121.072 E8.55564
G1 X109.304 Y121.627 E8.59048
G1 X109.021 Y121.893 E8.60857
G1 X108.462 Y122.39 E8.6434
G1 X107.877 Y122.857 E8.67825
G1 X107.246 Y123.258 E8.71306
G1 X106.67 Y123.548 E8.74309
G1 X105.537 Y124.055 E8.80089
G1 X104.839 Y124.324 E8.83572
G1 X104.116 Y124.517 E8.87057
G1 X103.472 Y124.621 E8.90094
G1 X102.736 Y124.705 E8.93544
G1 X101.989 Y124.75 E8.97028
G1 X101.242 Y124.715 E9.00511
G1 X100.864 Y124.666 E9.02285
G1 X99.889 Y124.514 E9.0688
G1 X99.157 Y124.36 E9.10363
G1 X98.446 Y124.128 E9.13846
G1 X97.882 Y123.881 E9.16713
G1 X96.992 Y123.444 E9.2133
G1 X96.339 Y123.079 E9.24813
G1 X95.729 Y122.647 E9.28294
G1 X95.421 Y122.388 E9.30168
G1 X94.863 Y121.891 E9.33647
G1 X94.332 Y121.365 E9.37127
G1 X93.649 Y120.478 E9.4234
G1 X93.111 Y119.65 E9.46938
G1 X92.738 Y119.002 E9.5042
G1 X92.436 Y118.317 E9.53906
G1 X92.31 Y117.957 E9.55682
G1 X92.082 Y117.24 E9.59185
G1 X91.894 Y116.516 E9.62668
G1 X91.784 Y115.776 E9.66152
G1 X91.758 Y115.387 E9.67967
G1 X91.729 Y114.618 E9.7155
G1 X90.346 Y101.072 E10.34954
G1 X90.31 Y100.325 E10.38436
G1 X90.335 Y99.768 E10.41033
G1 X90.441 Y98.521 E10.4686
G1 X90.544 Y97.78 E10.50344
G1 X90.801 Y96.824 E10.54953
G1 X91.204 Y95.66 E10.60689
G1 X91.486 Y94.967 E10.64173
G1 X91.967 Y94.109 E10.68753
G1 X92.641 Y93.082 E10.74473
G1 X93.084 Y92.48 E10.77953
G1 X93.436 Y92.082 E10.80428
G1 X93.862 Y91.637 E10.83296
M204 S3000
M205 X10 Y10
G0 F3000 X94.267 Y92.025
M204 S1800
M205 X8 Y8
G1 F2400 X95.025 Y91.348 E10.88028
G1 X95.772 Y90.781 E10.92395
G1 X96.367 Y90.38 E10.95736
G1 X96.963 Y90.066 E10.98873
G1 X98.079 Y89.55 E11.04598
G1 X98.746 Y89.285 E11.0794
G1 X99.124 Y89.172 E11.09777
G1 X102.789 Y88.196 E11.27438
G1 X102.912 Y88.146 E11.28056
G1 X103.544 Y87.811 E11.31387
G1 X104.703 Y87.078 E11.37772
G1 X105.33 Y86.729 E11.41114
G1 X106.242 Y86.369 E11.45679
G1 X106.96 Y86.147 E11.49179
G1 X107.656 Y85.974 E11.52518
G1 X108.721 Y85.862 E11.57505
G1 X109.723 Y85.84 E11.62172
G1 X110.44 Y85.864 E11.65512
G1 X111.15 Y85.968 E11.68853
G1 X111.665 Y86.095 E11.71323
G1 X112.623 Y86.374 E11.7597
G1 X113.299 Y86.613 E11.79308
G1 X114.209 Y87.079 E11.84069
G1 X114.843 Y87.471 E11.8754
G1 X115.431 Y87.882 E11.9088
G1 X116.006 Y88.391 E11.94456
G1 X116.541 Y88.925 E11.97976
G1 X117.019 Y89.459 E12.01313
G1 X117.467 Y90.094 E12.04932
G1 X117.863 Y90.734 E12.08436
G1 X118.206 Y91.365 E12.1178
G1 X118.568 Y92.316 E12.16519
G1 X118.846 Y93.267 E12.21132
G1 X119.009 Y93.966 E12.24474
G1 X119.104 Y94.981 E12.29221
G1 X119.115 Y95.741 E12.3276
G1 X119.086 Y96.458 E12.36102
G1 X118.904 Y97.472 E12.40899
G1 X118.651 Y98.434 E12.45531
G1 X118.43 Y99.117 E12.48873
G1 X118.135 Y99.77 E12.5221
G1 X117.858 Y100.25 E12.5479
G1 X117.314 Y101.106 E12.59513
G1 X116.896 Y101.689 E12.62853
G1 X116.187 Y102.439 E12.67659
G1 X115.638 Y102.933 E12.71098
G1 X115.078 Y103.383 E12.74443
G1 X114.428 Y103.792 E12.78019
G1 X113.761 Y104.158 E12.81562
G1 X113.114 Y104.467 E12.84901
G1 X112.145 Y104.779 E12.89641
G1 X111.181 Y105.007 E12.94254
G1 X110.475 Y105.133 E12.97593
G1 X109.759 Y105.18 E13.00934
G1 X109.219 Y105.162 E13.0345
G1 X108.799 Y105.131 E13.05411
G1 X109.113 Y108.025 E13.18966
G1 X109.567 Y108.554 E13.22212
G1 X110.003 Y109.123 E13.2555
G1 X110.373 Y109.738 E13.28892
G1 X110.656 Y110.351 E13.32036
G1 X111.115 Y111.497 E13.37784
G1 X111.345 Y112.176 E13.41122
G1 X111.497 Y112.878 E13.44467
G1 X111.573 Y113.671 E13.48176
G1 X111.607 Y114.667 E13.52817
G1 X111.592 Y115.385 E13.56161
G1 X111.497 Y116.096 E13.59501
G1 X111.37 Y116.632 E13.62066
G1 X111.102 Y117.584 E13.66671
G1 X110.869 Y118.263 E13.70014
G1 X110.563 Y118.912 E13.73355
G1 X110.308 Y119.34 E13.75675
G1 X109.775 Y120.163 E13.8024
G1 X109.352 Y120.742 E13.83579
G1 X108.649 Y121.475 E13.88308
G1 X108.09 Y121.972 E13.91791
G1 X107.528 Y122.418 E13.95132
G1 X106.92 Y122.799 E13.98473
G1 X106.441 Y123.037 E14.00964
G1 X105.308 Y123.544 E14.06744
G1 X104.638 Y123.8 E14.10083
G1 X103.944 Y123.98 E14.13422
G1 X103.408 Y124.064 E14.15948
G1 X102.672 Y124.148 E14.19398
G1 X101.956 Y124.19 E14.22737
G1 X100.95 Y124.113 E14.27435
G1 X99.975 Y123.961 E14.3203
G1 X99.273 Y123.811 E14.35373
G1 X98.593 Y123.584 E14.38711
G1 X98.129 Y123.379 E14.41073
G1 X97.239 Y122.942 E14.4569
G1 X96.613 Y122.59 E14.49034
G1 X95.794 Y121.97 E14.53817
G1 X95.236 Y121.473 E14.57297
G1 X94.727 Y120.967 E14.60638
G1 X94.119 Y120.173 E14.65295
G1 X93.581 Y119.345 E14.69893
G1 X93.224 Y118.722 E14.73237
G1 X92.844 Y117.788 E14.77932
G1 X92.616 Y117.071 E14.81435
G1 X92.437 Y116.376 E14.84777
G1 X92.318 Y115.366 E14.89513
G1 X92.288 Y114.586 E14.93147
G1 X90.903 Y101.015 E15.56668
G1 X90.87 Y100.298 E15.6001
G1 X90.893 Y99.816 E15.62257
G1 X90.999 Y98.569 E15.68084
G1 X91.1 Y97.858 E15.71428
G1 X91.33 Y97.007 E15.75533
G1 X91.733 Y95.843 E15.81269
G1 X92.006 Y95.179 E15.84612
G1 X92.435 Y94.417 E15.88684
G1 X93.109 Y93.39 E15.94404
G1 X93.535 Y92.813 E15.97743
G1 X93.841 Y92.47 E15.99884
G1 X94.267 Y92.025 E16.02752
M204 S3000
M205 X10 Y10
G0 F3000 X94.672 Y92.412
M204 S1800
M205 X8 Y8
G1 F2400 X95.364 Y91.794 E16.07072
G1 X96.111 Y91.227 E16.11439
G1 X96.68 Y90.845 E16.1463
G1 X97.198 Y90.574 E16.17353
G1 X98.314 Y90.058 E16.23078
G1 X99.268 Y89.713 E16.27802
G1 X102.974 Y88.726 E16.4566
G1 X103.147 Y88.656 E16.46529
G1 X103.824 Y88.297 E16.50097
G1 X105.002 Y87.552 E16.56587
G1 X105.602 Y87.22 E16.5978
G1 X106.407 Y86.904 E16.63807
G1 X107.125 Y86.682 E16.67307
G1 X107.791 Y86.518 E16.705
G1 X108.733 Y86.421 E16.7491
G1 X109.735 Y86.399 E16.79577
G1 X110.42 Y86.424 E16.82769
G1 X111.098 Y86.529 E16.85963
G1 X111.508 Y86.633 E16.87933
G1 X112.466 Y86.912 E16.92579
G1 X113.112 Y87.141 E16.9577
G1 X113.914 Y87.556 E16.99975
G1 X114.548 Y87.948 E17.03446
G1 X115.109 Y88.342 E17.06638
G1 X115.61 Y88.787 E17.09758
G1 X116.145 Y89.321 E17.13278
G1 X116.601 Y89.833 E17.16471
G1 X116.991 Y90.389 E17.19633
G1 X117.387 Y91.029 E17.23138
G1 X117.713 Y91.632 E17.2633
G1 X118.031 Y92.473 E17.30516
G1 X118.309 Y93.424 E17.3513
G1 X118.462 Y94.092 E17.38321
G1 X118.544 Y94.989 E17.42515
G1 X118.555 Y95.749 E17.46054
G1 X118.525 Y96.434 E17.49247
G1 X118.363 Y97.33 E17.53487
G1 X118.11 Y98.292 E17.58119
G1 X117.897 Y98.943 E17.61308
G1 X117.61 Y99.566 E17.64502
G1 X117.386 Y99.95 E17.66572
G1 X116.842 Y100.806 E17.71295
G1 X116.441 Y101.362 E17.74487
G1 X115.812 Y102.023 E17.78736
G1 X115.263 Y102.517 E17.82174
G1 X114.728 Y102.945 E17.85365
G1 X114.159 Y103.301 E17.8849
G1 X113.492 Y103.667 E17.92033
G1 X112.872 Y103.961 E17.95228
G1 X112.016 Y104.234 E17.99412
G1 X111.052 Y104.462 E18.04024
G1 X110.377 Y104.581 E18.07216
G1 X109.693 Y104.62 E18.10406
G1 X109.261 Y104.604 E18.12419
G1 X108.17 Y104.522 E18.17513
G1 X108.576 Y108.258 E18.35012
G1 X109.142 Y108.918 E18.39061
G1 X109.557 Y109.464 E18.42254
G1 X109.906 Y110.054 E18.45446
G1 X110.136 Y110.559 E18.4803
G1 X110.595 Y111.705 E18.53778
G1 X110.813 Y112.355 E18.56971
G1 X110.953 Y113.026 E18.60162
G1 X111.014 Y113.69 E18.63267
G1 X111.048 Y114.686 E18.67908
G1 X111.031 Y115.372 E18.71103
G1 X110.935 Y116.051 E18.74296
G1 X110.831 Y116.48 E18.76352
G1 X110.563 Y117.432 E18.80957
G1 X110.339 Y118.08 E18.8415
G1 X110.041 Y118.698 E18.87344
G1 X109.838 Y119.035 E18.89176
G1 X109.305 Y119.858 E18.93742
G1 X108.9 Y120.411 E18.96934
G1 X108.277 Y121.056 E19.01109
G1 X107.718 Y121.553 E19.04592
G1 X107.18 Y121.978 E19.07785
G1 X106.596 Y122.338 E19.10979
G1 X106.213 Y122.526 E19.12966
G1 X105.08 Y123.033 E19.18746
G1 X104.439 Y123.276 E19.21938
G1 X103.774 Y123.443 E19.2513
G1 X103.345 Y123.508 E19.27151
G1 X102.609 Y123.592 E19.306
G1 X101.924 Y123.63 E19.33795
G1 X101.036 Y123.56 E19.37943
G1 X100.061 Y123.408 E19.42537
G1 X99.391 Y123.263 E19.45729
G1 X98.743 Y123.041 E19.48919
G1 X98.375 Y122.876 E19.50797
G1 X97.485 Y122.439 E19.55414
G1 X96.889 Y122.102 E19.58602
G1 X96.166 Y121.552 E19.62832
G1 X95.608 Y121.055 E19.66311
G1 X95.124 Y120.57 E19.69502
G1 X94.588 Y119.868 E19.73615
G1 X94.05 Y119.04 E19.78212
G1 X93.711 Y118.444 E19.81405
G1 X93.377 Y117.618 E19.85554
G1 X93.149 Y116.901 E19.89057
G1 X92.98 Y116.237 E19.92248
G1 X92.877 Y115.344 E19.96433
G1 X92.846 Y114.54 E20.0018
G1 X91.46 Y100.958 E20.63752
G1 X91.431 Y100.273 E20.66944
G1 X91.451 Y99.863 E20.68856
G1 X91.557 Y98.616 E20.74683
G1 X91.655 Y97.937 E20.77878
G1 X91.86 Y97.19 E20.81485
G1 X92.263 Y96.026 E20.87221
G1 X92.524 Y95.393 E20.90409
G1 X92.903 Y94.724 E20.93989
G1 X93.577 Y93.697 E20.99709
G1 X93.986 Y93.147 E21.02901
G1 X94.246 Y92.857 E21.04714
G1 X94.672 Y92.412 E21.07583
M204 S3000
M205 X10 Y10
G0 F3000 X95.076 Y92.799
M204 S1800
M205 X8 Y8
G1 F2400 X95.703 Y92.24 E21.11494
G1 X96.45 Y91.673 E21.15861
G1 X96.992 Y91.312 E21.18893
G1 X97.433 Y91.082 E21.21209
G1 X98.549 Y90.566 E21.26934
G1 X99.412 Y90.254 E21.31208
G1 X103.152 Y89.258 E21.4923
G1 X103.385 Y89.163 E21.50401
G1 X104.106 Y88.781 E21.54201
G1 X105.302 Y88.025 E21.60789
G1 X105.873 Y87.711 E21.63823
G1 X106.573 Y87.439 E21.6732
G1 X107.291 Y87.217 E21.7082
G1 X107.924 Y87.063 E21.73853
G1 X108.745 Y86.981 E21.77695
G1 X109.747 Y86.959 E21.82362
G1 X110.399 Y86.985 E21.854
G1 X111.352 Y87.17 E21.89921
G1 X112.31 Y87.449 E21.94567
G1 X112.923 Y87.67 E21.97601
