;FLAVOR:Marlin
;TIME:4450
;Filament used: 1.91934m
;Layer height: 0.1
;Generated with Cura_SteamEngine master
M140 S70
M105
M190 S70
M104 S210
M105
M109 S210
M82 ;absolute extrusion mode
G21 ;metric values
G90 ;absolute positioning
M82 ;set extruder to absolute mode
M107 ;start with the fan off
G28 X0 Y0 ;move X/Y to min endstops
G28 Z0 ;move Z to min endstops
G1 Z15.0 F100 ;move the platform down 15mm
G92 E0 ;zero the extruded length
G1 F200 E3 ;extrude 3mm of feed stock
G92 E0 ;zero the extruded length again
G1 F100
M117 Printing...
G5
G92 E0
G1 F2400 E-6
;LAYER_COUNT:147
;LAYER:0
M106 S255
M204 S3000
M205 X10 Y10
G0 F1200 X91.864 Y71.337 Z0.2
M204 S1800
M205 X8 Y8
;TYPE:SKIRT
G1 F2400 E0
G1 X92.369 Y70.747 E0.03616
G1 X92.933 Y70.211 E0.07239
G1 X93.549 Y69.737 E0.10858
G1 X94.21 Y69.328 E0.14478
G1 X94.68 Y69.091 E0.16929
G1 X94.89 Y68.994 E0.18006
G1 X95.611 Y68.705 E0.21623
G1 X96.359 Y68.491 E0.25246
G1 X97.124 Y68.355 E0.28864
G1 X97.9 Y68.299 E0.32487
G1 X98.677 Y68.322 E0.36106
G1 X99.447 Y68.425 E0.39724
G1 X100.203 Y68.607 E0.43344
G1 X100.639 Y68.751 E0.45482
G1 X106.335 Y70.818 E0.73698
G1 X108.505 Y64.902 E1.0304
G1 X108.81 Y64.186 E1.06664
G1 X109.187 Y63.506 E1.10284
G1 X109.632 Y62.869 E1.13902
G1 X110.139 Y62.28 E1.17521
G1 X110.705 Y61.746 E1.21145
G1 X111.322 Y61.274 E1.24762
G1 X111.985 Y60.867 E1.28384
G1 X112.42 Y60.648 E1.30652
G1 X112.629 Y60.551 E1.31725
G1 X113.35 Y60.26 E1.35345
G1 X114.098 Y60.045 E1.38969
G1 X114.863 Y59.908 E1.42588
G1 X115.638 Y59.85 E1.46207
G1 X116.415 Y59.872 E1.49827
G1 X117.186 Y59.974 E1.53448
G1 X117.942 Y60.154 E1.57067
G1 X118.391 Y60.301 E1.59266
G1 X120.309 Y60.997 E1.68767
G1 X121.025 Y61.3 E1.72388
G1 X121.706 Y61.674 E1.76005
G1 X122.346 Y62.117 E1.7963
G1 X122.936 Y62.622 E1.83246
G1 X123.472 Y63.186 E1.86869
G1 X123.946 Y63.802 E1.90488
G1 X124.355 Y64.463 E1.94108
G1 X124.593 Y64.934 E1.96565
G1 X124.69 Y65.144 E1.97642
G1 X124.979 Y65.865 E2.01259
G1 X125.193 Y66.613 E2.04882
G1 X125.329 Y67.378 E2.085
G1 X125.385 Y68.154 E2.12123
G1 X125.362 Y68.931 E2.15742
G1 X125.259 Y69.701 E2.1936
G1 X125.077 Y70.457 E2.2298
G1 X124.941 Y70.872 E2.25014
G1 X122.808 Y76.803 E2.54363
G1 X128.528 Y78.877 E2.82694
G1 X129.244 Y79.179 E2.86313
G1 X129.926 Y79.553 E2.89935
G1 X130.565 Y79.995 E2.93552
G1 X131.156 Y80.501 E2.97175
G1 X131.691 Y81.064 E3.00792
G1 X132.166 Y81.68 E3.04414
G1 X132.575 Y82.341 E3.08033
G1 X132.814 Y82.814 E3.10501
G1 X132.911 Y83.024 E3.11578
G1 X133.2 Y83.745 E3.15195
G1 X133.414 Y84.493 E3.18818
G1 X133.55 Y85.258 E3.22436
G1 X133.606 Y86.034 E3.26059
G1 X133.583 Y86.811 E3.29678
G1 X133.48 Y87.581 E3.33296
G1 X133.298 Y88.337 E3.36916
G1 X133.154 Y88.774 E3.39059
G1 X128.146 Y102.566 E4.07383
G1 X127.843 Y103.282 E4.11003
G1 X127.469 Y103.964 E4.14625
G1 X127.026 Y104.603 E4.18245
G1 X126.521 Y105.193 E4.21862
G1 X125.957 Y105.729 E4.25485
G1 X125.341 Y106.203 E4.29104
G1 X124.68 Y106.612 E4.32723
G1 X124.21 Y106.849 E4.35174
G1 X124 Y106.946 E4.36252
G1 X123.279 Y107.235 E4.39869
G1 X122.531 Y107.449 E4.43491
G1 X121.766 Y107.585 E4.47109
G1 X120.99 Y107.641 E4.50732
G1 X120.213 Y107.618 E4.54352
G1 X119.443 Y107.515 E4.57969
G1 X118.687 Y107.333 E4.6159
G1 X118.25 Y107.189 E4.63732
G1 X114.846 Y105.953 E4.80595
G1 X103.838 Y136.201 E6.3048
G1 X103.973 Y136.717 E6.32963
G1 X104.233 Y137.911 E6.38653
G1 X104.359 Y138.679 E6.42277
G1 X104.403 Y139.315 E6.45246
G1 X104.436 Y140.53 E6.50906
G1 X104.417 Y141.307 E6.54525
G1 X104.34 Y141.953 E6.57554
G1 X104.144 Y143.154 E6.6322
G1 X103.98 Y143.913 E6.66836
G1 X103.791 Y144.512 E6.69761
G1 X103.38 Y145.646 E6.75377
G1 X103.077 Y146.362 E6.78998
G1 X102.775 Y146.925 E6.81973
G1 X102.155 Y147.971 E6.87634
G1 X101.725 Y148.618 E6.91252
G1 X101.322 Y149.116 E6.94235
G1 X100.807 Y149.7 E6.97861
G1 X100.264 Y150.256 E7.01479
G1 X99.666 Y150.753 E7.051
G1 X99.02 Y151.186 E7.08721
G1 X98.334 Y151.551 E7.1234
G1 X97.613 Y151.843 E7.15962
G1 X96.649 Y152.107 E7.20616
G1 X96.36 Y152.166 E7.21989
G1 X95.591 Y152.282 E7.25611
G1 X94.815 Y152.319 E7.29228
G1 X94.039 Y152.276 E7.32847
G1 X93.271 Y152.153 E7.36469
G1 X92.52 Y151.952 E7.40089
G1 X91.953 Y151.743 E7.42903
G1 X91.678 Y151.629 E7.44289
G1 X90.976 Y151.294 E7.47911
G1 X90.393 Y150.939 E7.51089
G1 X89.899 Y151.252 E7.53812
G1 X89.203 Y151.599 E7.57434
G1 X88.59 Y151.835 E7.60492
G1 X88.31 Y151.929 E7.61868
G1 X87.561 Y152.138 E7.65488
G1 X86.795 Y152.269 E7.69107
G1 X86.019 Y152.321 E7.72728
G1 X85.242 Y152.293 E7.76349
G1 X84.472 Y152.185 E7.79969
G1 X83.804 Y152.024 E7.83169
G1 X83.517 Y151.941 E7.8456
G1 X82.782 Y151.687 E7.88181
G1 X82.077 Y151.359 E7.91802
G1 X81.41 Y150.96 E7.95421
G1 X80.787 Y150.495 E7.99041
G1 X80.215 Y149.968 E8.02662
G1 X79.877 Y149.599 E8.04993
G1 X79.397 Y149.039 E8.08427
G1 X78.922 Y148.423 E8.12049
G1 X78.633 Y147.973 E8.14539
G1 X78.012 Y146.925 E8.20212
G1 X77.651 Y146.237 E8.2383
G1 X77.41 Y145.65 E8.26784
G1 X76.997 Y144.512 E8.32421
G1 X76.769 Y143.769 E8.3604
G1 X76.641 Y143.144 E8.39011
G1 X76.446 Y141.942 E8.44681
G1 X76.361 Y141.169 E8.48302
G1 X76.351 Y140.526 E8.51297
G1 X76.384 Y139.31 E8.56961
G1 X76.445 Y138.535 E8.60581
G1 X76.556 Y137.9 E8.63583
G1 X76.816 Y136.711 E8.6925
G1 X77.02 Y135.961 E8.72869
G1 X77.239 Y135.378 E8.75769
G1 X77.712 Y134.261 E8.81417
G1 X78.052 Y133.562 E8.85037
G1 X78.385 Y133.014 E8.88023
G1 X79.064 Y131.996 E8.93721
G1 X79.528 Y131.372 E8.97341
G1 X79.967 Y130.886 E9.00391
G1 X80.81 Y130.03 E9.05985
G1 X81.383 Y129.505 E9.09604
G1 X81.875 Y129.132 E9.12479
G1 X82.716 Y128.546 E9.17252
G1 X93.731 Y98.286 E10.672
G1 X90.359 Y97.062 E10.83904
G1 X89.643 Y96.76 E10.87522
G1 X88.962 Y96.385 E10.91142
G1 X88.323 Y95.943 E10.9476
G1 X87.732 Y95.437 E10.98383
G1 X87.197 Y94.873 E11.02003
G1 X86.722 Y94.258 E11.05621
G1 X86.313 Y93.596 E11.09245
G1 X86.076 Y93.126 E11.11696
G1 X85.979 Y92.916 E11.12773
G1 X85.69 Y92.195 E11.1639
G1 X85.476 Y91.447 E11.20012
G1 X85.34 Y90.682 E11.2363
G1 X85.284 Y89.906 E11.27253
G1 X85.307 Y89.129 E11.30873
G1 X85.41 Y88.359 E11.3449
G1 X85.592 Y87.603 E11.38111
G1 X85.736 Y87.166 E11.40254
G1 X90.744 Y73.374 E12.08578
G1 X91.047 Y72.658 E12.12198
G1 X91.421 Y71.976 E12.1582
G1 X91.864 Y71.337 E12.1944
M204 S3000
M205 X10 Y10
G0 F1200 X92.359 Y71.612
M204 S1800
M205 X8 Y8
G1 F2400 X92.854 Y71.051 E12.22924
G1 X93.406 Y70.546 E12.26408
G1 X94.008 Y70.103 E12.29888
G1 X94.915 Y69.599 E12.3472
G1 X95.125 Y69.502 E12.35797
G1 X95.82 Y69.225 E12.39281
G1 X96.54 Y69.024 E12.42761
G1 X97.278 Y68.901 E12.46245
G1 X98.025 Y68.857 E12.4973
G1 X98.772 Y68.893 E12.53212
G1 X99.511 Y69.009 E12.56695
G1 X100.448 Y69.277 E12.61233
G1 X106.669 Y71.534 E12.92048
G1 X109.031 Y65.094 E13.23989
G1 X109.326 Y64.407 E13.2747
G1 X109.692 Y63.755 E13.30952
G1 X110.126 Y63.145 E13.34438
G1 X110.623 Y62.586 E13.37921
G1 X111.176 Y62.082 E13.41405
G1 X111.78 Y61.641 E13.44887
G1 X112.656 Y61.156 E13.4955
G1 X112.865 Y61.059 E13.50623
G1 X113.56 Y60.78 E13.5411
G1 X114.28 Y60.578 E13.57592
G1 X115.017 Y60.453 E13.61073
G1 X115.764 Y60.408 E13.64557
G1 X116.511 Y60.443 E13.6804
G1 X117.25 Y60.557 E13.71521
G1 X118.2 Y60.828 E13.76121
G1 X120.118 Y61.524 E13.85622
G1 X120.806 Y61.816 E13.89102
G1 X121.46 Y62.18 E13.92588
G1 X122.071 Y62.612 E13.96072
G1 X122.632 Y63.107 E13.99556
G1 X123.137 Y63.658 E14.03036
G1 X123.581 Y64.261 E14.06523
G1 X124.085 Y65.169 E14.11359
G1 X124.182 Y65.379 E14.12436
G1 X124.459 Y66.074 E14.1592
G1 X124.66 Y66.794 E14.194
G1 X124.783 Y67.532 E14.22884
G1 X124.827 Y68.279 E14.26369
G1 X124.791 Y69.026 E14.29851
G1 X124.675 Y69.765 E14.33334
G1 X124.414 Y70.682 E14.37774
G1 X122.092 Y77.139 E14.69725
G1 X128.337 Y79.403 E15.00656
G1 X129.026 Y79.695 E15.04141
G1 X129.679 Y80.059 E15.07622
G1 X130.29 Y80.491 E15.11106
G1 X130.851 Y80.985 E15.14587
G1 X131.357 Y81.537 E15.18074
G1 X131.801 Y82.139 E15.21557
G1 X132.306 Y83.049 E15.26403
G1 X132.403 Y83.259 E15.2748
G1 X132.68 Y83.954 E15.30964
G1 X132.881 Y84.674 E15.34445
G1 X133.004 Y85.412 E15.37929
G1 X133.048 Y86.159 E15.41413
G1 X133.012 Y86.906 E15.44896
G1 X132.896 Y87.645 E15.48379
G1 X132.628 Y88.583 E15.52921
G1 X127.62 Y102.375 E16.21245
G1 X127.327 Y103.064 E16.24732
G1 X126.963 Y103.717 E16.28213
G1 X126.531 Y104.328 E16.31697
G1 X126.036 Y104.889 E16.35181
G1 X125.484 Y105.394 E16.38665
G1 X124.882 Y105.837 E16.42145
G1 X123.975 Y106.341 E16.46976
G1 X123.765 Y106.438 E16.48054
G1 X123.07 Y106.715 E16.51537
G1 X122.35 Y106.916 E16.55018
G1 X121.612 Y107.039 E16.58502
G1 X120.865 Y107.083 E16.61986
G1 X120.118 Y107.047 E16.65469
G1 X119.379 Y106.931 E16.68952
G1 X118.441 Y106.663 E16.73495
G1 X114.512 Y105.236 E16.92959
G1 X103.246 Y136.19 E18.46343
G1 X103.29 Y136.311 E18.46943
G1 X103.426 Y136.837 E18.49473
G1 X103.686 Y138.031 E18.55163
G1 X103.806 Y138.769 E18.58644
G1 X103.843 Y139.33 E18.61262
G1 X103.876 Y140.545 E18.66922
G1 X103.857 Y141.293 E18.70406
G1 X103.788 Y141.862 E18.73075
G1 X103.592 Y143.063 E18.78741
G1 X103.432 Y143.794 E18.82226
G1 X103.264 Y144.321 E18.84801
G1 X102.853 Y145.455 E18.90418
G1 X102.561 Y146.144 E18.93902
G1 X102.294 Y146.639 E18.96521
G1 X101.674 Y147.685 E19.02183
G1 X101.258 Y148.307 E19.05667
G1 X100.902 Y148.746 E19.08299
G1 X100.387 Y149.33 E19.11925
G1 X99.863 Y149.864 E19.15409
G1 X99.285 Y150.339 E19.18892
G1 X98.66 Y150.749 E19.22373
G1 X97.994 Y151.09 E19.25857
G1 X97.296 Y151.359 E19.2934
G1 X96.537 Y151.559 E19.32995
G1 X96.248 Y151.618 E19.34368
G1 X95.508 Y151.728 E19.37852
G1 X94.761 Y151.758 E19.41333
G1 X94.014 Y151.709 E19.44819
G1 X93.277 Y151.581 E19.48302
G1 X92.559 Y151.374 E19.51782
G1 X92.167 Y151.225 E19.53734
G1 X91.892 Y151.111 E19.55121
G1 X91.218 Y150.788 E19.58601
G1 X90.581 Y150.395 E19.62086
G1 X90.393 Y150.249 E19.63194
G1 X90.162 Y150.427 E19.64552
G1 X89.525 Y150.819 E19.68035
G1 X88.85 Y151.141 E19.71518
G1 X88.412 Y151.304 E19.73694
G1 X88.132 Y151.398 E19.75069
G1 X87.411 Y151.598 E19.78553
G1 X86.673 Y151.72 E19.82036
G1 X85.926 Y151.762 E19.8552
G1 X85.179 Y151.724 E19.89003
G1 X84.44 Y151.607 E19.92487
G1 X83.959 Y151.486 E19.94796
G1 X83.672 Y151.403 E19.96187
G1 X82.966 Y151.158 E19.99667
G1 X82.29 Y150.838 E20.0315
G1 X81.651 Y150.447 E20.06638
G1 X81.058 Y149.991 E20.10121
G1 X80.302 Y149.235 E20.151
G1 X79.822 Y148.675 E20.18534
G1 X79.366 Y148.081 E20.22021
G1 X79.115 Y147.687 E20.24196
G1 X78.494 Y146.639 E20.29869
G1 X78.147 Y145.976 E20.33353
G1 X77.936 Y145.459 E20.35953
G1 X77.523 Y144.321 E20.4159
G1 X77.306 Y143.605 E20.45074
G1 X77.193 Y143.054 E20.47693
G1 X76.998 Y141.852 E20.53363
G1 X76.918 Y141.108 E20.56848
G1 X76.911 Y140.541 E20.59488
G1 X76.944 Y139.325 E20.65152
G1 X77.004 Y138.579 E20.68637
G1 X77.103 Y138.02 E20.71281
G1 X77.363 Y136.831 E20.76948
G1 X77.561 Y136.109 E20.80434
G1 X77.755 Y135.596 E20.82988
G1 X78.228 Y134.479 E20.88636
G1 X78.556 Y133.807 E20.92118
G1 X78.851 Y133.325 E20.9475
G1 X79.53 Y132.307 E21.00448
G1 X79.977 Y131.708 E21.03928
G1 X80.366 Y131.279 E21.06624
G1 X81.209 Y130.423 E21.12219
G1 X81.761 Y129.919 E21.15699
G1 X82.195 Y129.591 E21.18232
G1 X83.182 Y128.903 E21.23835
G1 X94.449 Y97.951 E22.77212
G1 X90.55 Y96.536 E22.96526
G1 X89.862 Y96.243 E23.00008
G1 X89.208 Y95.879 E23.03493
G1 X88.598 Y95.447 E23.06974
G1 X88.036 Y94.953 E23.10458
G1 X87.531 Y94.401 E23.13942
G1 X87.088 Y93.798 E23.17426
G1 X86.584 Y92.891 E23.22257
G1 X86.487 Y92.681 E23.23334
G1 X86.21 Y91.986 E23.26818
G1 X86.009 Y91.266 E23.30299
G1 X85.886 Y90.528 E23.33783
G1 X85.842 Y89.781 E23.37267
G1 X85.878 Y89.034 E23.4075
G1 X85.994 Y88.295 E23.44233
G1 X86.262 Y87.357 E23.48775
G1 X91.27 Y73.565 E24.17099
G1 X91.563 Y72.876 E24.20586
G1 X91.927 Y72.223 E24.24067
G1 X92.359 Y71.612 E24.27551
M204 S3000
M205 X10 Y10
G0 F1200 X92.853 Y71.891
M204 S1800
M205 X8 Y8
G1 F2400 X93.336 Y71.36 E24.30894
G1 X93.875 Y70.887 E24.34233
G1 X94.464 Y70.476 E24.37577
G1 X95.149 Y70.108 E24.41198
G1 X95.359 Y70.011 E24.42275
G1 X96.027 Y69.746 E24.45621
G1 X96.719 Y69.558 E24.4896
G1 X97.428 Y69.448 E24.52301
G1 X98.145 Y69.418 E24.55643
G1 X98.861 Y69.467 E24.58985
G1 X99.566 Y69.596 E24.62322
G1 X100.257 Y69.803 E24.65681
G1 X107.003 Y72.251 E24.99097
G1 X109.557 Y65.287 E25.33637
G1 X109.841 Y64.628 E25.36978
G1 X110.197 Y64.005 E25.40319
G1 X110.62 Y63.426 E25.43658
G1 X111.104 Y62.897 E25.46997
G1 X111.645 Y62.425 E25.5034
G1 X112.235 Y62.016 E25.53683
G1 X112.892 Y61.663 E25.57156
G1 X113.101 Y61.566 E25.58229
G1 X113.767 Y61.301 E25.61566
G1 X114.46 Y61.112 E25.64911
G1 X115.168 Y61 E25.68249
G1 X115.885 Y60.968 E25.71591
G1 X116.601 Y61.017 E25.74932
G1 X117.307 Y61.144 E25.78273
G1 X118.009 Y61.354 E25.81685
G1 X119.927 Y62.05 E25.91185
G1 X120.587 Y62.332 E25.94527
G1 X121.211 Y62.686 E25.97868
G1 X121.792 Y63.107 E26.01209
G1 X122.323 Y63.589 E26.04548
G1 X122.796 Y64.128 E26.07887
G1 X123.207 Y64.717 E26.11232
G1 X123.576 Y65.403 E26.14859
G1 X123.673 Y65.613 E26.15936
G1 X123.938 Y66.281 E26.19282
G1 X124.126 Y66.973 E26.22621
G1 X124.236 Y67.682 E26.25962
G1 X124.266 Y68.399 E26.29304
G1 X124.217 Y69.115 E26.32646
G1 X124.088 Y69.82 E26.35983
G1 X123.887 Y70.493 E26.39253
G1 X121.376 Y77.476 E26.73808
G1 X128.146 Y79.93 E27.07339
G1 X128.806 Y80.211 E27.10679
G1 X129.43 Y80.565 E27.14019
G1 X130.012 Y80.985 E27.17361
G1 X130.542 Y81.468 E27.207
G1 X131.016 Y82.007 E27.24043
G1 X131.427 Y82.595 E27.27383
G1 X131.797 Y83.283 E27.31021
G1 X131.894 Y83.493 E27.32098
G1 X132.159 Y84.161 E27.35444
G1 X132.347 Y84.853 E27.38783
G1 X132.457 Y85.562 E27.42124
G1 X132.487 Y86.279 E27.45466
G1 X132.438 Y86.995 E27.48807
G1 X132.309 Y87.7 E27.52145
G1 X132.101 Y88.392 E27.55509
G1 X127.093 Y102.184 E28.23833
G1 X126.811 Y102.844 E28.27175
G1 X126.458 Y103.468 E28.30514
G1 X126.037 Y104.049 E28.33855
G1 X125.554 Y104.58 E28.37197
G1 X125.015 Y105.053 E28.40536
G1 X124.426 Y105.464 E28.43881
G1 X123.741 Y105.832 E28.47501
G1 X123.531 Y105.929 E28.48579
G1 X122.863 Y106.194 E28.51925
G1 X122.171 Y106.382 E28.55264
G1 X121.462 Y106.492 E28.58605
G1 X120.745 Y106.522 E28.61946
G1 X120.029 Y106.473 E28.65288
G1 X119.324 Y106.344 E28.68625
G1 X118.632 Y106.136 E28.7199
G1 X114.177 Y104.518 E28.9406
G1 X102.651 Y136.19 E30.51
G1 X102.762 Y136.5 E30.52534
G1 X102.879 Y136.956 E30.54726
G1 X103.139 Y138.15 E30.60416
G1 X103.252 Y138.858 E30.63754
G1 X103.284 Y139.345 E30.66027
G1 X103.317 Y140.56 E30.71687
G1 X103.296 Y141.277 E30.75027
G1 X103.235 Y141.772 E30.77349
G1 X103.039 Y142.973 E30.83015
G1 X102.884 Y143.674 E30.86358
G1 X102.738 Y144.13 E30.88588
G1 X102.327 Y145.264 E30.94204
G1 X102.045 Y145.924 E30.97546
G1 X101.812 Y146.354 E30.99824
G1 X101.192 Y147.4 E31.05486
G1 X100.792 Y147.996 E31.08828
G1 X100.482 Y148.375 E31.11108
G1 X99.967 Y148.959 E31.14733
G1 X99.463 Y149.47 E31.18076
G1 X98.906 Y149.922 E31.21416
G1 X98.302 Y150.309 E31.24756
G1 X97.658 Y150.626 E31.28098
G1 X96.983 Y150.87 E31.3144
G1 X96.425 Y151.01 E31.34119
G1 X96.136 Y151.069 E31.35493
G1 X95.426 Y151.173 E31.38834
G1 X94.709 Y151.198 E31.42175
G1 X93.994 Y151.142 E31.45514
G1 X93.289 Y151.007 E31.48857
G1 X92.382 Y150.708 E31.53304
G1 X92.107 Y150.594 E31.5469
G1 X91.46 Y150.283 E31.58032
G1 X90.853 Y149.902 E31.6137
G1 X90.394 Y149.537 E31.641
G1 X90.344 Y149.584 E31.6442
G1 X89.771 Y150.016 E31.67761
G1 X89.154 Y150.382 E31.71102
G1 X88.234 Y150.773 E31.75756
G1 X87.954 Y150.867 E31.77132
G1 X87.262 Y151.057 E31.80473
G1 X86.553 Y151.169 E31.83816
G1 X85.836 Y151.202 E31.87158
G1 X85.12 Y151.154 E31.90499
G1 X84.115 Y150.948 E31.95276
G1 X83.828 Y150.865 E31.96667
G1 X83.151 Y150.628 E32.00007
G1 X82.504 Y150.317 E32.0335
G1 X81.897 Y149.936 E32.06687
G1 X81.335 Y149.489 E32.10031
G1 X80.727 Y148.87 E32.14071
G1 X80.247 Y148.31 E32.17505
G1 X79.812 Y147.74 E32.20844
G1 X79.597 Y147.402 E32.2271
G1 X78.976 Y146.354 E32.28382
G1 X78.645 Y145.717 E32.31725
G1 X78.462 Y145.268 E32.33982
G1 X78.049 Y144.13 E32.39619
G1 X77.843 Y143.443 E32.42959
G1 X77.746 Y142.964 E32.45235
G1 X77.551 Y141.762 E32.50905
G1 X77.476 Y141.049 E32.54243
G1 X77.47 Y140.556 E32.56539
G1 X77.503 Y139.34 E32.62203
