;FLAVOR:Marlin
;TIME:914
;Filament used: 0.416386m
;Layer height: 0.1
;Generated with Cura_SteamEngine master
M140 S70
M105
M190 S70
M104 S200
M105
M109 S200
M82 ;absolute extrusion mode
G21 ;metric values
G90 ;absolute positioning
M82 ;set extruder to absolute mode
M107 ;start with the fan off
G28 X0 Y0 ;move X/Y to min endstops
G28 Z0 ;move Z to min endstops
G1 Z15.0 F100 ;move the platform down 15mm
G92 E0 ;zero the extruded length
G1 F200 E3 ;extrude 3mm of feed stock
G92 E0 ;zero the extruded length again
G1 F100
M117 Printing...
G5
G92 E0
G1 F2400 E-6
;LAYER_COUNT:75
;LAYER:0
M106 S255
M204 S3000
M205 X10 Y10
G0 F3000 X97.199 Y89.883 Z0.2
M204 S1800
M205 X8 Y8
;TYPE:SKIRT
G1 F2400 E0
G1 X97.893 Y89.224 E0.04456
G1 X98.605 Y88.629 E0.08777
G1 X99.227 Y88.162 E0.12399
G1 X99.893 Y87.761 E0.16019
G1 X100.601 Y87.429 E0.1966
G1 X101.465 Y87.077 E0.24004
G1 X102.199 Y86.821 E0.27624
G1 X102.955 Y86.642 E0.31241
G1 X103.465 Y86.566 E0.33642
G1 X104.153 Y86.488 E0.36867
G1 X104.929 Y86.44 E0.40487
G1 X105.706 Y86.473 E0.44108
G1 X106.177 Y86.531 E0.46318
G1 X107.082 Y86.673 E0.50583
G1 X107.843 Y86.833 E0.54204
G1 X108.757 Y87.139 E0.58693
G1 X109.185 Y87.313 E0.60844
G1 X110.196 Y87.814 E0.66098
G1 X110.587 Y88.046 E0.68215
G1 X111.234 Y88.477 E0.71835
G1 X111.785 Y88.927 E0.75148
G1 X112.302 Y89.392 E0.78385
G1 X112.852 Y89.941 E0.82004
G1 X113.304 Y90.49 E0.85315
G1 X119.699 Y99.055 E1.35088
G1 X120.131 Y99.701 E1.38707
G1 X120.495 Y100.388 E1.42327
G1 X120.761 Y101.037 E1.45593
G1 X121.064 Y101.886 E1.4979
G1 X121.287 Y102.631 E1.53411
G1 X121.433 Y103.394 E1.57029
G1 X121.497 Y104.098 E1.6032
G1 X121.536 Y104.992 E1.64487
G1 X121.53 Y105.769 E1.68105
G1 X121.444 Y106.542 E1.71727
G1 X121.284 Y107.283 E1.75257
G1 X121.044 Y108.176 E1.79563
G1 X120.804 Y108.916 E1.83185
G1 X120.411 Y109.776 E1.87588
G1 X120.2 Y110.171 E1.89673
G1 X119.592 Y111.129 E1.94956
G1 X117.597 Y113.804 E2.10495
G1 X117.101 Y114.402 E2.14113
G1 X116.546 Y114.947 E2.17735
G1 X116.496 Y114.987 E2.18033
G1 X116.456 Y115.082 E2.18513
G1 X116.084 Y115.765 E2.22134
G1 X115.679 Y116.359 E2.25482
G1 X113.299 Y119.521 E2.4391
G1 X112.8 Y120.118 E2.47533
G1 X112.107 Y120.776 E2.51983
G1 X111.395 Y121.371 E2.56304
G1 X110.773 Y121.838 E2.59925
G1 X110.107 Y122.239 E2.63545
G1 X109.399 Y122.571 E2.67187
G1 X108.535 Y122.923 E2.71531
G1 X107.801 Y123.179 E2.75151
G1 X107.045 Y123.358 E2.78768
G1 X106.238 Y123.462 E2.82557
G1 X105.315 Y123.53 E2.86866
G1 X104.538 Y123.547 E2.90485
G1 X103.763 Y123.484 E2.94106
G1 X103.012 Y123.345 E2.97662
G1 X102.12 Y123.133 E3.01932
G1 X101.374 Y122.915 E3.05551
G1 X100.654 Y122.621 E3.09172
G1 X99.959 Y122.249 E3.12842
G1 X99.161 Y121.767 E3.17184
G1 X98.517 Y121.332 E3.20802
G1 X97.774 Y120.691 E3.25372
G1 X97.445 Y120.368 E3.27518
G1 X96.682 Y119.494 E3.32921
G1 X90.292 Y110.929 E3.82679
G1 X89.859 Y110.283 E3.86301
G1 X89.496 Y109.595 E3.89923
G1 X89.218 Y108.912 E3.93357
G1 X88.921 Y108.066 E3.97532
G1 X88.701 Y107.32 E4.01153
G1 X88.56 Y106.556 E4.04771
G1 X88.516 Y106.137 E4.06733
G1 X88.464 Y105.455 E4.09917
G1 X88.445 Y104.678 E4.13537
G1 X88.505 Y103.903 E4.17156
G1 X88.576 Y103.463 E4.19231
G1 X88.743 Y102.588 E4.23379
G1 X88.928 Y101.833 E4.26999
G1 X89.189 Y101.1 E4.30622
G1 X89.503 Y100.439 E4.34029
G1 X89.932 Y99.637 E4.38265
G1 X90.55 Y98.667 E4.4362
G1 X92.87 Y95.574 E4.61624
G1 X93.368 Y94.977 E4.65244
G1 X93.408 Y94.938 E4.65504
G1 X93.461 Y94.841 E4.66019
G1 X93.865 Y94.248 E4.6936
G1 X96.7 Y90.48 E4.91317
G1 X97.199 Y89.883 E4.9494
M204 S3000
M205 X10 Y10
G0 F3000 X97.628 Y90.244
M204 S1800
M205 X8 Y8
G1 F2400 X98.252 Y89.654 E4.98939
G1 X98.964 Y89.059 E5.03259
G1 X99.563 Y88.61 E5.06745
G1 X100.206 Y88.228 E5.10228
G1 X100.812 Y87.947 E5.13338
G1 X101.676 Y87.595 E5.17682
G1 X102.383 Y87.351 E5.21165
G1 X103.112 Y87.183 E5.24648
G1 X103.528 Y87.123 E5.26605
G1 X104.216 Y87.045 E5.2983
G1 X104.963 Y87 E5.33314
G1 X105.71 Y87.036 E5.36797
G1 X106.09 Y87.085 E5.38581
G1 X106.995 Y87.227 E5.42846
G1 X107.727 Y87.382 E5.4633
G1 X108.546 Y87.657 E5.50353
G1 X108.974 Y87.831 E5.52505
G1 X109.91 Y88.296 E5.57371
G1 X110.301 Y88.528 E5.59488
G1 X110.923 Y88.944 E5.62973
G1 X111.41 Y89.343 E5.65904
G1 X111.927 Y89.808 E5.69142
G1 X112.456 Y90.338 E5.72629
G1 X112.855 Y90.825 E5.7556
G1 X119.25 Y99.39 E6.25333
G1 X119.665 Y100.013 E6.28819
G1 X120.011 Y100.676 E6.32301
G1 X120.234 Y101.225 E6.3506
G1 X120.537 Y102.074 E6.39258
G1 X120.75 Y102.791 E6.42741
G1 X120.886 Y103.527 E6.46226
G1 X120.937 Y104.122 E6.49006
G1 X120.976 Y105.016 E6.53173
G1 X120.969 Y105.764 E6.56656
G1 X120.882 Y106.507 E6.6014
G1 X120.743 Y107.138 E6.63148
G1 X120.503 Y108.031 E6.67454
G1 X120.271 Y108.742 E6.70937
G1 X119.917 Y109.512 E6.74883
G1 X119.706 Y109.907 E6.76968
G1 X119.143 Y110.794 E6.8186
G1 X117.148 Y113.469 E6.97399
G1 X116.67 Y114.044 E7.0088
G1 X116.132 Y114.564 E7.04364
G1 X116.03 Y114.644 E7.04968
G1 X115.888 Y114.967 E7.06611
G1 X115.516 Y115.616 E7.10094
G1 X115.232 Y116.023 E7.12405
G1 X112.852 Y119.185 E7.30834
G1 X112.371 Y119.757 E7.34314
G1 X111.748 Y120.346 E7.38306
G1 X111.036 Y120.941 E7.42626
G1 X110.437 Y121.39 E7.46112
G1 X109.794 Y121.772 E7.49595
G1 X109.188 Y122.053 E7.52705
G1 X108.324 Y122.405 E7.57049
G1 X107.617 Y122.649 E7.60532
G1 X106.888 Y122.817 E7.64015
G1 X106.197 Y122.903 E7.67258
G1 X105.274 Y122.971 E7.71567
G1 X104.526 Y122.986 E7.75051
G1 X103.781 Y122.921 E7.78533
G1 X103.141 Y122.8 E7.81566
G1 X102.249 Y122.588 E7.85835
G1 X101.532 Y122.377 E7.89316
G1 X100.841 Y122.09 E7.928
G1 X100.249 Y121.77 E7.95933
G1 X99.451 Y121.288 E8.00274
G1 X98.832 Y120.867 E8.0376
G1 X98.166 Y120.291 E8.0786
G1 X97.837 Y119.968 E8.10007
G1 X97.13 Y119.159 E8.1501
G1 X90.74 Y110.594 E8.64769
G1 X90.326 Y109.971 E8.68252
G1 X89.98 Y109.308 E8.71734
G1 X89.746 Y108.727 E8.74651
G1 X89.449 Y107.881 E8.78826
G1 X89.239 Y107.163 E8.82309
G1 X89.074 Y106.094 E8.87346
G1 X89.022 Y105.412 E8.9053
G1 X89.005 Y104.664 E8.94014
G1 X89.126 Y103.568 E8.99149
G1 X89.293 Y102.693 E9.03297
G1 X89.472 Y101.966 E9.06783
G1 X89.728 Y101.263 E9.10267
G1 X89.997 Y100.703 E9.1316
G1 X90.426 Y99.901 E9.17395
G1 X90.998 Y99.003 E9.22352
G1 X93.318 Y95.91 E9.40356
G1 X93.798 Y95.336 E9.4384
G1 X93.871 Y95.266 E9.44311
G1 X94.029 Y94.99 E9.45792
G1 X94.312 Y94.584 E9.48096
G1 X97.147 Y90.816 E9.70053
G1 X97.628 Y90.244 E9.73533
M204 S3000
M205 X10 Y10
G0 F3000 X98.058 Y90.605
M204 S1800
M205 X8 Y8
G1 F2400 X98.611 Y90.083 E9.77074
G1 X99.323 Y89.488 E9.81395
G1 X99.899 Y89.06 E9.84736
G1 X100.518 Y88.698 E9.88076
G1 X101.023 Y88.466 E9.90663
G1 X101.887 Y88.114 E9.95008
G1 X102.566 Y87.881 E9.9835
G1 X103.592 Y87.679 E10.03219
G1 X104.28 Y87.601 E10.06444
G1 X104.996 Y87.56 E10.09783
G1 X106.003 Y87.638 E10.14486
G1 X106.908 Y87.78 E10.18752
G1 X107.61 Y87.93 E10.22094
G1 X108.335 Y88.176 E10.25659
G1 X108.763 Y88.35 E10.27811
G1 X109.624 Y88.778 E10.32288
G1 X110.015 Y89.01 E10.34405
G1 X110.611 Y89.409 E10.37744
G1 X111.036 Y89.76 E10.40311
G1 X111.553 Y90.225 E10.43549
G1 X112.059 Y90.734 E10.46891
G1 X112.406 Y91.16 E10.49449
G1 X118.801 Y99.725 E10.99222
G1 X119.198 Y100.323 E11.02564
G1 X119.525 Y100.961 E11.05903
G1 X119.706 Y101.413 E11.0817
G1 X120.009 Y102.262 E11.12367
G1 X120.212 Y102.95 E11.15707
G1 X120.338 Y103.657 E11.19051
G1 X120.378 Y104.146 E11.21336
G1 X120.417 Y105.04 E11.25503
G1 X120.408 Y105.758 E11.28846
G1 X120.32 Y106.47 E11.32187
G1 X120.202 Y106.992 E11.34679
G1 X119.962 Y107.885 E11.38985
G1 X119.738 Y108.567 E11.42327
G1 X119.423 Y109.248 E11.45821
G1 X119.212 Y109.643 E11.47906
G1 X118.694 Y110.459 E11.52407
G1 X116.699 Y113.134 E11.67945
G1 X116.239 Y113.684 E11.71284
G1 X115.72 Y114.18 E11.74627
G1 X115.58 Y114.287 E11.75447
G1 X115.321 Y114.845 E11.78312
G1 X114.784 Y115.686 E11.82958
G1 X112.404 Y118.848 E12.01386
G1 X111.942 Y119.396 E12.04724
G1 X111.389 Y119.917 E12.08262
G1 X110.677 Y120.512 E12.12582
G1 X110.101 Y120.94 E12.15924
G1 X109.482 Y121.302 E12.19263
G1 X108.977 Y121.534 E12.21851
G1 X108.113 Y121.886 E12.26195
G1 X107.434 Y122.119 E12.29538
G1 X106.734 Y122.276 E12.32878
G1 X106.156 Y122.345 E12.35589
G1 X105.233 Y122.413 E12.39898
G1 X104.516 Y122.425 E12.43237
G1 X103.801 Y122.358 E12.46581
G1 X103.271 Y122.255 E12.49095
G1 X102.379 Y122.043 E12.53364
G1 X101.691 Y121.839 E12.56706
G1 X101.03 Y121.559 E12.60049
G1 X100.538 Y121.29 E12.6266
G1 X99.74 Y120.808 E12.67001
G1 X99.148 Y120.404 E12.70338
G1 X98.558 Y119.891 E12.73979
G1 X98.229 Y119.568 E12.76125
G1 X97.579 Y118.824 E12.80726
G1 X91.189 Y110.259 E13.30484
G1 X90.793 Y109.661 E13.33824
G1 X90.466 Y109.022 E13.37167
G1 X90.275 Y108.541 E13.39576
G1 X89.978 Y107.695 E13.43751
G1 X89.778 Y107.006 E13.47092
G1 X89.633 Y106.052 E13.51585
G1 X89.581 Y105.37 E13.5477
G1 X89.566 Y104.652 E13.58114
G1 X89.676 Y103.673 E13.62702
G1 X89.843 Y102.798 E13.6685
G1 X90.017 Y102.101 E13.70195
G1 X90.267 Y101.429 E13.73533
G1 X90.49 Y100.967 E13.75922
G1 X90.919 Y100.165 E13.80157
G1 X91.446 Y99.339 E13.8472
G1 X93.766 Y96.246 E14.02723
G1 X94.228 Y95.697 E14.06064
G1 X94.322 Y95.608 E14.06667
G1 X94.76 Y94.921 E14.10461
G1 X97.595 Y91.153 E14.32418
G1 X98.058 Y90.605 E14.35758
M204 S3000
M205 X10 Y10
G0 F3000 X98.486 Y90.967
M204 S1800
M205 X8 Y8
G1 F2400 X98.97 Y90.513 E14.38848
G1 X99.682 Y89.918 E14.43169
G1 X100.233 Y89.51 E14.46361
G1 X100.828 Y89.169 E14.49555
G1 X101.234 Y88.985 E14.5163
G1 X102.098 Y88.633 E14.55975
G1 X102.747 Y88.411 E14.59168
G1 X103.655 Y88.235 E14.63475
G1 X104.343 Y88.157 E14.66699
G1 X105.027 Y88.12 E14.69889
G1 X105.916 Y88.191 E14.74042
G1 X106.821 Y88.333 E14.78307
G1 X107.491 Y88.479 E14.815
G1 X108.124 Y88.695 E14.84615
G1 X108.552 Y88.869 E14.86766
G1 X109.338 Y89.259 E14.90852
G1 X109.729 Y89.491 E14.92969
G1 X110.298 Y89.875 E14.96165
G1 X110.661 Y90.176 E14.98361
G1 X111.178 Y90.641 E15.01599
G1 X111.66 Y91.129 E15.04793
G1 X111.958 Y91.495 E15.0699
G1 X118.353 Y100.06 E15.56763
G1 X118.73 Y100.632 E15.59953
G1 X119.038 Y101.245 E15.63147
G1 X119.179 Y101.602 E15.64935
G1 X119.482 Y102.451 E15.69132
G1 X119.674 Y103.109 E15.72324
G1 X119.789 Y103.785 E15.75517
G1 X119.818 Y104.171 E15.77319
G1 X119.857 Y105.065 E15.81486
G1 X119.847 Y105.75 E15.84676
G1 X119.757 Y106.43 E15.8787
G1 X119.661 Y106.847 E15.89863
G1 X119.421 Y107.74 E15.94168
G1 X119.205 Y108.391 E15.97362
G1 X118.929 Y108.984 E16.00408
G1 X118.718 Y109.379 E16.02493
G1 X118.245 Y110.124 E16.06602
G1 X116.25 Y112.799 E16.22141
G1 X115.809 Y113.324 E16.25333
G1 X115.31 Y113.794 E16.28525
G1 X115.113 Y113.94 E16.29667
G1 X115.056 Y114.1 E16.30458
G1 X114.753 Y114.715 E16.3365
G1 X114.337 Y115.349 E16.37181
G1 X111.957 Y118.511 E16.5561
G1 X111.513 Y119.034 E16.58804
G1 X111.03 Y119.487 E16.61888
G1 X110.318 Y120.082 E16.66208
G1 X109.767 Y120.49 E16.69401
G1 X109.172 Y120.831 E16.72594
G1 X108.766 Y121.015 E16.7467
G1 X107.902 Y121.367 E16.79014
G1 X107.253 Y121.589 E16.82208
G1 X106.582 Y121.733 E16.85403
G1 X106.115 Y121.786 E16.87592
G1 X105.192 Y121.854 E16.91901
G1 X104.507 Y121.865 E16.95091
G1 X103.824 Y121.795 E16.98288
G1 X103.4 Y121.711 E17.00301
G1 X102.508 Y121.499 E17.0457
G1 X101.852 Y121.302 E17.0776
G1 X101.223 Y121.029 E17.10953
G1 X100.828 Y120.811 E17.13053
G1 X100.03 Y120.329 E17.17394
G1 X99.465 Y119.941 E17.20586
G1 X98.951 Y119.492 E17.23764
G1 X98.622 Y119.169 E17.25911
G1 X98.028 Y118.489 E17.30115
G1 X91.638 Y109.924 E17.79874
G1 X91.261 Y109.352 E17.83064
G1 X90.953 Y108.739 E17.86258
G1 X90.803 Y108.356 E17.88173
G1 X90.506 Y107.51 E17.92348
G1 X90.317 Y106.851 E17.95541
G1 X90.191 Y106.009 E17.99505
G1 X90.139 Y105.327 E18.0269
G1 X90.127 Y104.642 E18.0588
G1 X90.226 Y103.778 E18.0993
G1 X90.393 Y102.903 E18.14078
G1 X90.561 Y102.238 E18.17271
G1 X90.805 Y101.597 E18.20465
G1 X90.984 Y101.232 E18.22358
G1 X91.413 Y100.43 E18.26593
G1 X91.894 Y99.675 E18.30762
G1 X94.214 Y96.582 E18.48765
G1 X94.657 Y96.058 E18.5196
G1 X94.755 Y95.966 E18.52586
G1 X94.792 Y95.891 E18.52976
G1 X95.207 Y95.258 E18.565
G1 X98.042 Y91.49 E18.78457
G1 X98.486 Y90.967 E18.81651
M204 S3000
M205 X10 Y10
G0 F3000 X98.913 Y91.33
M204 S1800
M205 X8 Y8
G1 F2400 X99.33 Y90.943 E18.84301
G1 X100.042 Y90.348 E18.88621
G1 X100.567 Y89.961 E18.91658
G1 X101.135 Y89.642 E18.94692
G1 X101.446 Y89.503 E18.96278
G1 X102.31 Y89.151 E19.00622
G1 X102.928 Y88.943 E19.03658
G1 X103.718 Y88.792 E19.07403
G1 X104.406 Y88.714 E19.10628
G1 X105.057 Y88.68 E19.13663
G1 X105.83 Y88.744 E19.17275
G1 X106.735 Y88.886 E19.2154
G1 X107.371 Y89.027 E19.24574
G1 X107.914 Y89.214 E19.27248
G1 X108.342 Y89.388 E19.29399
G1 X109.053 Y89.741 E19.33096
G1 X109.444 Y89.973 E19.35213
G1 X109.983 Y90.339 E19.38246
G1 X110.287 Y90.593 E19.40091
G1 X110.804 Y91.058 E19.43329
G1 X111.261 Y91.522 E19.46361
G1 X111.509 Y91.83 E19.48203
G1 X117.904 Y100.395 E19.97975
G1 X118.261 Y100.941 E20.01013
G1 X118.651 Y101.79 E20.05363
G1 X118.954 Y102.639 E20.09561
G1 X119.136 Y103.265 E20.12597
G1 X119.259 Y104.195 E20.16965
G1 X119.298 Y105.089 E20.21132
G1 X119.286 Y105.741 E20.24168
G1 X119.121 Y106.702 E20.28708
G1 X118.881 Y107.595 E20.33014
G1 X118.673 Y108.213 E20.3605
G1 X118.435 Y108.721 E20.38663
G1 X118.224 Y109.116 E20.40748
G1 X117.797 Y109.79 E20.44463
G1 X115.802 Y112.465 E20.60002
G1 X115.38 Y112.962 E20.63038
G1 X114.902 Y113.405 E20.66072
G1 X114.644 Y113.591 E20.67553
G1 X114.489 Y113.999 E20.69585
G1 X114.185 Y114.576 E20.72622
G1 X113.89 Y115.012 E20.75074
G1 X111.51 Y118.174 E20.93502
G1 X111.086 Y118.67 E20.9654
G1 X110.67 Y119.057 E20.99186
G1 X109.958 Y119.652 E21.03507
G1 X109.433 Y120.039 E21.06544
G1 X108.865 Y120.358 E21.09577
G1 X108.554 Y120.497 E21.11163
G1 X107.69 Y120.849 E21.15507
G1 X107.072 Y121.057 E21.18544
G1 X106.434 Y121.189 E21.21577
G1 X106.074 Y121.228 E21.23264
G1 X105.151 Y121.296 E21.27573
G1 X104.499 Y121.304 E21.30609
G1 X103.851 Y121.232 E21.33645
G1 X103.53 Y121.166 E21.35171
G1 X102.638 Y120.954 E21.3944
G1 X102.014 Y120.764 E21.42478
G1 X101.418 Y120.5 E21.45513
G1 X101.117 Y120.332 E21.47118
G1 X100.319 Y119.85 E21.51459
G1 X99.783 Y119.479 E21.54495
G1 X99.343 Y119.092 E21.57223
G1 X99.014 Y118.769 E21.5937
G1 X98.477 Y118.154 E21.63172
G1 X92.087 Y109.589 E22.1293
G1 X91.73 Y109.044 E22.15964
G1 X91.331 Y108.17 E22.20438
G1 X91.034 Y107.324 E22.24613
G1 X90.856 Y106.697 E22.27648
G1 X90.749 Y105.966 E22.31088
G1 X90.697 Y105.284 E22.34273
G1 X90.688 Y104.632 E22.37309
G1 X90.776 Y103.883 E22.40821
G1 X90.943 Y103.008 E22.44969
G1 X91.105 Y102.376 E22.48007
G1 X91.478 Y101.496 E22.52457
G1 X91.907 Y100.694 E22.56692
G1 X92.342 Y100.011 E22.60463
G1 X94.662 Y96.918 E22.78467
G1 X95.085 Y96.421 E22.81505
G1 X95.219 Y96.298 E22.82352
G1 X95.36 Y96.03 E22.83763
G1 X95.655 Y95.595 E22.8621
G1 X98.49 Y91.827 E23.08167
G1 X98.913 Y91.33 E23.11206
M204 S3000
M205 X10 Y10
G0 F3000 X99.339 Y91.695
M204 S1800
M205 X8 Y8
G1 F2400 X99.689 Y91.372 E23.13424
G1 X100.401 Y90.777 E23.17744
G1 X100.899 Y90.413 E23.20616
G1 X101.657 Y90.022 E23.24588
G1 X102.521 Y89.67 E23.28932
G1 X103.106 Y89.475 E23.31803
G1 X103.781 Y89.348 E23.35002
G1 X104.469 Y89.27 E23.38226
G1 X105.085 Y89.241 E23.41097
G1 X105.743 Y89.298 E23.44173
G1 X106.648 Y89.44 E23.48438
G1 X107.25 Y89.574 E23.5131
G1 X107.703 Y89.732 E23.53544
G1 X108.131 Y89.906 E23.55695
G1 X108.767 Y90.222 E23.59002
G1 X109.158 Y90.454 E23.61119
G1 X109.667 Y90.803 E23.63993
G1 X109.912 Y91.009 E23.65484
G1 X110.429 Y91.474 E23.68721
G1 X110.86 Y91.915 E23.71593
G1 X111.06 Y92.165 E23.73084
G1 X117.455 Y100.73 E24.22856
G1 X117.791 Y101.247 E24.25727
G1 X118.124 Y101.978 E24.29468
G1 X118.427 Y102.827 E24.33665
G1 X118.596 Y103.42 E24.36536
G1 X118.699 Y104.22 E24.40292
G1 X118.738 Y105.114 E24.44459
G1 X118.725 Y105.73 E24.47328
G1 X118.58 Y106.556 E24.51233
G1 X118.34 Y107.449 E24.55539
G1 X118.142 Y108.033 E24.5841
G1 X117.942 Y108.457 E24.60593
G1 X117.731 Y108.852 E24.62678
G1 X117.348 Y109.455 E24.66005
G1 X115.353 Y112.13 E24.81543
G1 X114.953 Y112.599 E24.84414
G1 X114.495 Y113.013 E24.87288
G1 X114.177 Y113.233 E24.89089
G1 X114.155 Y113.318 E24.89498
