;FLAVOR:Marlin
;TIME:4369
;Filament used: 2.42029m
;Layer height: 0.1
;Generated with Cura_SteamEngine master
M140 S70
M105
M190 S70
M104 S200
M105
M109 S200
M82 ;absolute extrusion mode
G21 ;metric values
G90 ;absolute positioning
M82 ;set extruder to absolute mode
M107 ;start with the fan off
G28 X0 Y0 ;move X/Y to min endstops
G28 Z0 ;move Z to min endstops
G1 Z15.0 F100 ;move the platform down 15mm
G92 E0 ;zero the extruded length
G1 F200 E3 ;extrude 3mm of feed stock
G92 E0 ;zero the extruded length again
G1 F100
M117 Printing...
G5
G92 E0
G1 F2400 E-6
;LAYER_COUNT:215
;LAYER:0
M106 S255
M204 S3000
M205 X10 Y10
G0 F3000 X100.194 Y77.816 Z0.2
M204 S1800
M205 X8 Y8
;TYPE:SKIRT
G1 F2400 E0
G1 X100.702 Y77.227 E0.03622
G1 X101.267 Y76.693 E0.07242
G1 X101.855 Y76.24 E0.10698
G1 X101.999 Y76.14 E0.11514
G1 X102.659 Y75.73 E0.15132
G1 X103.358 Y75.39 E0.18752
G1 X104.089 Y75.124 E0.22374
G1 X104.843 Y74.934 E0.25995
G1 X105.612 Y74.822 E0.29613
G1 X106.31 Y74.79 E0.32867
G1 X112.835 Y74.789 E0.6325
G1 X113.611 Y74.829 E0.66868
G1 X114.379 Y74.948 E0.70487
G1 X115.131 Y75.146 E0.74108
G1 X115.859 Y75.42 E0.7773
G1 X116.555 Y75.767 E0.81351
G1 X117.211 Y76.183 E0.84968
G1 X117.821 Y76.665 E0.88588
G1 X118.182 Y77.003 E0.90891
G1 X118.346 Y77.167 E0.91971
G1 X118.866 Y77.745 E0.95591
G1 X119.325 Y78.372 E0.9921
G1 X119.717 Y79.044 E1.02832
G1 X120.038 Y79.752 E1.06452
G1 X120.284 Y80.489 E1.1007
G1 X120.453 Y81.248 E1.13691
G1 X120.544 Y82.02 E1.1731
G1 X120.56 Y82.513 E1.19607
G1 X120.56 Y116.448 E2.77623
G1 X120.52 Y117.224 E2.81241
G1 X120.401 Y117.993 E2.84864
G1 X120.203 Y118.744 E2.88481
G1 X119.929 Y119.472 E2.92103
G1 X119.582 Y120.168 E2.95724
G1 X119.304 Y120.621 E2.98199
G1 X119.21 Y120.763 E2.98992
G1 X118.748 Y121.388 E3.02611
G1 X118.224 Y121.963 E3.06234
G1 X117.644 Y122.481 E3.09855
G1 X117.014 Y122.936 E3.13473
G1 X116.341 Y123.325 E3.17093
G1 X115.855 Y123.551 E3.19589
G1 X111.072 Y125.577 E3.43776
G1 X111.06 Y129.57 E3.62369
G1 X111.011 Y130.406 E3.66268
G1 X110.933 Y131.087 E3.6946
G1 X110.805 Y131.854 E3.73081
G1 X110.554 Y132.736 E3.77351
G1 X110.332 Y133.367 E3.80466
G1 X110.036 Y134.086 E3.84086
G1 X109.596 Y134.889 E3.8835
G1 X109.238 Y135.457 E3.91476
G1 X108.79 Y136.093 E3.95099
G1 X108.165 Y136.794 E3.99472
G1 X107.686 Y137.269 E4.02613
G1 X107.107 Y137.787 E4.06231
G1 X106.357 Y138.32 E4.10515
G1 X105.788 Y138.674 E4.13635
G1 X105.107 Y139.05 E4.17258
G1 X104.293 Y139.39 E4.21365
G1 X103.662 Y139.611 E4.24479
G1 X102.916 Y139.83 E4.28099
G1 X101.997 Y139.99 E4.32443
G1 X101.33 Y140.064 E4.35567
G1 X100.308 Y140.108 E4.40331
G1 X99.465 Y140.087 E4.44257
G1 X98.69 Y140.027 E4.47877
G1 X97.98 Y139.902 E4.51234
G1 X97.332 Y139.755 E4.54328
G1 X96.584 Y139.544 E4.57947
G1 X95.682 Y139.173 E4.62488
G1 X95.073 Y138.875 E4.65645
G1 X94.393 Y138.497 E4.69268
G1 X93.662 Y137.979 E4.7344
G1 X93.139 Y137.559 E4.76563
G1 X92.559 Y137.041 E4.80184
G1 X92.035 Y136.467 E4.83803
G1 X91.694 Y136.02 E4.86421
G1 X91.116 Y135.2 E4.91092
G1 X90.701 Y134.542 E4.94715
G1 X90.356 Y133.845 E4.98336
G1 X90.028 Y132.927 E5.02875
G1 X89.752 Y131.964 E5.0754
G1 X89.576 Y131.207 E5.11159
G1 X89.479 Y130.435 E5.14782
G1 X89.459 Y129.884 E5.17349
G1 X89.449 Y107.445 E6.21835
G1 X89.489 Y106.669 E6.25453
G1 X89.608 Y105.901 E6.29072
G1 X89.911 Y104.841 E6.34205
G1 X99.069 Y79.849 E7.58146
G1 X99.373 Y79.134 E7.61763
G1 X99.75 Y78.453 E7.65388
G1 X100.194 Y77.816 E7.69003
M204 S3000
M205 X10 Y10
G0 F3000 X100.689 Y78.092
M204 S1800
M205 X8 Y8
G1 F2400 X101.185 Y77.532 E7.72487
G1 X101.738 Y77.029 E7.75968
G1 X102.174 Y76.7 E7.78511
G1 X102.318 Y76.6 E7.79327
G1 X102.955 Y76.207 E7.82813
G1 X103.629 Y75.884 E7.86293
G1 X104.335 Y75.635 E7.89779
G1 X105.062 Y75.462 E7.93258
G1 X105.805 Y75.368 E7.96746
G1 X106.31 Y75.35 E7.99099
G1 X112.835 Y75.349 E8.29482
G1 X113.582 Y75.389 E8.32965
G1 X114.32 Y75.508 E8.36446
G1 X115.042 Y75.706 E8.39932
G1 X115.738 Y75.979 E8.43413
G1 X116.401 Y76.325 E8.46896
G1 X117.024 Y76.74 E8.50381
G1 X117.786 Y77.399 E8.55072
G1 X117.95 Y77.563 E8.56152
G1 X118.45 Y78.12 E8.59638
G1 X118.887 Y78.726 E8.63117
G1 X119.258 Y79.376 E8.66602
G1 X119.557 Y80.062 E8.70086
G1 X119.781 Y80.776 E8.73571
G1 X119.928 Y81.509 E8.77052
G1 X120 Y82.513 E8.81739
G1 X120 Y116.448 E10.39754
G1 X119.96 Y117.195 E10.43238
G1 X119.841 Y117.933 E10.46718
G1 X119.643 Y118.655 E10.50205
G1 X119.37 Y119.351 E10.53686
G1 X118.837 Y120.312 E10.58803
G1 X118.743 Y120.454 E10.59596
G1 X118.297 Y121.055 E10.63081
G1 X117.79 Y121.605 E10.66564
G1 X117.227 Y122.097 E10.70045
G1 X116.615 Y122.527 E10.73528
G1 X115.636 Y123.036 E10.78666
G1 X110.514 Y125.206 E11.04568
G1 X110.5 Y129.568 E11.2488
G1 X110.455 Y130.343 E11.28495
G1 X110.377 Y131.024 E11.31686
G1 X110.252 Y131.761 E11.35167
G1 X110.025 Y132.55 E11.3899
G1 X109.803 Y133.181 E11.42105
G1 X109.518 Y133.873 E11.4559
G1 X109.122 Y134.59 E11.49404
G1 X108.764 Y135.158 E11.5253
G1 X108.332 Y135.769 E11.56014
G1 X107.771 Y136.396 E11.59932
G1 X107.292 Y136.871 E11.63073
G1 X106.733 Y137.369 E11.66559
G1 X106.061 Y137.845 E11.70394
G1 X105.492 Y138.199 E11.73514
G1 X104.836 Y138.559 E11.76999
G1 X104.108 Y138.862 E11.8067
G1 X103.477 Y139.083 E11.83784
G1 X102.759 Y139.292 E11.87266
G1 X101.935 Y139.433 E11.91158
G1 X101.268 Y139.507 E11.94283
G1 X100.322 Y139.548 E11.98692
G1 X99.479 Y139.527 E12.02619
G1 X98.733 Y139.468 E12.06103
G1 X98.104 Y139.356 E12.09078
G1 X97.456 Y139.209 E12.12172
G1 X96.737 Y139.004 E12.15654
G1 X95.928 Y138.67 E12.19729
G1 X95.319 Y138.372 E12.22886
G1 X94.666 Y138.007 E12.2637
G1 X94.013 Y137.542 E12.30103
G1 X93.49 Y137.122 E12.33226
G1 X92.933 Y136.623 E12.36708
G1 X92.432 Y136.068 E12.4019
G1 X92.152 Y135.697 E12.42354
G1 X91.574 Y134.877 E12.47025
G1 X91.176 Y134.243 E12.50511
G1 X90.848 Y133.571 E12.53993
G1 X90.566 Y132.773 E12.57934
G1 X90.29 Y131.81 E12.62599
G1 X90.123 Y131.08 E12.66086
G1 X90.034 Y130.338 E12.69566
G1 X90.019 Y129.884 E12.71681
G1 X90.009 Y107.445 E13.76166
G1 X90.049 Y106.698 E13.79649
G1 X90.168 Y105.96 E13.8313
G1 X90.436 Y105.034 E13.87619
G1 X99.594 Y80.042 E15.11559
G1 X99.889 Y79.354 E15.15045
G1 X100.255 Y78.702 E15.18527
G1 X100.689 Y78.092 E15.22013
M204 S3000
M205 X10 Y10
G0 F3000 X101.182 Y78.372
M204 S1800
M205 X8 Y8
G1 F2400 X101.667 Y77.843 E15.25354
G1 X102.494 Y77.16 E15.30349
G1 X102.638 Y77.06 E15.31165
G1 X103.249 Y76.685 E15.34503
G1 X103.898 Y76.379 E15.37844
G1 X104.577 Y76.148 E15.41184
G1 X105.278 Y75.993 E15.44527
G1 X106.31 Y75.91 E15.49348
G1 X112.835 Y75.909 E15.79731
G1 X113.551 Y75.949 E15.8307
G1 X114.259 Y76.068 E15.86413
G1 X114.949 Y76.265 E15.89755
G1 X115.612 Y76.538 E15.93093
G1 X116.242 Y76.883 E15.96438
G1 X116.828 Y77.296 E15.99776
G1 X117.39 Y77.795 E16.03276
G1 X117.554 Y77.959 E16.04356
G1 X118.032 Y78.494 E16.07696
G1 X118.448 Y79.079 E16.11039
G1 X118.796 Y79.706 E16.14378
G1 X119.072 Y80.368 E16.17718
G1 X119.273 Y81.057 E16.2106
G1 X119.396 Y81.764 E16.24401
G1 X119.44 Y82.513 E16.27895
G1 X119.44 Y116.448 E17.85911
G1 X119.4 Y117.164 E17.8925
G1 X119.281 Y117.872 E17.92593
G1 X119.083 Y118.562 E17.95935
G1 X118.81 Y119.225 E17.99274
G1 X118.37 Y120.003 E18.03436
G1 X118.276 Y120.145 E18.04229
G1 X117.847 Y120.72 E18.07569
G1 X117.357 Y121.244 E18.1091
G1 X116.812 Y121.71 E18.14249
G1 X116.218 Y122.113 E18.17591
G1 X115.418 Y122.52 E18.21771
G1 X109.955 Y124.834 E18.49397
G1 X109.94 Y129.566 E18.71431
G1 X109.898 Y130.279 E18.74757
G1 X109.82 Y130.96 E18.77949
G1 X109.699 Y131.667 E18.81289
G1 X109.497 Y132.364 E18.84668
G1 X109.275 Y132.995 E18.87782
G1 X109 Y133.658 E18.91125
G1 X108.648 Y134.292 E18.94501
G1 X108.29 Y134.86 E18.97628
G1 X107.874 Y135.445 E19.0097
G1 X107.377 Y135.999 E19.04436
G1 X106.898 Y136.474 E19.07577
G1 X106.361 Y136.95 E19.10918
G1 X105.765 Y137.369 E19.14311
G1 X105.196 Y137.723 E19.17431
G1 X104.567 Y138.068 E19.20772
G1 X103.923 Y138.333 E19.24014
G1 X103.292 Y138.554 E19.27128
G1 X102.602 Y138.753 E19.30471
G1 X101.873 Y138.877 E19.33915
G1 X101.206 Y138.951 E19.3704
G1 X100.336 Y138.988 E19.41094
G1 X99.493 Y138.967 E19.45021
G1 X98.777 Y138.909 E19.48366
G1 X98.228 Y138.809 E19.50964
G1 X97.58 Y138.662 E19.54058
G1 X96.89 Y138.465 E19.574
G1 X96.174 Y138.167 E19.61011
G1 X95.565 Y137.869 E19.64168
G1 X94.94 Y137.518 E19.67506
G1 X94.364 Y137.105 E19.70806
G1 X93.841 Y136.685 E19.73929
G1 X93.307 Y136.206 E19.7727
G1 X92.83 Y135.669 E19.80614
G1 X92.609 Y135.374 E19.82331
G1 X92.031 Y134.554 E19.87002
G1 X91.651 Y133.946 E19.90341
G1 X91.341 Y133.299 E19.93681
G1 X91.104 Y132.618 E19.97039
G1 X90.828 Y131.655 E20.01704
G1 X90.669 Y130.956 E20.05041
G1 X90.589 Y130.243 E20.08382
G1 X90.579 Y129.884 E20.10055
G1 X90.569 Y107.445 E21.1454
G1 X90.609 Y106.728 E21.17884
G1 X90.728 Y106.021 E21.21222
G1 X90.962 Y105.226 E21.25081
G1 X100.12 Y80.234 E22.49021
G1 X100.404 Y79.575 E22.52363
G1 X100.76 Y78.952 E22.55704
G1 X101.182 Y78.372 E22.59044
M204 S3000
M205 X10 Y10
G0 F3000 X101.674 Y78.657
M204 S1800
M205 X8 Y8
G1 F2400 X102.146 Y78.159 E22.62239
G1 X102.813 Y77.62 E22.66232
G1 X102.957 Y77.52 E22.67048
G1 X103.542 Y77.163 E22.7024
G1 X104.165 Y76.876 E22.73434
G1 X104.816 Y76.663 E22.76623
G1 X105.488 Y76.528 E22.79815
G1 X106.31 Y76.47 E22.83652
G1 X112.835 Y76.469 E23.14035
G1 X113.52 Y76.509 E23.1723
G1 X114.195 Y76.628 E23.20422
G1 X114.851 Y76.825 E23.23611
G1 X115.481 Y77.097 E23.26806
G1 X116.074 Y77.441 E23.29998
G1 X116.623 Y77.851 E23.33189
G1 X116.994 Y78.191 E23.35532
G1 X117.158 Y78.355 E23.36612
G1 X117.613 Y78.867 E23.39802
G1 X118.006 Y79.429 E23.42995
G1 X118.331 Y80.033 E23.46189
G1 X118.584 Y80.67 E23.4938
G1 X118.76 Y81.333 E23.52574
G1 X118.859 Y82.011 E23.55765
G1 X118.88 Y82.513 E23.58104
G1 X118.88 Y116.448 E25.1612
G1 X118.84 Y117.132 E25.1931
G1 X118.721 Y117.807 E25.22502
G1 X118.524 Y118.464 E25.25696
G1 X118.251 Y119.093 E25.28889
G1 X117.903 Y119.694 E25.32123
G1 X117.809 Y119.836 E25.32915
G1 X117.398 Y120.384 E25.36105
G1 X116.926 Y120.881 E25.39297
G1 X116.399 Y121.32 E25.42491
G1 X115.825 Y121.694 E25.45681
G1 X115.199 Y122.004 E25.48933
G1 X109.396 Y124.462 E25.78279
G1 X109.38 Y129.564 E26.02036
G1 X109.342 Y130.215 E26.05072
G1 X109.264 Y130.896 E26.08264
G1 X109.146 Y131.572 E26.11459
G1 X108.969 Y132.178 E26.14399
G1 X108.747 Y132.809 E26.17514
G1 X108.482 Y133.442 E26.20709
G1 X108.174 Y133.993 E26.23648
G1 X107.816 Y134.561 E26.26775
G1 X107.418 Y135.119 E26.29966
G1 X106.982 Y135.601 E26.32993
G1 X106.503 Y136.076 E26.36134
G1 X105.989 Y136.53 E26.39327
G1 X105.469 Y136.894 E26.42283
G1 X104.9 Y137.248 E26.45403
G1 X104.298 Y137.575 E26.48593
G1 X103.738 Y137.804 E26.5141
G1 X103.107 Y138.025 E26.54524
G1 X102.447 Y138.214 E26.5772
G1 X101.811 Y138.32 E26.60723
G1 X101.144 Y138.394 E26.63848
G1 X100.35 Y138.428 E26.67548
G1 X99.507 Y138.407 E26.71475
G1 X98.823 Y138.35 E26.74671
G1 X98.352 Y138.263 E26.76901
G1 X97.704 Y138.116 E26.79995
G1 X97.046 Y137.926 E26.83184
G1 X96.421 Y137.664 E26.8634
G1 X95.812 Y137.366 E26.89497
G1 X95.214 Y137.029 E26.92693
G1 X94.714 Y136.669 E26.95562
G1 X94.191 Y136.249 E26.98685
G1 X93.683 Y135.789 E27.01877
G1 X93.067 Y135.052 E27.06349
G1 X92.489 Y134.232 E27.11021
G1 X92.127 Y133.649 E27.14216
G1 X91.836 Y133.029 E27.17405
G1 X91.643 Y132.464 E27.20185
G1 X91.367 Y131.501 E27.2485
G1 X91.216 Y130.832 E27.28044
G1 X91.139 Y129.884 E27.32472
G1 X91.129 Y107.445 E28.36958
G1 X91.169 Y106.76 E28.40153
G1 X91.288 Y106.085 E28.43344
G1 X91.488 Y105.419 E28.46582
G1 X100.646 Y80.427 E29.70523
G1 X100.919 Y79.798 E29.73716
G1 X101.263 Y79.205 E29.76908
G1 X101.674 Y78.657 E29.80097
M204 S3000
M205 X10 Y10
G0 F3000 X102.165 Y78.945
M204 S1800
M205 X8 Y8
G1 F2400 X102.623 Y78.482 E29.8313
G1 X103.132 Y78.08 E29.8615
G1 X103.276 Y77.98 E29.86967
G1 X103.834 Y77.642 E29.90004
G1 X104.428 Y77.374 E29.93039
G1 X105.051 Y77.181 E29.96076
G1 X105.693 Y77.066 E29.99113
G1 X106.31 Y77.03 E30.01991
G1 X112.835 Y77.029 E30.32374
G1 X113.486 Y77.069 E30.35411
G1 X114.127 Y77.188 E30.38447
G1 X114.749 Y77.385 E30.41485
G1 X115.342 Y77.656 E30.44521
G1 X115.897 Y77.998 E30.47556
G1 X116.598 Y78.587 E30.5182
G1 X116.762 Y78.751 E30.52899
G1 X117.194 Y79.24 E30.55938
G1 X117.563 Y79.777 E30.58972
G1 X117.863 Y80.356 E30.62008
G1 X118.09 Y80.967 E30.65043
G1 X118.241 Y81.602 E30.68083
G1 X118.32 Y82.513 E30.7234
G1 X118.32 Y116.448 E32.30356
G1 X118.28 Y117.099 E32.33393
G1 X118.161 Y117.74 E32.36429
G1 X117.964 Y118.362 E32.39467
G1 X117.693 Y118.954 E32.42499
G1 X117.436 Y119.385 E32.44835
G1 X117.342 Y119.527 E32.45628
G1 X116.95 Y120.047 E32.4866
G1 X116.496 Y120.516 E32.517
G1 X115.989 Y120.926 E32.54736
G1 X115.435 Y121.27 E32.57773
G1 X114.981 Y121.489 E32.6012
G1 X108.837 Y124.092 E32.9119
G1 X108.82 Y129.563 E33.16666
G1 X108.785 Y130.151 E33.19409
G1 X108.707 Y130.832 E33.226
G1 X108.594 Y131.474 E33.25636
G1 X108.44 Y131.993 E33.28157
G1 X108.218 Y132.624 E33.31271
G1 X107.965 Y133.224 E33.34303
G1 X107.701 Y133.695 E33.36818
G1 X107.343 Y134.263 E33.39944
G1 X106.962 Y134.792 E33.4298
G1 X106.588 Y135.204 E33.45571
G1 X106.109 Y135.679 E33.48712
G1 X105.619 Y136.108 E33.51744
G1 X105.173 Y136.418 E33.54273
G1 X104.604 Y136.772 E33.57394
G1 X104.031 Y137.082 E33.60427
G1 X103.553 Y137.276 E33.62829
G1 X102.922 Y137.497 E33.65943
G1 X102.294 Y137.674 E33.68981
G1 X101.75 Y137.764 E33.71548
G1 X101.083 Y137.838 E33.74673
G1 X100.364 Y137.868 E33.78024
G1 X99.521 Y137.847 E33.81951
G1 X98.871 Y137.791 E33.84989
G1 X98.476 Y137.717 E33.8686
G1 X97.828 Y137.57 E33.89954
G1 X97.202 Y137.387 E33.92991
G1 X96.667 Y137.161 E33.95695
G1 X96.058 Y136.863 E33.98852
G1 X95.491 Y136.541 E34.01888
G1 X95.065 Y136.232 E34.04339
G1 X94.542 Y135.812 E34.07462
G1 X94.059 Y135.373 E34.10502
G1 X93.525 Y134.729 E34.14397
G1 X92.947 Y133.909 E34.19069
G1 X92.604 Y133.354 E34.22107
G1 X92.333 Y132.761 E34.25143
G1 X92.181 Y132.31 E34.27359
G1 X91.905 Y131.347 E34.32023
G1 X91.764 Y130.71 E34.35061
G1 X91.699 Y129.883 E34.38924
G1 X91.689 Y107.444 E35.43409
G1 X91.729 Y106.794 E35.46442
G1 X91.848 Y106.152 E35.49482
G1 X92.014 Y105.612 E35.52113
G1 X101.172 Y80.62 E36.76053
G1 X101.433 Y80.022 E36.79091
G1 X101.766 Y79.461 E36.82129
G1 X102.165 Y78.945 E36.85166
M204 S3000
M205 X10 Y10
G0 F3000 X102.267 Y79.721
M204 S1800
M205 X8 Y8
G1 F2400 X102.653 Y79.24 E36.88038
G1 X103.097 Y78.812 E36.9091
G1 X103.452 Y78.54 E36.92992
G1 X103.596 Y78.44 E36.93808
G1 X104.124 Y78.122 E36.96678
G1 X104.689 Y77.875 E36.9955
G1 X105.282 Y77.703 E37.02425
G1 X105.891 Y77.609 E37.05294
G1 X106.31 Y77.59 E37.07247
G1 X112.835 Y77.589 E37.3763
G1 X113.451 Y77.629 E37.40505
G1 X114.056 Y77.748 E37.43376
G1 X114.641 Y77.944 E37.46249
G1 X115.195 Y78.215 E37.4912
G1 X115.71 Y78.554 E37.51991
G1 X116.202 Y78.983 E37.55031
G1 X116.366 Y79.147 E37.56111
G1 X116.773 Y79.611 E37.58985
G1 X117.116 Y80.123 E37.61855
G1 X117.391 Y80.675 E37.64726
G1 X117.592 Y81.258 E37.67598
G1 X117.715 Y81.863 E37.70472
G1 X117.76 Y82.513 E37.73506
G1 X117.76 Y116.448 E39.31522
G1 X117.72 Y117.063 E39.34392
G1 X117.601 Y117.669 E39.37267
G1 X117.404 Y118.253 E39.40137
G1 X117.134 Y118.808 E39.43011
G1 X116.969 Y119.075 E39.44473
G1 X116.875 Y119.217 E39.45266
G1 X116.502 Y119.709 E39.48141
G1 X116.069 Y120.147 E39.51008
G1 X115.582 Y120.526 E39.53882
G1 X115.051 Y120.839 E39.56752
G1 X114.763 Y120.973 E39.58231
G1 X108.405 Y123.666 E39.90383
G1 X108.368 Y123.69 E39.90588
G1 X108.335 Y123.719 E39.90793
G1 X108.312 Y123.749 E39.90969
G1 X108.298 Y123.775 E39.91106
G1 X108.286 Y123.808 E39.9127
G1 X108.278 Y123.857 E39.91501
G1 X108.26 Y129.561 E40.18061
G1 X108.229 Y130.088 E40.20519
G1 X108.151 Y130.769 E40.23711
G1 X108.041 Y131.376 E40.26584
G1 X107.912 Y131.807 E40.28679
G1 X107.69 Y132.438 E40.31793
G1 X107.448 Y133.005 E40.34664
G1 X107.227 Y133.396 E40.36755
G1 X106.869 Y133.964 E40.39882
G1 X106.507 Y134.463 E40.42752
G1 X106.194 Y134.806 E40.44914
G1 X105.715 Y135.281 E40.48056
G1 X105.25 Y135.686 E40.50927
G1 X104.877 Y135.943 E40.53036
G1 X104.308 Y136.297 E40.56157
G1 X103.765 Y136.588 E40.59025
