;FLAVOR:Marlin
;TIME:4849
;Filament used: 1.5932m
;Layer height: 0.12
;MINX:87
;MINY:86
;MINZ:0.12
;MAXX:133
;MAXY:134
;MAXZ:10.44
;Generated with Cura_SteamEngine master
M140 S70
M105
M190 S70
M104 S210
M105
M109 S210
M82 ;absolute extrusion mode
M201 X500.00 Y500.00 Z100.00 E5000.00 ;Setup machine max acceleration
M203 X500.00 Y500.00 Z10.00 E50.00 ;Setup machine max feedrate
M204 P500.00 R1000.00 T500.00 ;Setup Print/Retract/Travel acceleration
M205 X8.00 Y8.00 Z0.40 E5.00 ;Setup Jerk
M220 S100 ;Reset Feedrate
M221 S100 ;Reset Flowrate

G28 ;Home

G92 E0 ;Reset Extruder
G1 Z2.0 F3000 ;Move Z Axis up
G1 X10.1 Y20 Z0.28 F5000.0 ;Move to start position
G1 X10.1 Y200.0 Z0.28 F1500.0 E15 ;Draw the first line
G1 X10.4 Y200.0 Z0.28 F5000.0 ;Move to side a little
G1 X10.4 Y20 Z0.28 F1500.0 E30 ;Draw the second line
G92 E0 ;Reset Extruder
G1 Z2.0 F3000 ;Move Z Axis up

G92 E0
G92 E0
G1 F1500 E-6.5
;LAYER_COUNT:87
;LAYER:0
M107
G0 F6000 X89.193 Y88.499 Z0.12
;TYPE:SKIRT
G1 F1500 E0
G1 F1200 X89.486 Y88.206 E0.00827
G1 X89.671 Y88.035 E0.0133
G1 X89.987 Y87.768 E0.02155
G1 X90.17 Y87.626 E0.02617
G1 X90.506 Y87.384 E0.03444
G1 X90.725 Y87.24 E0.03967
G1 X91.078 Y87.03 E0.04787
G1 X91.294 Y86.913 E0.05277
G1 X91.666 Y86.731 E0.06103
G1 X91.889 Y86.633 E0.06589
G1 X92.274 Y86.482 E0.07415
G1 X92.51 Y86.401 E0.07913
G1 X92.905 Y86.283 E0.08735
G1 X93.135 Y86.224 E0.09209
G1 X93.541 Y86.137 E0.10038
G1 X93.799 Y86.093 E0.1056
G1 X94.208 Y86.042 E0.11383
G1 X94.448 Y86.022 E0.11863
G1 X94.861 Y86.004 E0.12688
G1 X94.992 Y86.001 E0.1295
G1 X121.999 Y86 E0.66845
G1 X122.093 Y86.001 E0.67033
G1 X122.606 Y86.017 E0.68057
G1 X122.798 Y86.03 E0.68441
G1 X123.32 Y86.08 E0.69487
G1 X123.525 Y86.107 E0.699
G1 X124.043 Y86.193 E0.70948
G1 X124.231 Y86.23 E0.7133
G1 X124.739 Y86.348 E0.72371
G1 X124.926 Y86.398 E0.72757
G1 X125.427 Y86.549 E0.73801
G1 X125.617 Y86.613 E0.74202
G1 X126.109 Y86.798 E0.75251
G1 X126.283 Y86.87 E0.75626
G1 X126.759 Y87.084 E0.76668
G1 X126.946 Y87.175 E0.77083
G1 X127.409 Y87.423 E0.78131
G1 X127.566 Y87.514 E0.78493
G1 X128.009 Y87.787 E0.79532
G1 X128.181 Y87.902 E0.79944
G1 X128.607 Y88.207 E0.8099
G1 X128.763 Y88.326 E0.81382
G1 X129.168 Y88.658 E0.82427
G1 X129.317 Y88.789 E0.82823
G1 X129.699 Y89.147 E0.83867
G1 X129.831 Y89.278 E0.84238
G1 X130.191 Y89.66 E0.85286
G1 X130.326 Y89.813 E0.85693
G1 X130.658 Y90.217 E0.86737
G1 X130.775 Y90.369 E0.87119
G1 X131.081 Y90.794 E0.88165
G1 X131.195 Y90.965 E0.88575
G1 X131.47 Y91.408 E0.89615
G1 X131.563 Y91.569 E0.89986
G1 X131.812 Y92.032 E0.91035
G1 X131.904 Y92.218 E0.9145
G1 X132.119 Y92.694 E0.92492
G1 X132.19 Y92.864 E0.92859
G1 X132.376 Y93.354 E0.93905
G1 X132.441 Y93.546 E0.9431
G1 X132.593 Y94.046 E0.95353
G1 X132.642 Y94.225 E0.95723
G1 X132.763 Y94.734 E0.96767
G1 X132.803 Y94.936 E0.97178
G1 X132.889 Y95.453 E0.98224
G1 X132.916 Y95.653 E0.98627
G1 X132.967 Y96.175 E0.99673
G1 X132.98 Y96.38 E1.00083
G1 X132.999 Y97.038 E1.01397
G1 X133 Y97.125 E1.01571
G1 X133 Y122.999 E1.53205
G1 X132.999 Y123.093 E1.53393
G1 X132.983 Y123.606 E1.54417
G1 X132.97 Y123.798 E1.54801
G1 X132.92 Y124.32 E1.55847
G1 X132.893 Y124.525 E1.5626
G1 X132.807 Y125.043 E1.57308
G1 X132.77 Y125.231 E1.5769
G1 X132.652 Y125.739 E1.58731
G1 X132.602 Y125.926 E1.59117
G1 X132.451 Y126.427 E1.60162
G1 X132.387 Y126.617 E1.60562
G1 X132.202 Y127.109 E1.61611
G1 X132.13 Y127.283 E1.61986
G1 X131.916 Y127.759 E1.63028
G1 X131.826 Y127.943 E1.63437
G1 X131.579 Y128.405 E1.64482
G1 X131.486 Y128.566 E1.64853
G1 X131.212 Y129.01 E1.65894
G1 X131.098 Y129.181 E1.66304
G1 X130.793 Y129.607 E1.6735
G1 X130.674 Y129.763 E1.67742
G1 X130.342 Y130.168 E1.68787
G1 X130.211 Y130.317 E1.69183
G1 X129.853 Y130.699 E1.70227
G1 X129.722 Y130.831 E1.70598
G1 X129.34 Y131.191 E1.71646
G1 X129.187 Y131.326 E1.72053
G1 X128.783 Y131.658 E1.73097
G1 X128.631 Y131.775 E1.7348
G1 X128.206 Y132.081 E1.74525
G1 X128.035 Y132.195 E1.74935
G1 X127.592 Y132.47 E1.75975
G1 X127.431 Y132.563 E1.76346
G1 X126.968 Y132.812 E1.77395
G1 X126.782 Y132.904 E1.7781
G1 X126.306 Y133.119 E1.78852
G1 X126.134 Y133.19 E1.79223
G1 X125.643 Y133.376 E1.80271
G1 X125.453 Y133.441 E1.80672
G1 X124.953 Y133.593 E1.81715
G1 X124.775 Y133.641 E1.82083
G1 X124.267 Y133.762 E1.83125
G1 X124.063 Y133.803 E1.8354
G1 X123.545 Y133.889 E1.84588
G1 X123.346 Y133.916 E1.84989
G1 X122.824 Y133.967 E1.86035
G1 X122.635 Y133.979 E1.86413
G1 X122.113 Y133.997 E1.87455
G1 X122.01 Y133.999 E1.87661
G1 X95.001 Y134 E2.4156
G1 X94.883 Y133.998 E2.41796
G1 X94.477 Y133.982 E2.42607
G1 X94.231 Y133.962 E2.43099
G1 X93.822 Y133.912 E2.43922
G1 X93.564 Y133.869 E2.44444
G1 X93.158 Y133.783 E2.45272
G1 X92.933 Y133.726 E2.45735
G1 X92.539 Y133.61 E2.46555
G1 X92.302 Y133.529 E2.47054
G1 X91.915 Y133.379 E2.47883
G1 X91.686 Y133.28 E2.48381
G1 X91.314 Y133.099 E2.49206
G1 X91.102 Y132.984 E2.49687
G1 X90.748 Y132.775 E2.50508
G1 X90.528 Y132.632 E2.51031
G1 X90.191 Y132.391 E2.51858
G1 X90.008 Y132.249 E2.52321
G1 X89.691 Y131.983 E2.53146
G1 X89.498 Y131.806 E2.53669
G1 X89.205 Y131.513 E2.54496
G1 X89.034 Y131.328 E2.54999
G1 X88.767 Y131.012 E2.55824
G1 X88.624 Y130.828 E2.56289
G1 X88.383 Y130.493 E2.57113
G1 X88.24 Y130.275 E2.57633
G1 X88.03 Y129.922 E2.58453
G1 X87.913 Y129.707 E2.58941
G1 X87.73 Y129.333 E2.59772
G1 X87.632 Y129.108 E2.60262
G1 X87.482 Y128.725 E2.61083
G1 X87.401 Y128.49 E2.61579
G1 X87.283 Y128.095 E2.62401
G1 X87.224 Y127.865 E2.62875
G1 X87.137 Y127.459 E2.63704
G1 X87.093 Y127.201 E2.64226
G1 X87.042 Y126.792 E2.65049
G1 X87.022 Y126.552 E2.65529
G1 X87.004 Y126.139 E2.66354
G1 X87.001 Y126.01 E2.66612
G1 X87 Y124.53 E2.69565
G1 X87.002 Y124.417 E2.69791
G1 X87.018 Y123.984 E2.70656
G1 X87.038 Y123.731 E2.71162
G1 X87.088 Y123.322 E2.71984
G1 X87.131 Y123.064 E2.72506
G1 X87.217 Y122.658 E2.73334
G1 X87.274 Y122.433 E2.73798
G1 X87.39 Y122.039 E2.74617
G1 X87.47 Y121.803 E2.75115
G1 X87.619 Y121.418 E2.75938
G1 X87.717 Y121.194 E2.76426
G1 X87.898 Y120.82 E2.77255
G1 X88.02 Y120.593 E2.7777
G1 X88.23 Y120.24 E2.78589
G1 X88.363 Y120.035 E2.79077
G1 X88.602 Y119.699 E2.799
G1 X88.749 Y119.51 E2.80378
G1 X89.015 Y119.193 E2.81204
G1 X89.192 Y119 E2.81726
G1 X89.484 Y118.708 E2.8255
G1 X89.665 Y118.541 E2.83042
G1 X89.981 Y118.273 E2.83869
G1 X90.171 Y118.124 E2.8435
G1 X90.508 Y117.882 E2.85178
G1 X90.735 Y117.734 E2.85719
G1 X91.054 Y117.546 E2.86458
G1 X91.298 Y117.417 E2.87009
G1 X91.631 Y117.26 E2.87744
G1 X91.88 Y117.157 E2.88281
G1 X92.23 Y117.029 E2.89025
G1 X92.504 Y116.943 E2.89598
G1 X92.861 Y116.85 E2.90334
G1 X93.126 Y116.793 E2.90875
G1 X93.494 Y116.732 E2.9162
G1 X93.765 Y116.7 E2.92164
G1 X94.133 Y116.673 E2.92901
G1 X94.41 Y116.666 E2.93454
G1 X94.78 Y116.673 E2.94192
G1 X95.063 Y116.691 E2.94758
G1 X95.431 Y116.733 E2.95497
G1 X95.712 Y116.779 E2.96065
G1 X96.076 Y116.856 E2.96808
G1 X96.33 Y116.922 E2.97332
G1 X96.684 Y117.03 E2.9807
G1 X96.969 Y117.132 E2.98674
G1 X97.31 Y117.275 E2.99412
G1 X97.379 Y117.305 E2.99562
G1 X98.26 Y117.7 E3.01489
G1 X98.922 Y117.975 E3.0292
G1 X99.584 Y118.228 E3.04334
G1 X100.229 Y118.449 E3.05695
G1 X100.877 Y118.652 E3.0705
G1 X101.497 Y118.826 E3.08335
G1 X102.191 Y118.999 E3.09762
G1 X102.778 Y119.123 E3.10959
G1 X103.442 Y119.244 E3.12306
G1 X104.039 Y119.333 E3.13511
G1 X104.71 Y119.412 E3.14859
G1 X105.306 Y119.462 E3.16053
G1 X105.95 Y119.495 E3.17339
G1 X106.554 Y119.508 E3.18545
G1 X107.204 Y119.5 E3.19842
G1 X107.811 Y119.474 E3.21055
G1 X108.456 Y119.423 E3.22346
G1 X109.077 Y119.355 E3.23593
G1 X109.729 Y119.262 E3.24907
G1 X110.337 Y119.154 E3.26139
G1 X110.997 Y119.018 E3.27484
G1 X111.647 Y118.86 E3.28819
G1 X112.285 Y118.685 E3.30139
G1 X112.937 Y118.485 E3.315
G1 X113.624 Y118.251 E3.32949
G1 X114.288 Y118.003 E3.34363
G1 X114.978 Y117.722 E3.3585
G1 X115.66 Y117.42 E3.37338
G1 X116.341 Y117.094 E3.38845
G1 X117.055 Y116.731 E3.40443
G1 X117.857 Y116.309 E3.42252
G1 X118.064 Y116.191 E3.42727
G1 X118.188 Y116.106 E3.43027
G1 X118.304 Y116.013 E3.43324
G1 X118.426 Y115.898 E3.43659
G1 X118.526 Y115.789 E3.43954
G1 X118.62 Y115.667 E3.44261
G1 X118.708 Y115.534 E3.44579
G1 X118.784 Y115.398 E3.4489
G1 X118.849 Y115.256 E3.45202
G1 X118.894 Y115.13 E3.45469
G1 X118.95 Y114.936 E3.45872
G1 X118.971 Y114.824 E3.46099
G1 X118.99 Y114.66 E3.46429
G1 X119 Y114.353 E3.47042
G1 X119 Y105.563 E3.64583
G1 X118.991 Y105.342 E3.65025
G1 X118.974 Y105.192 E3.65326
G1 X118.945 Y105.043 E3.65629
G1 X118.899 Y104.877 E3.65973
G1 X118.853 Y104.752 E3.66238
G1 X118.784 Y104.601 E3.6657
G1 X118.71 Y104.468 E3.66873
G1 X118.622 Y104.335 E3.67192
G1 X118.528 Y104.213 E3.67499
G1 X118.429 Y104.105 E3.67791
G1 X118.31 Y103.993 E3.68118
G1 X118.192 Y103.898 E3.6842
G1 X118.058 Y103.805 E3.68745
G1 X117.879 Y103.703 E3.69156
G1 X116.877 Y103.176 E3.71416
G1 X116.184 Y102.829 E3.72962
G1 X115.523 Y102.519 E3.74419
G1 X114.821 Y102.214 E3.75947
G1 X114.148 Y101.942 E3.77395
G1 X113.508 Y101.708 E3.78755
G1 X112.844 Y101.486 E3.80152
G1 X112.208 Y101.294 E3.81478
G1 X111.557 Y101.118 E3.82824
G1 X110.91 Y100.964 E3.84151
G1 X110.266 Y100.832 E3.85463
G1 X109.645 Y100.727 E3.8672
G1 X109.037 Y100.642 E3.87945
G1 X108.389 Y100.573 E3.89246
G1 X107.739 Y100.524 E3.90546
G1 X107.152 Y100.5 E3.91719
G1 X106.484 Y100.493 E3.93052
G1 X105.878 Y100.505 E3.94262
G1 X105.255 Y100.539 E3.95507
G1 X104.65 Y100.593 E3.96719
G1 X103.992 Y100.672 E3.98041
G1 X103.344 Y100.77 E3.99349
G1 X102.738 Y100.883 E4.00579
G1 X102.065 Y101.03 E4.01954
G1 X101.491 Y101.174 E4.03135
G1 X100.766 Y101.38 E4.04639
G1 X100.135 Y101.58 E4.0596
G1 X99.466 Y101.816 E4.07376
G1 X98.835 Y102.06 E4.08726
G1 X98.122 Y102.359 E4.10269
G1 X97.406 Y102.682 E4.11836
G1 X97.338 Y102.712 E4.11985
G1 X96.99 Y102.859 E4.12739
G1 X96.706 Y102.962 E4.13341
G1 X96.352 Y103.071 E4.14081
G1 X96.098 Y103.137 E4.14604
G1 X95.734 Y103.215 E4.15347
G1 X95.453 Y103.262 E4.15916
G1 X95.085 Y103.305 E4.16655
G1 X94.818 Y103.324 E4.17189
G1 X94.448 Y103.334 E4.17928
G1 X94.172 Y103.329 E4.18479
G1 X93.804 Y103.305 E4.19215
G1 X93.524 Y103.273 E4.19777
G1 X93.156 Y103.214 E4.20521
G1 X92.882 Y103.157 E4.21079
G1 X92.525 Y103.065 E4.21815
G1 X92.251 Y102.98 E4.22388
G1 X91.901 Y102.853 E4.23131
G1 X91.658 Y102.753 E4.23655
G1 X91.323 Y102.597 E4.24393
G1 X91.068 Y102.463 E4.24967
G1 X90.75 Y102.276 E4.25704
G1 X90.531 Y102.134 E4.26224
G1 X90.194 Y101.894 E4.2705
G1 X90.001 Y101.745 E4.27537
G1 X89.684 Y101.478 E4.28364
G1 X89.496 Y101.304 E4.28875
G1 X89.204 Y101.012 E4.29699
G1 X89.033 Y100.827 E4.30202
G1 X88.766 Y100.511 E4.31027
G1 X88.619 Y100.322 E4.31505
G1 X88.379 Y99.987 E4.32328
G1 X88.243 Y99.779 E4.32824
G1 X88.032 Y99.426 E4.33644
G1 X87.911 Y99.203 E4.34151
G1 X87.729 Y98.83 E4.34979
G1 X87.632 Y98.608 E4.35462
G1 X87.482 Y98.225 E4.36283
G1 X87.401 Y97.99 E4.36779
G1 X87.283 Y97.595 E4.37602
G1 X87.224 Y97.365 E4.38076
G1 X87.137 Y96.959 E4.38904
G1 X87.093 Y96.701 E4.39427
G1 X87.042 Y96.292 E4.40249
G1 X87.022 Y96.052 E4.4073
G1 X87.004 Y95.639 E4.41555
G1 X87.001 Y95.51 E4.41812
G1 X87 Y94.03 E4.44766
G1 X87.002 Y93.917 E4.44991
G1 X87.018 Y93.484 E4.45856
G1 X87.038 Y93.231 E4.46362
G1 X87.088 Y92.822 E4.47185
G1 X87.131 Y92.564 E4.47707
G1 X87.217 Y92.158 E4.48535
G1 X87.274 Y91.933 E4.48998
G1 X87.39 Y91.539 E4.49818
G1 X87.47 Y91.303 E4.50315
G1 X87.619 Y90.918 E4.51139
G1 X87.719 Y90.688 E4.51639
G1 X87.901 Y90.314 E4.52469
G1 X88.016 Y90.102 E4.52951
G1 X88.225 Y89.748 E4.53771
G1 X88.367 Y89.529 E4.54292
G1 X88.607 Y89.193 E4.55116
G1 X88.75 Y89.009 E4.55581
G1 X89.016 Y88.692 E4.56407
G1 X89.193 Y88.499 E4.56929
G0 F6000 X89.476 Y88.782
G1 F1200 X89.769 Y88.489 E4.57756
G1 X89.929 Y88.341 E4.58191
G1 X90.245 Y88.074 E4.59017
G1 X90.403 Y87.95 E4.59418
G1 X90.739 Y87.708 E4.60244
G1 X90.93 Y87.584 E4.60698
G1 X91.283 Y87.374 E4.61518
G1 X91.469 Y87.273 E4.6194
G1 X91.841 Y87.091 E4.62767
G1 X92.035 Y87.006 E4.6319
G1 X92.42 Y86.855 E4.64015
G1 X92.625 Y86.784 E4.64448
G1 X93.02 Y86.666 E4.65271
G1 X93.219 Y86.615 E4.6568
G1 X93.625 Y86.528 E4.66509
G1 X93.848 Y86.49 E4.66961
G1 X94.257 Y86.439 E4.67783
G1 X94.466 Y86.421 E4.68202
G1 X94.879 Y86.403 E4.69027
G1 X94.992 Y86.401 E4.69252
G1 X121.999 Y86.4 E5.23148
G1 X122.08 Y86.401 E5.23309
G1 X122.593 Y86.417 E5.24333
G1 X122.76 Y86.428 E5.24667
G1 X123.282 Y86.478 E5.25714
G1 X123.46 Y86.501 E5.26072
G1 X123.978 Y86.587 E5.2712
G1 X124.14 Y86.619 E5.2745
G1 X124.648 Y86.737 E5.2849
G1 X124.81 Y86.781 E5.28825
G1 X125.311 Y86.932 E5.29869
G1 X125.476 Y86.987 E5.30217
G1 X125.968 Y87.172 E5.31266
G1 X126.119 Y87.235 E5.31592
G1 X126.595 Y87.449 E5.32634
G1 X126.757 Y87.528 E5.32993
G1 X127.22 Y87.776 E5.34041
G1 X127.356 Y87.855 E5.34355
G1 X127.799 Y88.128 E5.35394
G1 X127.949 Y88.227 E5.35752
G1 X128.375 Y88.532 E5.36798
G1 X128.509 Y88.635 E5.37135
G1 X128.914 Y88.967 E5.3818
G1 X129.044 Y89.081 E5.38525
G1 X129.426 Y89.439 E5.3957
G1 X129.54 Y89.553 E5.39892
G1 X129.9 Y89.935 E5.40939
G1 X130.017 Y90.067 E5.41291
G1 X130.349 Y90.471 E5.42335
G1 X130.45 Y90.603 E5.42667
G1 X130.756 Y91.028 E5.43712
G1 X130.855 Y91.176 E5.44067
G1 X131.13 Y91.619 E5.45108
G1 X131.211 Y91.759 E5.4543
G1 X131.46 Y92.222 E5.46479
G1 X131.54 Y92.383 E5.46838
G1 X131.755 Y92.859 E5.4788
G1 X131.816 Y93.006 E5.48198
G1 X132.002 Y93.496 E5.49244
G1 X132.059 Y93.663 E5.49596
G1 X132.211 Y94.163 E5.50639
G1 X132.253 Y94.318 E5.5096
G1 X132.374 Y94.827 E5.52004
G1 X132.409 Y95.001 E5.52358
G1 X132.495 Y95.518 E5.53404
G1 X132.518 Y95.692 E5.53754
G1 X132.569 Y96.214 E5.54801
G1 X132.58 Y96.392 E5.55157
G1 X132.599 Y97.05 E5.5647
G1 X132.6 Y97.125 E5.5662
G1 X132.6 Y122.999 E6.08254
G1 X132.599 Y123.08 E6.08416
G1 X132.583 Y123.593 E6.0944
G1 X132.572 Y123.76 E6.09774
G1 X132.522 Y124.282 E6.10821
G1 X132.499 Y124.46 E6.11179
G1 X132.413 Y124.978 E6.12227
G1 X132.381 Y125.14 E6.12556
G1 X132.263 Y125.648 E6.13597
G1 X132.219 Y125.81 E6.13932
G1 X132.068 Y126.311 E6.14976
G1 X132.013 Y126.476 E6.15323
G1 X131.828 Y126.968 E6.16372
G1 X131.765 Y127.119 E6.16699
G1 X131.551 Y127.595 E6.1774
G1 X131.473 Y127.755 E6.18095
G1 X131.226 Y128.217 E6.19141
G1 X131.146 Y128.356 E6.19461
G1 X130.872 Y128.8 E6.20502
G1 X130.773 Y128.949 E6.20859
G1 X130.468 Y129.375 E6.21905
G1 X130.365 Y129.509 E6.22242
G1 X130.033 Y129.914 E6.23287
G1 X129.919 Y130.044 E6.23632
G1 X129.561 Y130.426 E6.24677
G1 X129.447 Y130.54 E6.24999
G1 X129.065 Y130.9 E6.26046
G1 X128.933 Y131.017 E6.26398
G1 X128.529 Y131.349 E6.27442
G1 X128.397 Y131.45 E6.27773
G1 X127.972 Y131.756 E6.28818
G1 X127.824 Y131.855 E6.29174
G1 X127.381 Y132.13 E6.30214
G1 X127.241 Y132.211 E6.30537
G1 X126.778 Y132.46 E6.31586
G1 X126.617 Y132.54 E6.31945
G1 X126.141 Y132.755 E6.32987
G1 X125.992 Y132.816 E6.33309
G1 X125.501 Y133.002 E6.34356
G1 X125.336 Y133.059 E6.34705
G1 X124.836 Y133.211 E6.35748
G1 X124.682 Y133.252 E6.36066
G1 X124.174 Y133.373 E6.37108
G1 X123.998 Y133.409 E6.37466
G1 X123.48 Y133.495 E6.38514
G1 X123.307 Y133.518 E6.38862
G1 X122.785 Y133.569 E6.39909
G1 X122.622 Y133.579 E6.40235
G1 X122.1 Y133.597 E6.41277
G1 X122.01 Y133.599 E6.41457
G1 X95.001 Y133.6 E6.95356
G1 X94.899 Y133.598 E6.9556
G1 X94.493 Y133.582 E6.96371
G1 X94.28 Y133.565 E6.96797
G1 X93.871 Y133.515 E6.97619
G1 X93.647 Y133.478 E6.98073
G1 X93.241 Y133.392 E6.98901
G1 X93.046 Y133.342 E6.99302
G1 X92.652 Y133.226 E7.00122
G1 X92.446 Y133.156 E7.00556
G1 X92.059 Y133.006 E7.01385
G1 X91.861 Y132.92 E7.01815
G1 X91.489 Y132.739 E7.02641
G1 X91.305 Y132.64 E7.03058
G1 X90.951 Y132.431 E7.03878
G1 X90.761 Y132.307 E7.04331
G1 X90.424 Y132.066 E7.05158
G1 X90.265 Y131.943 E7.05559
G1 X89.948 Y131.677 E7.06385
G1 X89.781 Y131.523 E7.06838
G1 X89.488 Y131.23 E7.07665
G1 X89.34 Y131.07 E7.081
G1 X89.073 Y130.754 E7.08926
G1 X88.948 Y130.594 E7.09331
G1 X88.707 Y130.259 E7.10154
G1 X88.584 Y130.07 E7.10604
G1 X88.374 Y129.717 E7.11424
G1 X88.273 Y129.531 E7.11846
G1 X88.09 Y129.157 E7.12677
G1 X88.004 Y128.962 E7.13103
G1 X87.854 Y128.579 E7.13923
G1 X87.784 Y128.375 E7.14354
G1 X87.666 Y127.98 E7.15177
G1 X87.615 Y127.781 E7.15587
