;FLAVOR:Marlin
;TIME:4710
;Filament used: 2.58575m
;Layer height: 0.1
;Generated with Cura_SteamEngine master
M140 S70
M105
M190 S70
M104 S200
M105
M109 S200
M82 ;absolute extrusion mode
G21 ;metric values
G90 ;absolute positioning
M82 ;set extruder to absolute mode
M107 ;start with the fan off
G28 X0 Y0 ;move X/Y to min endstops
G28 Z0 ;move Z to min endstops
G1 Z15.0 F100 ;move the platform down 15mm
G92 E0 ;zero the extruded length
G1 F200 E3 ;extrude 3mm of feed stock
G92 E0 ;zero the extruded length again
G1 F100
M117 Printing...
G5
G92 E0
G1 F2400 E-6
;LAYER_COUNT:160
;LAYER:0
M106 S255
M204 S3000
M205 X10 Y10
G0 F3000 X101.159 Y72.451 Z0.2
M204 S1800
M205 X8 Y8
;TYPE:SKIRT
G1 F2400 E0
G1 X101.625 Y71.828 E0.03623
G1 X102.152 Y71.256 E0.07244
G1 X102.91 Y70.606 E0.11894
G1 X103.061 Y70.493 E0.12772
G1 X103.707 Y70.06 E0.16393
G1 X104.394 Y69.695 E0.20016
G1 X105.114 Y69.403 E0.23634
G1 X105.861 Y69.187 E0.27254
G1 X106.626 Y69.048 E0.30875
G1 X107.635 Y68.986 E0.35582
G1 X110.404 Y69.002 E0.48476
G1 X111.18 Y69.047 E0.52095
G1 X111.947 Y69.171 E0.55713
G1 X112.355 Y69.281 E0.57681
G1 X113.086 Y69.122 E0.61164
G1 X113.859 Y69.036 E0.64786
G1 X114.348 Y69.023 E0.67064
G1 X117.019 Y69.038 E0.79501
G1 X117.796 Y69.082 E0.83125
G1 X118.563 Y69.206 E0.86743
G1 X119.314 Y69.408 E0.90364
G1 X120.04 Y69.686 E0.93984
G1 X120.734 Y70.037 E0.97605
G1 X121.387 Y70.458 E1.01223
G1 X121.995 Y70.943 E1.04845
G1 X122.339 Y71.269 E1.07052
G1 X122.503 Y71.434 E1.08135
G1 X123.022 Y72.012 E1.11752
G1 X123.479 Y72.641 E1.15372
G1 X123.868 Y73.314 E1.18992
G1 X124.187 Y74.023 E1.22612
G1 X124.431 Y74.761 E1.26232
G1 X124.598 Y75.521 E1.29855
G1 X124.686 Y76.293 E1.33473
G1 X124.701 Y76.833 E1.35988
G1 X124.592 Y88.584 E1.90708
G1 X124.545 Y89.36 E1.94328
G1 X124.418 Y90.127 E1.97948
G1 X124.213 Y90.877 E2.01569
G1 X123.932 Y91.602 E2.05189
G1 X123.579 Y92.295 E2.08811
G1 X123.156 Y92.947 E2.1243
G1 X122.668 Y93.552 E2.16049
G1 X122.347 Y93.89 E2.1822
G1 X118.28 Y97.911 E2.4485
G1 X118.259 Y101.797 E2.62946
G1 X118.572 Y102.24 E2.65471
G1 X118.954 Y102.917 E2.69091
G1 X119.237 Y103.558 E2.72354
G1 X119.345 Y103.837 E2.73747
G1 X119.588 Y104.575 E2.77365
G1 X119.754 Y105.335 E2.80987
G1 X119.841 Y106.107 E2.84604
G1 X119.854 Y106.688 E2.87311
G1 X119.849 Y106.999 E2.88759
G1 X119.797 Y107.774 E2.92376
G1 X119.665 Y108.54 E2.95995
G1 X119.455 Y109.289 E2.99617
G1 X119.217 Y109.906 E3.02697
G1 X119.095 Y110.185 E3.04114
G1 X118.747 Y110.88 E3.07734
G1 X118.33 Y111.536 E3.11353
G1 X118.251 Y111.636 E3.11947
G1 X118.504 Y112.111 E3.14453
G1 X118.798 Y112.831 E3.18074
G1 X119.016 Y113.577 E3.21693
G1 X119.157 Y114.341 E3.25311
G1 X119.218 Y115.116 E3.2893
G1 X119.2 Y115.894 E3.32554
G1 X119.101 Y116.665 E3.36174
G1 X118.924 Y117.422 E3.39794
G1 X118.671 Y118.157 E3.43413
G1 X118.352 Y118.843 E3.46936
G1 X118.148 Y119.231 E3.48977
G1 X117.752 Y119.9 E3.52597
G1 X117.259 Y120.56 E3.56433
G1 X116.802 Y121.107 E3.59752
G1 X116.273 Y121.677 E3.63373
G1 X115.689 Y122.19 E3.66993
G1 X115.061 Y122.636 E3.70579
G1 X114.265 Y123.143 E3.74974
G1 X113.589 Y123.527 E3.78594
G1 X112.877 Y123.839 E3.82214
G1 X112.137 Y124.076 E3.85832
G1 X111.376 Y124.236 E3.89453
G1 X111.188 Y124.255 E3.90333
G1 X111.466 Y124.694 E3.92752
G1 X111.903 Y125.502 E3.9703
G1 X112.237 Y126.203 E4.00645
G1 X112.427 Y126.712 E4.03175
G1 X112.852 Y127.99 E4.09447
G1 X113.059 Y128.74 E4.1307
G1 X113.19 Y129.528 E4.16789
G1 X113.341 Y130.866 E4.23059
G1 X113.389 Y131.642 E4.26679
G1 X113.356 Y132.419 E4.30301
G1 X113.232 Y133.742 E4.36488
G1 X113.12 Y134.512 E4.40111
G1 X112.927 Y135.271 E4.43758
G1 X112.527 Y136.564 E4.5006
G1 X112.26 Y137.294 E4.5368
G1 X112.031 Y137.781 E4.56185
G1 X111.621 Y138.58 E4.60367
G1 X111.092 Y139.459 E4.65144
G1 X110.577 Y140.196 E4.69331
G1 X109.907 Y141.024 E4.7429
G1 X109.291 Y141.684 E4.78494
G1 X108.527 Y142.397 E4.8336
G1 X107.828 Y142.964 E4.87551
G1 X106.977 Y143.562 E4.92394
G1 X106.208 Y144.027 E4.96579
G1 X105.267 Y144.51 E5.01504
G1 X104.434 Y144.866 E5.05722
G1 X103.704 Y145.134 E5.09343
G1 X103.192 Y145.274 E5.11815
G1 X101.894 Y145.579 E5.18024
G1 X101.129 Y145.717 E5.21643
G1 X100.619 Y145.765 E5.24029
G1 X99.721 Y145.819 E5.28218
G1 X98.943 Y145.826 E5.3184
G1 X98.409 Y145.784 E5.34335
G1 X97.07 Y145.631 E5.4061
G1 X96.303 Y145.503 E5.44231
G1 X95.539 Y145.293 E5.4792
G1 X94.26 Y144.867 E5.54198
G1 X93.536 Y144.583 E5.57819
G1 X93.065 Y144.35 E5.60266
G1 X92.272 Y143.923 E5.6446
G1 X91.391 Y143.367 E5.69311
G1 X90.671 Y142.84 E5.73465
G1 X89.866 Y142.161 E5.78369
G1 X89.219 Y141.532 E5.82571
G1 X88.529 Y140.762 E5.87385
G1 X87.975 Y140.052 E5.91579
G1 X87.387 Y139.18 E5.96476
G1 X86.942 Y138.409 E6.00621
G1 X86.481 Y137.463 E6.05521
G1 X86.139 Y136.617 E6.0977
G1 X85.813 Y135.616 E6.14672
G1 X85.594 Y134.739 E6.18882
G1 X85.413 Y133.718 E6.2371
G1 X85.318 Y132.837 E6.27836
G1 X85.277 Y131.797 E6.32682
G1 X85.304 Y130.905 E6.36838
G1 X85.368 Y130.13 E6.40459
G1 X85.456 Y129.613 E6.42901
G1 X85.729 Y128.284 E6.49218
G1 X85.924 Y127.531 E6.5284
G1 X86.204 Y126.783 E6.56559
G1 X86.739 Y125.556 E6.62792
G1 X87.086 Y124.861 E6.66409
G1 X87.546 Y124.144 E6.70376
G1 X88.176 Y123.275 E6.75374
G1 X92.615 Y105.928 E7.58752
G1 X92.645 Y101.608 E7.78868
G1 X92.69 Y100.832 E7.82487
G1 X92.815 Y100.065 E7.86106
G1 X92.943 Y99.558 E7.88541
G1 X100.178 Y74.557 E9.09733
G1 X100.432 Y73.823 E9.13349
G1 X100.761 Y73.118 E9.16972
G1 X101.159 Y72.451 E9.20589
M204 S3000
M205 X10 Y10
G0 F3000 X101.672 Y72.692
M204 S1800
M205 X8 Y8
G1 F2400 X102.129 Y72.1 E9.24071
G1 X102.645 Y71.559 E9.27552
G1 X103.246 Y71.055 E9.31205
G1 X103.397 Y70.942 E9.32083
G1 X104.019 Y70.526 E9.35567
G1 X104.682 Y70.179 E9.39052
G1 X105.378 Y69.905 E9.42535
G1 X106.099 Y69.707 E9.46016
G1 X106.837 Y69.587 E9.49498
G1 X107.631 Y69.546 E9.532
G1 X110.4 Y69.562 E9.66094
G1 X111.147 Y69.606 E9.69578
G1 X111.885 Y69.73 E9.73063
G1 X112.369 Y69.866 E9.75404
G1 X112.61 Y69.792 E9.76578
G1 X113.344 Y69.649 E9.8006
G1 X114.345 Y69.583 E9.84731
G1 X117.016 Y69.598 E9.97168
G1 X117.763 Y69.642 E10.00653
G1 X118.501 Y69.766 E10.04137
G1 X119.221 Y69.968 E10.07619
G1 X119.916 Y70.245 E10.11103
G1 X120.577 Y70.595 E10.14586
G1 X121.197 Y71.013 E10.18068
G1 X121.942 Y71.663 E10.22671
G1 X122.106 Y71.828 E10.23755
G1 X122.604 Y72.386 E10.27237
G1 X123.04 Y72.994 E10.30721
G1 X123.408 Y73.645 E10.34203
G1 X123.705 Y74.332 E10.37688
G1 X123.927 Y75.046 E10.4117
G1 X124.072 Y75.78 E10.44654
G1 X124.141 Y76.828 E10.49544
G1 X124.032 Y88.579 E11.04264
G1 X123.985 Y89.326 E11.0775
G1 X123.858 Y90.063 E11.11232
G1 X123.654 Y90.782 E11.14712
G1 X123.374 Y91.476 E11.18197
G1 X123.022 Y92.136 E11.2168
G1 X122.601 Y92.755 E11.25165
G1 X121.954 Y93.492 E11.29732
G1 X117.722 Y97.677 E11.57446
G1 X117.698 Y101.97 E11.77436
G1 X117.701 Y101.974 E11.7746
G1 X118.13 Y102.587 E11.80944
G1 X118.49 Y103.243 E11.84428
G1 X118.715 Y103.76 E11.87054
G1 X118.823 Y104.039 E11.88447
G1 X119.055 Y104.75 E11.91929
G1 X119.211 Y105.482 E11.95414
G1 X119.287 Y106.226 E11.98897
G1 X119.294 Y106.679 E12.01006
G1 X119.289 Y106.99 E12.02454
G1 X119.237 Y107.736 E12.05937
G1 X119.106 Y108.472 E12.09418
G1 X118.897 Y109.19 E12.129
G1 X118.704 Y109.682 E12.15361
G1 X118.582 Y109.961 E12.16778
G1 X118.246 Y110.629 E12.2026
G1 X117.84 Y111.258 E12.23746
G1 X117.571 Y111.591 E12.2574
G1 X117.799 Y111.959 E12.27755
G1 X118.123 Y112.633 E12.31238
G1 X118.373 Y113.338 E12.34721
G1 X118.547 Y114.066 E12.38206
G1 X118.642 Y114.808 E12.41689
G1 X118.657 Y115.556 E12.45173
G1 X118.593 Y116.301 E12.48655
G1 X118.449 Y117.035 E12.52138
G1 X118.228 Y117.75 E12.55623
G1 X117.857 Y118.583 E12.59869
G1 X117.653 Y118.971 E12.6191
G1 X117.27 Y119.613 E12.65391
G1 X116.829 Y120.201 E12.68813
G1 X116.372 Y120.748 E12.72132
G1 X115.862 Y121.296 E12.75618
G1 X115.297 Y121.786 E12.79101
G1 X114.761 Y122.164 E12.82155
G1 X113.965 Y122.671 E12.86549
G1 X113.313 Y123.039 E12.90035
G1 X112.626 Y123.335 E12.93519
G1 X111.911 Y123.556 E12.97003
G1 X111.177 Y123.699 E13.00485
G1 X110.432 Y123.763 E13.03967
G1 X110.171 Y123.758 E13.05183
G1 X110.452 Y124.139 E13.07387
G1 X110.973 Y124.96 E13.11915
G1 X111.41 Y125.768 E13.16192
G1 X111.73 Y126.444 E13.19675
G1 X111.895 Y126.889 E13.21885
G1 X112.32 Y128.167 E13.28156
G1 X112.518 Y128.889 E13.31642
G1 X112.634 Y129.591 E13.34955
G1 X112.785 Y130.929 E13.41225
G1 X112.829 Y131.676 E13.4471
G1 X112.798 Y132.367 E13.4793
G1 X112.674 Y133.69 E13.54118
G1 X112.565 Y134.43 E13.57601
G1 X112.392 Y135.106 E13.6085
G1 X111.992 Y136.399 E13.67152
G1 X111.733 Y137.101 E13.70636
G1 X111.533 Y137.526 E13.72824
G1 X111.123 Y138.325 E13.77005
G1 X110.633 Y139.139 E13.81429
G1 X110.118 Y139.876 E13.85616
G1 X109.497 Y140.642 E13.90208
G1 X108.881 Y141.302 E13.94411
G1 X108.174 Y141.962 E13.98915
G1 X107.475 Y142.529 E14.03106
G1 X106.687 Y143.083 E14.07591
G1 X105.918 Y143.548 E14.11776
G1 X105.047 Y143.995 E14.16335
G1 X104.214 Y144.351 E14.20553
G1 X103.511 Y144.608 E14.24038
G1 X103.064 Y144.728 E14.26193
G1 X101.766 Y145.033 E14.32402
G1 X101.03 Y145.165 E14.35884
G1 X100.585 Y145.206 E14.37965
G1 X99.687 Y145.26 E14.42154
G1 X98.939 Y145.265 E14.45637
G1 X98.472 Y145.228 E14.47818
G1 X97.133 Y145.075 E14.54094
G1 X96.396 Y144.95 E14.57574
G1 X95.716 Y144.761 E14.60861
G1 X94.437 Y144.335 E14.67138
G1 X93.741 Y144.061 E14.70621
G1 X93.33 Y143.857 E14.72758
G1 X92.537 Y143.43 E14.76951
G1 X91.722 Y142.916 E14.81438
G1 X91.002 Y142.389 E14.85593
G1 X90.257 Y141.759 E14.90136
G1 X89.61 Y141.13 E14.94338
G1 X88.97 Y140.417 E14.98799
G1 X88.416 Y139.707 E15.02992
G1 X87.872 Y138.9 E15.07524
G1 X87.427 Y138.129 E15.11669
G1 X87 Y137.254 E15.16203
G1 X86.658 Y136.408 E15.20452
G1 X86.357 Y135.48 E15.24995
G1 X86.138 Y134.603 E15.29204
G1 X85.969 Y133.657 E15.33679
G1 X85.874 Y132.776 E15.37805
G1 X85.837 Y131.814 E15.42287
G1 X85.864 Y130.922 E15.46443
G1 X85.927 Y130.177 E15.49924
G1 X86.004 Y129.725 E15.52059
G1 X86.277 Y128.396 E15.58377
G1 X86.467 Y127.673 E15.61858
G1 X86.717 Y127.007 E15.6517
G1 X87.252 Y125.78 E15.71403
G1 X87.588 Y125.111 E15.74889
G1 X88 Y124.472 E15.78429
G1 X88.692 Y123.516 E15.83925
G1 X93.175 Y106.003 E16.68102
G1 X93.205 Y101.612 E16.88549
G1 X93.25 Y100.865 E16.92034
G1 X93.375 Y100.128 E16.95514
G1 X93.481 Y99.714 E16.97504
G1 X100.716 Y74.713 E18.18696
G1 X100.962 Y74.007 E18.22177
G1 X101.282 Y73.331 E18.2566
G1 X101.672 Y72.692 E18.29146
M204 S3000
M205 X10 Y10
G0 F3000 X102.184 Y72.938
M204 S1800
M205 X8 Y8
G1 F2400 X102.631 Y72.376 E18.32489
G1 X103.137 Y71.868 E18.35828
G1 X103.581 Y71.503 E18.38505
G1 X103.732 Y71.39 E18.39383
G1 X104.33 Y70.993 E18.42725
G1 X104.968 Y70.664 E18.46068
G1 X105.639 Y70.409 E18.4941
G1 X106.333 Y70.23 E18.52747
G1 X107.044 Y70.129 E18.56091
G1 X107.628 Y70.106 E18.58813
G1 X110.397 Y70.122 E18.71707
G1 X111.113 Y70.166 E18.75047
G1 X111.82 Y70.29 E18.78389
G1 X112.367 Y70.45 E18.81043
G1 X112.888 Y70.301 E18.83566
G1 X113.596 Y70.182 E18.86909
G1 X114.342 Y70.143 E18.90388
G1 X117.013 Y70.158 E19.02825
G1 X117.729 Y70.202 E19.06165
G1 X118.436 Y70.325 E19.09507
G1 X119.125 Y70.527 E19.1285
G1 X119.787 Y70.803 E19.1619
G1 X120.414 Y71.152 E19.19531
G1 X120.999 Y71.568 E19.22874
G1 X121.545 Y72.058 E19.2629
G1 X121.709 Y72.223 E19.27373
G1 X122.185 Y72.759 E19.30711
G1 X122.599 Y73.345 E19.34052
G1 X122.946 Y73.974 E19.37397
G1 X123.22 Y74.637 E19.40738
G1 X123.419 Y75.326 E19.44077
G1 X123.54 Y76.033 E19.47417
G1 X123.581 Y76.823 E19.51101
G1 X123.472 Y88.574 E20.0582
G1 X123.425 Y89.29 E20.09162
G1 X123.299 Y89.996 E20.12501
G1 X123.095 Y90.684 E20.15843
G1 X122.816 Y91.345 E20.19183
G1 X122.466 Y91.971 E20.22523
G1 X122.047 Y92.554 E20.25866
G1 X121.56 Y93.094 E20.29252
G1 X117.163 Y97.441 E20.58043
G1 X117.137 Y102.18 E20.8011
G1 X117.278 Y102.343 E20.81113
G1 X117.685 Y102.933 E20.84451
G1 X118.024 Y103.566 E20.87795
G1 X118.193 Y103.962 E20.89799
G1 X118.301 Y104.241 E20.91193
G1 X118.522 Y104.924 E20.94535
G1 X118.666 Y105.627 E20.97877
G1 X118.734 Y106.67 E21.02744
G1 X118.729 Y106.981 E21.04192
G1 X118.678 Y107.696 E21.0753
G1 X118.547 Y108.402 E21.10873
G1 X118.338 Y109.088 E21.14213
G1 X118.191 Y109.457 E21.16062
G1 X118.069 Y109.736 E21.1748
G1 X117.745 Y110.377 E21.20824
G1 X117.352 Y110.977 E21.24164
G1 X116.895 Y111.53 E21.27505
G1 X116.87 Y111.555 E21.27669
G1 X117.091 Y111.863 E21.29435
G1 X117.443 Y112.489 E21.32779
G1 X117.722 Y113.149 E21.36115
G1 X117.927 Y113.837 E21.39458
G1 X118.053 Y114.543 E21.42797
G1 X118.101 Y115.259 E21.46139
G1 X118.068 Y115.976 E21.49481
G1 X117.956 Y116.685 E21.52823
G1 X117.766 Y117.376 E21.5616
G1 X117.361 Y118.322 E21.60952
G1 X117.157 Y118.71 E21.62993
G1 X116.788 Y119.325 E21.66333
G1 X116.399 Y119.842 E21.69346
G1 X115.942 Y120.389 E21.72665
G1 X115.452 Y120.913 E21.76005
G1 X114.907 Y121.38 E21.79347
G1 X114.46 Y121.692 E21.81885
G1 X113.664 Y122.199 E21.8628
G1 X113.038 Y122.55 E21.89622
G1 X112.377 Y122.829 E21.92963
G1 X111.689 Y123.033 E21.96304
G1 X110.983 Y123.16 E21.99644
G1 X110.267 Y123.207 E22.02985
G1 X109.55 Y123.174 E22.06328
G1 X108.898 Y123.07 E22.09402
G1 X109.029 Y123.213 E22.10305
G1 X109.467 Y123.746 E22.13517
G1 X110.001 Y124.471 E22.1771
G1 X110.481 Y125.226 E22.21876
G1 X110.918 Y126.034 E22.26154
G1 X111.223 Y126.683 E22.29493
G1 X111.364 Y127.066 E22.31393
G1 X111.789 Y128.344 E22.37664
G1 X111.977 Y129.036 E22.41003
G1 X112.077 Y129.654 E22.43919
G1 X112.228 Y130.992 E22.50188
G1 X112.269 Y131.708 E22.53528
G1 X112.241 Y132.315 E22.56357
G1 X112.117 Y133.638 E22.62545
G1 X112.01 Y134.347 E22.65884
G1 X111.857 Y134.94 E22.68735
G1 X111.457 Y136.233 E22.75037
G1 X111.207 Y136.906 E22.7838
G1 X111.035 Y137.27 E22.80255
G1 X110.625 Y138.069 E22.84437
G1 X110.174 Y138.818 E22.88508
G1 X109.659 Y139.555 E22.92695
G1 X109.088 Y140.26 E22.96919
G1 X108.472 Y140.92 E23.01123
G1 X107.821 Y141.527 E23.05267
G1 X107.122 Y142.094 E23.09458
G1 X106.397 Y142.604 E23.13586
G1 X105.628 Y143.069 E23.1777
G1 X104.827 Y143.48 E23.21963
G1 X103.994 Y143.836 E23.26181
G1 X103.319 Y144.081 E23.29525
G1 X102.936 Y144.183 E23.3137
G1 X101.638 Y144.488 E23.37579
G1 X100.932 Y144.613 E23.40917
G1 X100.552 Y144.647 E23.42694
G1 X99.654 Y144.701 E23.46883
G1 X98.936 Y144.704 E23.50226
G1 X98.536 Y144.671 E23.52095
G1 X97.197 Y144.518 E23.58371
G1 X96.49 Y144.397 E23.61711
G1 X95.893 Y144.23 E23.64597
G1 X94.614 Y143.804 E23.70874
G1 X93.947 Y143.54 E23.74215
G1 X93.596 Y143.364 E23.76043
G1 X92.803 Y142.937 E23.80237
G1 X92.052 Y142.464 E23.8437
G1 X91.332 Y141.937 E23.88524
G1 X90.647 Y141.358 E23.92701
G1 X90 Y140.729 E23.96902
G1 X89.412 Y140.073 E24.01005
G1 X88.858 Y139.363 E24.05198
G1 X88.357 Y138.62 E24.09371
G1 X87.912 Y137.849 E24.13516
G1 X87.519 Y137.044 E24.17687
G1 X87.177 Y136.198 E24.21936
G1 X86.9 Y135.344 E24.26117
G1 X86.681 Y134.467 E24.30326
G1 X86.526 Y133.597 E24.34441
G1 X86.431 Y132.716 E24.38567
G1 X86.397 Y131.831 E24.42691
G1 X86.424 Y130.939 E24.46846
G1 X86.486 Y130.224 E24.50188
G1 X86.553 Y129.838 E24.52012
G1 X86.826 Y128.509 E24.5833
G1 X87.009 Y127.815 E24.61672
G1 X87.231 Y127.231 E24.64581
G1 X87.766 Y126.004 E24.70814
G1 X88.089 Y125.363 E24.74156
G1 X88.453 Y124.801 E24.77274
G1 X89.197 Y123.773 E24.83183
G1 X89.214 Y123.735 E24.83377
G1 X93.734 Y106.073 E25.68269
G1 X93.765 Y101.616 E25.89023
G1 X93.81 Y100.9 E25.92364
G1 X94.019 Y99.87 E25.97258
G1 X101.254 Y74.869 E27.18449
G1 X101.491 Y74.192 E27.21789
G1 X101.803 Y73.545 E27.25134
G1 X102.184 Y72.938 E27.28471
M204 S3000
M205 X10 Y10
G0 F3000 X102.695 Y73.187
M204 S1800
M205 X8 Y8
G1 F2400 X103.131 Y72.658 E27.31663
G1 X103.626 Y72.184 E27.34854
G1 X103.917 Y71.951 E27.3659
G1 X104.068 Y71.838 E27.37469
G1 X104.64 Y71.46 E27.40661
G1 X105.252 Y71.151 E27.43853
G1 X105.896 Y70.916 E27.47046
G1 X106.563 Y70.757 E27.50238
G1 X107.243 Y70.676 E27.53427
G1 X107.625 Y70.666 E27.55207
G1 X110.394 Y70.682 E27.681
G1 X111.078 Y70.726 E27.71292
G1 X111.753 Y70.849 E27.74487
G1 X112.369 Y71.038 E27.77487
G1 X112.497 Y70.988 E27.78127
G1 X113.161 Y70.816 E27.81321
G1 X113.84 Y70.722 E27.84513
