;FLAVOR:Marlin
;TIME:1967
;Filament used: 0.873813m
;Layer height: 0.1
;Generated with Cura_SteamEngine master
M140 S70
M105
M190 S70
M104 S200
M105
M109 S200
M82 ;absolute extrusion mode
G21 ;metric values
G90 ;absolute positioning
M82 ;set extruder to absolute mode
M107 ;start with the fan off
G28 X0 Y0 ;move X/Y to min endstops
G28 Z0 ;move Z to min endstops
G1 Z15.0 F100 ;move the platform down 15mm
G92 E0 ;zero the extruded length
G1 F200 E3 ;extrude 3mm of feed stock
G92 E0 ;zero the extruded length again
G1 F100
M117 Printing...
G5
G92 E0
G1 F2400 E-6
;LAYER_COUNT:160
;LAYER:0
M106 S255
M204 S3000
M205 X10 Y10
G0 F3000 X96.524 Y80.989 Z0.2
M204 S1800
M205 X8 Y8
;TYPE:SKIRT
G1 F2400 E0
G1 X97.054 Y80.42 E0.03621
G1 X97.578 Y79.958 E0.06874
G1 X98.385 Y79.31 E0.11693
G1 X99.015 Y78.855 E0.15312
G1 X99.626 Y78.5 E0.18602
G1 X100.874 Y77.85 E0.25154
G1 X101.581 Y77.527 E0.28774
G1 X102.463 Y77.238 E0.33095
G1 X103.82 Y76.885 E0.39624
G1 X104.581 Y76.729 E0.43242
G1 X105.278 Y76.655 E0.46505
G1 X106.313 Y76.594 E0.51333
G1 X107.091 Y76.588 E0.54956
G1 X107.781 Y76.651 E0.58182
G1 X109.165 Y76.84 E0.64687
G1 X109.929 Y76.984 E0.68307
G1 X110.799 Y77.252 E0.72546
G1 X112.115 Y77.746 E0.79091
G1 X112.828 Y78.057 E0.82713
G1 X113.631 Y78.52 E0.87029
G1 X114.785 Y79.284 E0.93474
G1 X115.411 Y79.746 E0.97096
G1 X115.77 Y80.061 E0.9932
G1 X116.293 Y80.549 E1.02651
G1 X116.833 Y81.107 E1.06267
G1 X117.165 Y81.516 E1.0872
G1 X118.009 Y82.632 E1.15235
G1 X118.445 Y83.275 E1.18853
G1 X118.767 Y83.864 E1.21978
G1 X119.222 Y84.792 E1.26791
G1 X119.528 Y85.507 E1.30412
G1 X119.745 Y86.196 E1.33776
G1 X120.105 Y87.564 E1.40363
G1 X120.264 Y88.325 E1.43983
G1 X120.324 Y88.815 E1.46282
G1 X120.385 Y89.497 E1.4947
G1 X120.414 Y90.273 E1.53086
G1 X120.393 Y90.746 E1.55291
G1 X120.286 Y92.147 E1.61833
G1 X120.187 Y92.918 E1.65453
G1 X120.028 Y93.611 E1.68764
G1 X119.745 Y94.621 E1.73648
G1 X119.497 Y95.358 E1.77268
G1 X119.205 Y96.005 E1.80574
G1 X118.575 Y97.245 E1.8705
G1 X118.188 Y97.919 E1.90669
G1 X117.717 Y98.571 E1.94415
G1 X116.566 Y99.996 E2.02944
G1 X116.291 Y100.457 E2.05444
G1 X116.117 Y100.91 E2.07703
G1 X116.05 Y101.216 E2.09162
G1 X114.978 Y110.861 E2.5435
G1 X114.959 Y111.304 E2.56414
G1 X115.022 Y111.901 E2.5921
G1 X115.262 Y112.533 E2.62357
G1 X115.595 Y113.151 E2.65626
G1 X115.924 Y113.843 E2.69194
G1 X116.32 Y114.797 E2.74004
G1 X116.581 Y115.529 E2.77623
G1 X116.705 Y115.997 E2.79877
G1 X116.944 Y117.034 E2.84832
G1 X117.079 Y117.8 E2.88454
G1 X117.134 Y118.51 E2.9177
G1 X117.175 Y119.907 E2.98278
G1 X117.158 Y120.684 E3.01897
G1 X117.074 Y121.377 E3.05147
G1 X116.903 Y122.399 E3.09972
G1 X116.736 Y123.158 E3.13591
G1 X116.518 Y123.825 E3.16859
G1 X116.018 Y125.147 E3.2344
G1 X115.706 Y125.859 E3.2706
G1 X115.241 Y126.661 E3.31376
G1 X114.475 Y127.812 E3.37814
G1 X114.011 Y128.437 E3.41439
G1 X113.548 Y128.948 E3.4465
G1 X112.802 Y129.7 E3.49582
G1 X112.227 Y130.223 E3.53201
G1 X111.657 Y130.647 E3.56509
G1 X110.494 Y131.43 E3.63038
G1 X109.828 Y131.831 E3.66658
G1 X108.971 Y132.221 E3.71042
G1 X107.668 Y132.719 E3.77537
G1 X106.928 Y132.959 E3.8116
G1 X106.056 Y133.138 E3.85305
G1 X104.679 Y133.338 E3.91784
G1 X103.905 Y133.411 E3.95404
G1 X102.99 Y133.393 E3.99666
G1 X101.588 Y133.281 E4.06215
G1 X100.817 Y133.179 E4.09836
G1 X100.125 Y133.018 E4.13144
G1 X99.107 Y132.729 E4.18072
G1 X98.371 Y132.478 E4.21693
G1 X97.723 Y132.184 E4.25006
G1 X96.496 Y131.555 E4.31427
G1 X95.824 Y131.165 E4.35044
G1 X95.262 Y130.762 E4.38265
G1 X94.432 Y130.107 E4.43188
G1 X93.847 Y129.594 E4.46811
G1 X93.496 Y129.229 E4.49169
G1 X92.785 Y128.439 E4.54118
G1 X92.295 Y127.836 E4.57736
G1 X92.009 Y127.415 E4.60106
G1 X91.449 Y126.527 E4.64994
G1 X91.069 Y125.849 E4.68613
G1 X90.864 Y125.399 E4.70916
G1 X90.462 Y124.433 E4.75788
G1 X90.201 Y123.7 E4.79411
G1 X90.078 Y123.236 E4.81646
G1 X89.84 Y122.21 E4.86551
G1 X89.703 Y121.445 E4.90169
G1 X89.648 Y120.741 E4.93458
G1 X89.604 Y119.347 E4.99952
G1 X89.619 Y118.569 E5.03575
G1 X89.7 Y117.881 E5.06801
G1 X89.868 Y116.86 E5.11619
G1 X90.034 Y116.1 E5.15241
G1 X90.247 Y115.438 E5.1848
G1 X90.737 Y114.128 E5.24992
G1 X91.047 Y113.415 E5.28613
G1 X91.397 Y112.786 E5.31964
G1 X91.952 Y111.893 E5.3686
G1 X92.472 Y111.158 E5.41053
G1 X93.523 Y109.846 E5.4888
G1 X93.81 Y109.285 E5.51814
G1 X93.901 Y108.969 E5.53346
G1 X95.041 Y98.616 E6.01845
G1 X95.029 Y98.321 E6.0322
G1 X95.014 Y98.223 E6.03681
G1 X94.994 Y98.14 E6.04079
G1 X94.739 Y97.469 E6.07421
G1 X94.405 Y96.849 E6.10701
G1 X93.993 Y95.95 E6.15305
G1 X93.496 Y94.645 E6.21808
G1 X93.257 Y93.905 E6.25429
G1 X93.078 Y93.032 E6.29578
G1 X92.881 Y91.665 E6.3601
G1 X92.81 Y90.891 E6.39629
G1 X92.814 Y90.206 E6.42818
G1 X92.867 Y89.157 E6.47709
G1 X92.946 Y88.383 E6.51332
G1 X93.093 Y87.664 E6.54749
G1 X93.444 Y86.292 E6.61344
G1 X93.675 Y85.55 E6.64962
G1 X94.044 Y84.711 E6.6923
G1 X94.675 Y83.483 E6.75659
G1 X95.065 Y82.81 E6.79281
G1 X95.612 Y82.074 E6.83551
G1 X96.524 Y80.989 E6.90151
M204 S3000
M205 X10 Y10
G0 F3000 X96.953 Y81.349
M204 S1800
M205 X8 Y8
G1 F2400 X97.464 Y80.803 E6.93633
G1 X97.928 Y80.395 E6.9651
G1 X98.735 Y79.747 E7.01329
G1 X99.343 Y79.31 E7.04816
G1 X99.884 Y78.997 E7.07726
G1 X101.132 Y78.347 E7.14278
G1 X101.813 Y78.037 E7.17762
G1 X102.604 Y77.78 E7.21635
G1 X103.961 Y77.427 E7.28164
G1 X104.694 Y77.278 E7.31647
G1 X105.311 Y77.214 E7.34536
G1 X106.346 Y77.153 E7.39363
G1 X107.094 Y77.149 E7.42846
G1 X107.705 Y77.205 E7.45703
G1 X109.089 Y77.394 E7.52208
G1 X109.824 Y77.535 E7.55693
G1 X110.602 Y77.777 E7.59486
G1 X111.918 Y78.271 E7.66032
G1 X112.603 Y78.57 E7.69512
G1 X113.322 Y78.987 E7.73382
G1 X114.476 Y79.751 E7.79827
G1 X115.077 Y80.197 E7.83312
G1 X115.388 Y80.47 E7.85239
G1 X115.911 Y80.958 E7.88569
G1 X116.429 Y81.497 E7.9205
G1 X116.718 Y81.854 E7.94189
G1 X117.562 Y82.97 E8.00704
G1 X117.981 Y83.59 E8.04189
G1 X118.264 Y84.11 E8.06946
G1 X118.719 Y85.038 E8.11758
G1 X119.012 Y85.727 E8.15245
G1 X119.204 Y86.339 E8.18231
G1 X119.564 Y87.707 E8.24818
G1 X119.715 Y88.439 E8.28298
G1 X119.766 Y88.864 E8.30291
G1 X119.827 Y89.546 E8.3348
G1 X119.854 Y90.294 E8.36965
G1 X119.835 Y90.703 E8.38872
G1 X119.728 Y92.104 E8.45414
G1 X119.631 Y92.846 E8.48899
G1 X119.488 Y93.46 E8.51834
G1 X119.205 Y94.47 E8.56718
G1 X118.965 Y95.178 E8.60199
G1 X118.706 Y95.752 E8.63132
G1 X118.076 Y96.992 E8.69608
G1 X117.702 Y97.64 E8.73092
G1 X117.281 Y98.219 E8.76425
G1 X116.106 Y99.674 E8.85134
G1 X115.786 Y100.21 E8.88041
G1 X115.579 Y100.749 E8.90729
G1 X115.496 Y101.129 E8.9254
G1 X114.421 Y110.801 E9.37855
G1 X114.398 Y111.325 E9.40297
G1 X114.473 Y112.033 E9.43612
G1 X114.748 Y112.758 E9.47223
G1 X115.103 Y113.417 E9.50708
G1 X115.407 Y114.057 E9.54007
G1 X115.803 Y115.011 E9.58817
G1 X116.053 Y115.717 E9.62305
G1 X116.159 Y116.123 E9.64258
G1 X116.398 Y117.16 E9.69214
G1 X116.527 Y117.897 E9.72698
G1 X116.574 Y118.527 E9.75639
G1 X116.615 Y119.924 E9.82147
G1 X116.597 Y120.671 E9.85627
G1 X116.522 Y121.284 E9.88502
G1 X116.351 Y122.306 E9.93327
G1 X116.188 Y123.036 E9.9681
G1 X115.994 Y123.627 E9.99707
G1 X115.494 Y124.949 E10.06288
G1 X115.193 Y125.634 E10.09772
G1 X114.774 Y126.351 E10.13639
G1 X114.008 Y127.502 E10.20077
G1 X113.561 Y128.102 E10.23561
G1 X113.151 Y128.554 E10.26402
G1 X112.405 Y129.306 E10.31335
G1 X111.85 Y129.808 E10.34819
G1 X111.344 Y130.183 E10.37752
G1 X110.181 Y130.966 E10.4428
G1 X109.539 Y131.35 E10.47764
G1 X108.771 Y131.698 E10.5169
G1 X107.468 Y132.196 E10.58185
G1 X106.756 Y132.425 E10.61668
G1 X105.975 Y132.584 E10.65379
G1 X104.598 Y132.784 E10.71858
G1 X103.853 Y132.852 E10.75342
G1 X103.035 Y132.835 E10.79151
G1 X101.633 Y132.723 E10.85701
G1 X100.891 Y132.623 E10.89187
G1 X100.278 Y132.479 E10.92119
G1 X99.26 Y132.19 E10.97046
G1 X98.553 Y131.947 E11.00528
G1 X97.979 Y131.685 E11.03466
G1 X96.752 Y131.056 E11.09886
G1 X96.105 Y130.68 E11.13371
G1 X95.609 Y130.322 E11.16219
G1 X94.779 Y129.667 E11.21142
G1 X94.217 Y129.173 E11.24626
G1 X93.912 Y128.855 E11.26678
G1 X93.201 Y128.065 E11.31627
G1 X92.731 Y127.483 E11.3511
G1 X92.483 Y127.116 E11.37173
G1 X91.923 Y126.228 E11.42061
G1 X91.558 Y125.575 E11.45545
G1 X91.381 Y125.183 E11.47548
G1 X90.979 Y124.217 E11.5242
G1 X90.729 Y123.512 E11.55903
G1 X90.623 Y123.11 E11.57839
G1 X90.385 Y122.084 E11.62743
G1 X90.255 Y121.347 E11.66228
G1 X90.207 Y120.723 E11.69142
G1 X90.163 Y119.329 E11.75636
G1 X90.18 Y118.581 E11.7912
G1 X90.253 Y117.971 E11.81981
G1 X90.421 Y116.95 E11.86799
G1 X90.582 Y116.22 E11.9028
G1 X90.772 Y115.635 E11.93144
G1 X91.262 Y114.325 E11.99656
G1 X91.561 Y113.639 E12.03141
G1 X91.873 Y113.082 E12.06114
G1 X92.428 Y112.189 E12.1101
G1 X92.909 Y111.508 E12.14892
G1 X93.998 Y110.148 E12.23005
G1 X94.333 Y109.495 E12.26422
G1 X94.453 Y109.075 E12.28456
G1 X95.602 Y98.634 E12.77367
G1 X95.588 Y98.278 E12.79026
G1 X95.562 Y98.111 E12.79813
G1 X95.531 Y97.978 E12.80449
G1 X95.25 Y97.238 E12.84135
G1 X94.897 Y96.583 E12.876
G1 X94.516 Y95.75 E12.91865
G1 X94.019 Y94.445 E12.98367
G1 X93.791 Y93.733 E13.01848
G1 X93.633 Y92.952 E13.05559
G1 X93.436 Y91.585 E13.1199
G1 X93.369 Y90.84 E13.15473
G1 X93.373 Y90.234 E13.18295
G1 X93.426 Y89.185 E13.23186
G1 X93.504 Y88.441 E13.26669
G1 X93.635 Y87.803 E13.29702
G1 X93.986 Y86.431 E13.36296
G1 X94.21 Y85.717 E13.3978
G1 X94.542 Y84.967 E13.436
G1 X95.173 Y83.739 E13.50028
G1 X95.55 Y83.093 E13.53511
G1 X96.041 Y82.434 E13.57338
G1 X96.953 Y81.349 E13.63938
M204 S3000
M205 X10 Y10
G0 F3000 X97.381 Y81.709
M204 S1800
M205 X8 Y8
G1 F2400 X97.873 Y81.187 E13.67278
G1 X98.279 Y80.831 E13.69792
G1 X99.086 Y80.183 E13.74612
G1 X99.669 Y79.766 E13.77949
G1 X100.143 Y79.493 E13.80496
G1 X101.391 Y78.843 E13.87048
G1 X102.045 Y78.548 E13.90389
G1 X102.745 Y78.322 E13.93814
G1 X104.102 Y77.969 E14.00343
G1 X104.805 Y77.828 E14.03682
G1 X105.344 Y77.773 E14.06205
G1 X106.379 Y77.712 E14.11033
G1 X107.097 Y77.71 E14.14376
G1 X107.629 Y77.76 E14.16864
G1 X109.013 Y77.949 E14.23368
G1 X109.718 Y78.086 E14.26713
G1 X110.405 Y78.301 E14.30065
G1 X111.721 Y78.795 E14.3661
G1 X112.378 Y79.084 E14.39952
G1 X113.013 Y79.454 E14.43374
G1 X114.167 Y80.218 E14.49819
G1 X115.005 Y80.879 E14.54789
G1 X115.528 Y81.367 E14.58119
G1 X116.025 Y81.885 E14.61462
G1 X116.271 Y82.191 E14.6329
G1 X117.115 Y83.307 E14.69806
G1 X117.516 Y83.903 E14.7315
G1 X117.761 Y84.357 E14.75553
G1 X118.216 Y85.285 E14.80365
G1 X118.496 Y85.946 E14.83708
G1 X118.662 Y86.481 E14.86316
G1 X119.022 Y87.849 E14.92903
G1 X119.166 Y88.552 E14.96245
G1 X119.208 Y88.914 E14.97941
G1 X119.269 Y89.596 E15.0113
G1 X119.276 Y90.66 E15.06084
G1 X119.169 Y92.061 E15.12627
G1 X119.075 Y92.773 E15.15971
G1 X118.949 Y93.309 E15.18535
G1 X118.666 Y94.319 E15.23419
G1 X118.434 Y94.998 E15.2676
G1 X118.206 Y95.498 E15.29319
G1 X117.576 Y96.738 E15.35796
G1 X117.216 Y97.359 E15.39138
G1 X116.845 Y97.867 E15.42067
G1 X115.647 Y99.351 E15.50948
G1 X115.28 Y99.966 E15.54283
G1 X115.042 Y100.586 E15.57375
G1 X114.944 Y101.032 E15.59501
G1 X113.863 Y110.762 E16.05087
G1 X113.836 Y111.346 E16.07809
G1 X113.92 Y112.139 E16.11523
G1 X113.932 Y112.187 E16.11753
G1 X114.237 Y112.992 E16.15761
G1 X114.61 Y113.683 E16.19418
G1 X114.89 Y114.272 E16.22455
G1 X115.286 Y115.226 E16.27264
G1 X115.613 Y116.249 E16.32265
G1 X115.852 Y117.286 E16.37221
G1 X115.974 Y117.993 E16.40561
G1 X116.014 Y118.543 E16.43129
G1 X116.055 Y119.94 E16.49637
G1 X116.036 Y120.657 E16.52977
G1 X115.97 Y121.192 E16.55487
G1 X115.799 Y122.214 E16.60312
G1 X115.641 Y122.914 E16.63653
G1 X115.471 Y123.429 E16.66179
G1 X114.971 Y124.751 E16.7276
G1 X114.68 Y125.407 E16.76102
G1 X114.308 Y126.041 E16.79524
G1 X113.542 Y127.192 E16.85962
G1 X113.112 Y127.766 E16.89302
G1 X112.753 Y128.159 E16.91781
G1 X112.007 Y128.911 E16.96713
G1 X111.474 Y129.392 E17.00056
G1 X111.032 Y129.718 E17.02613
G1 X109.869 Y130.501 E17.09142
G1 X109.252 Y130.868 E17.12485
G1 X108.571 Y131.175 E17.15963
G1 X107.268 Y131.673 E17.22458
G1 X106.585 Y131.891 E17.25797
G1 X105.895 Y132.03 E17.29074
G1 X104.518 Y132.23 E17.35553
G1 X103.803 Y132.294 E17.38896
G1 X103.079 Y132.277 E17.42268
G1 X101.677 Y132.165 E17.48817
G1 X100.966 Y132.068 E17.52159
G1 X100.431 Y131.94 E17.5472
G1 X99.413 Y131.651 E17.59648
G1 X98.735 Y131.417 E17.62987
G1 X98.234 Y131.187 E17.65554
G1 X97.007 Y130.558 E17.71975
G1 X96.388 Y130.195 E17.75316
G1 X95.955 Y129.882 E17.77804
G1 X95.125 Y129.227 E17.82727
G1 X94.588 Y128.752 E17.86066
G1 X94.328 Y128.48 E17.87818
G1 X93.617 Y127.69 E17.92767
G1 X93.168 Y127.131 E17.96105
G1 X92.957 Y126.817 E17.97867
G1 X92.397 Y125.929 E18.02755
G1 X92.048 Y125.302 E18.06097
G1 X91.898 Y124.968 E18.07802
G1 X91.496 Y124.002 E18.12674
G1 X91.169 Y122.983 E18.17657
G1 X90.931 Y121.957 E18.22561
G1 X90.808 Y121.25 E18.25903
G1 X90.767 Y120.705 E18.28448
G1 X90.723 Y119.311 E18.34942
G1 X90.741 Y118.594 E18.38282
G1 X90.805 Y118.062 E18.40777
G1 X90.973 Y117.041 E18.45595
G1 X91.129 Y116.341 E18.48934
G1 X91.296 Y115.831 E18.51433
G1 X91.786 Y114.521 E18.57946
G1 X92.075 Y113.864 E18.61288
G1 X92.348 Y113.378 E18.63884
G1 X92.903 Y112.485 E18.6878
G1 X93.346 Y111.858 E18.72354
G1 X94.469 Y110.455 E18.80722
G1 X94.855 Y109.704 E18.84654
G1 X95.006 Y109.179 E18.87198
G1 X96.163 Y98.66 E19.36474
G1 X96.145 Y98.217 E19.38539
G1 X96.114 Y98.011 E19.39509
G1 X96.066 Y97.809 E19.40475
G1 X95.762 Y97.006 E19.44474
G1 X95.39 Y96.317 E19.4812
G1 X95.04 Y95.551 E19.52041
G1 X94.543 Y94.246 E19.58543
G1 X94.325 Y93.562 E19.61886
G1 X94.187 Y92.873 E19.65158
G1 X93.99 Y91.506 E19.71589
G1 X93.927 Y90.791 E19.74932
G1 X93.932 Y90.262 E19.77395
G1 X93.985 Y89.213 E19.82286
G1 X94.061 Y88.5 E19.85625
G1 X94.178 Y87.942 E19.88279
G1 X94.529 Y86.57 E19.94874
G1 X94.745 Y85.886 E19.98214
G1 X95.04 Y85.223 E20.01593
G1 X95.671 Y83.995 E20.08022
G1 X96.034 Y83.376 E20.11363
G1 X96.469 Y82.794 E20.14746
G1 X97.381 Y81.709 E20.21346
M204 S3000
M205 X10 Y10
G0 F3000 X97.81 Y82.07
M204 S1800
M205 X8 Y8
G1 F2400 X98.281 Y81.571 E20.24541
G1 X98.629 Y81.268 E20.2669
G1 X99.436 Y80.62 E20.31509
G1 X99.995 Y80.223 E20.34702
G1 X100.402 Y79.99 E20.36886
G1 X101.65 Y79.34 E20.43438
G1 X102.275 Y79.059 E20.46629
G1 X102.886 Y78.864 E20.49615
G1 X104.243 Y78.511 E20.56144
G1 X104.915 Y78.378 E20.59334
G1 X105.377 Y78.332 E20.61496
G1 X106.412 Y78.271 E20.66324
G1 X107.098 Y78.271 E20.69518
G1 X107.554 Y78.315 E20.71651
G1 X108.938 Y78.504 E20.78155
G1 X109.61 Y78.636 E20.81344
G1 X110.208 Y78.825 E20.84265
G1 X111.524 Y79.319 E20.9081
G1 X112.151 Y79.597 E20.94004
G1 X112.704 Y79.921 E20.96988
G1 X113.858 Y80.685 E21.03432
G1 X114.623 Y81.289 E21.07971
G1 X115.146 Y81.777 E21.11302
G1 X115.825 Y82.529 E21.1602
G1 X116.669 Y83.645 E21.22535
G1 X117.05 Y84.215 E21.25727
G1 X117.259 Y84.603 E21.2778
G1 X117.714 Y85.531 E21.32592
G1 X117.979 Y86.164 E21.35788
G1 X118.12 Y86.624 E21.38028
G1 X118.48 Y87.992 E21.44615
G1 X118.651 Y88.964 E21.4921
G1 X118.712 Y89.646 E21.52399
G1 X118.718 Y90.618 E21.56925
G1 X118.611 Y92.019 E21.63467
G1 X118.519 Y92.698 E21.66658
G1 X118.41 Y93.157 E21.68855
G1 X118.127 Y94.167 E21.73739
G1 X117.904 Y94.816 E21.76934
G1 X117.707 Y95.244 E21.79128
G1 X117.077 Y96.484 E21.85605
G1 X116.732 Y97.076 E21.88795
G1 X116.41 Y97.515 E21.9133
G1 X115.184 Y99.033 E22.00416
G1 X114.774 Y99.721 E22.04146
G1 X114.504 Y100.423 E22.07648
G1 X114.39 Y100.944 E22.10131
G1 X113.303 Y110.722 E22.55942
G1 X113.275 Y111.36 E22.58916
G1 X113.367 Y112.23 E22.62989
G1 X113.395 Y112.35 E22.63563
G1 X113.729 Y113.229 E22.67942
G1 X114.117 Y113.949 E22.7175
G1 X114.373 Y114.487 E22.74524
G1 X114.769 Y115.441 E22.79334
G1 X115.068 Y116.374 E22.83896
G1 X115.307 Y117.411 E22.88852
G1 X115.422 Y118.087 E22.92045
G1 X115.454 Y118.56 E22.94252
G1 X115.495 Y119.957 E23.0076
G1 X115.476 Y120.642 E23.03951
G1 X115.417 Y121.099 E23.06096
G1 X115.246 Y122.121 E23.10921
G1 X115.094 Y122.79 E23.14116
G1 X114.947 Y123.231 E23.16281
G1 X114.447 Y124.553 E23.22862
G1 X114.167 Y125.179 E23.26055
G1 X113.842 Y125.731 E23.29038
G1 X113.076 Y126.882 E23.35476
G1 X112.664 Y127.429 E23.38664
G1 X112.355 Y127.765 E23.4079
